; Generated with MatterSlice 1.0
; filamentDiameter = 1.75
; extrusionWidth = 0.5
; firstLayerExtrusionWidth = 0.4
; layerThickness = 0.2
; firstLayerThickness = 0.3
; automatic settings before start_gcode
G21 ; set units to millimeters
M107 ; fan off
T0 ; set the active extruder to 0
; settings from start_gcode
M104 S210
M190 S50
M109 S210
G28
; automatic settings after start_gcode
T0 ; set the active extruder to 0
G90 ; use absolute coordinates
G92 E0 ; reset the expected extruder position
M82 ; use absolute distance for extrusion
; Layer count: 160
; Layer Change GCode
; LAYER:0
G4 P0
M107
G0 F18000 X70.229 Y-38.684 Z0.6
; TYPE:SKIRT
G1 Z0.3
G1 F6600 E0
G1 F720 X70.229 Y38.685 E3.85996
G1 X-4.477 Y39.6 E7.58733
G1 X-71.099 Y39.6 E10.91112
G1 X-71.099 Y-39.599 E14.86237
G1 X-4.477 Y-39.599 E18.18616
G1 X70.229 Y-38.684 E21.91353
G0 F18000 X69.829 Y-38.289
G1 F720 X69.829 Y38.29 E25.73408
G1 X-4.479 Y39.2 E29.44159
G1 X-70.699 Y39.2 E32.74532
G1 X-70.699 Y-39.199 E36.65667
G1 X-4.479 Y-39.199 E39.96039
G1 X69.829 Y-38.289 E43.66791
G1 F6600 E36.86791
G1 Z0.6
G0 F18000 X5.571 Y34.929
; TYPE:WALL-OUTER
G1 Z0.3
G1 F6600 E43.76791
G1 F720 X5.571 Y34.929 E43.76791
G1 X5.571 Y-34.928 E47.25309
G1 X66.429 Y-34.928 E50.28931
G1 X66.429 Y34.929 E53.77449
G1 X5.571 Y34.929 E56.81071
G0 F18000 X5.971 Y34.529
; TYPE:WALL-INNER
G1 F720 X5.971 Y34.529 E56.81071
G1 X5.971 Y-34.528 E60.25598
G1 X66.029 Y-34.528 E63.25228
G1 X66.029 Y34.529 E66.69755
G1 X5.971 Y34.529 E69.69386
G0 F18000 X57.628 Y3.025
G0 X57.628 Y3.025
G0 X57.7 Y2.735
; TYPE:WALL-OUTER
G1 F720 X57.7 Y2.735 E69.69386
G1 X58.419 Y2.719 E69.72974
G1 X59.108 Y2.518 E69.76554
G1 X59.722 Y2.145 E69.80139
G1 X60.219 Y1.626 E69.83724
G1 X60.564 Y0.998 E69.87298
G1 X60.735 Y0.3 E69.90884
G1 X60.719 Y-0.418 E69.94467
G1 X60.518 Y-1.107 E69.98047
G1 X60.145 Y-1.721 E70.01632
G1 X59.626 Y-2.218 E70.05217
G1 X58.997 Y-2.563 E70.08796
G1 X58.299 Y-2.734 E70.12381
G1 X57.58 Y-2.718 E70.15969
G1 X56.891 Y-2.517 E70.1955
G1 X56.277 Y-2.144 E70.23134
G1 X55.78 Y-1.625 E70.26719
G1 X55.435 Y-0.996 E70.30298
G1 X55.264 Y-0.298 E70.33884
G1 X55.28 Y0.42 E70.37467
G1 X55.481 Y1.108 E70.41043
G1 X55.854 Y1.722 E70.44627
G1 X56.373 Y2.219 E70.48212
G1 X57.002 Y2.564 E70.51791
G1 X57.7 Y2.735 E70.55376
G0 F18000 X57.656 Y3.136
; TYPE:WALL-INNER
G1 F720 X57.656 Y3.136 E70.55376
G1 X58.48 Y3.118 E70.59488
G1 X59.271 Y2.887 E70.63599
G1 X59.975 Y2.46 E70.67707
G1 X60.544 Y1.865 E70.71814
G1 X60.94 Y1.144 E70.75918
G1 X61.136 Y0.344 E70.80028
G1 X61.118 Y-0.479 E70.84135
G1 X60.887 Y-1.27 E70.88246
G1 X60.46 Y-1.974 E70.92354
G1 X59.865 Y-2.543 E70.96461
G1 X59.143 Y-2.939 E71.00569
G1 X58.343 Y-3.135 E71.04678
G1 X57.519 Y-3.117 E71.0879
G1 X56.728 Y-2.886 E71.12902
G1 X56.024 Y-2.459 E71.17009
G1 X55.455 Y-1.864 E71.21117
G1 X55.059 Y-1.142 E71.25225
G1 X54.863 Y-0.342 E71.29334
G1 X54.881 Y0.481 E71.33441
G1 X55.112 Y1.271 E71.37548
G1 X55.539 Y1.975 E71.41655
G1 X56.134 Y2.544 E71.45763
G1 X56.856 Y2.94 E71.49871
G1 X57.656 Y3.136 E71.5398
G0 F18000 X56.624 Y3.199
; TYPE:BOTTOM-FILL
G1 F720 X6.31 Y3.199 E74.04998
G0 F18000 X6.31 Y3.599
G1 F720 X65.689 Y3.599 E77.01241
G0 F18000 X65.689 Y3.199
G1 F720 X59.409 Y3.199 E77.32572
G0 F18000 X60.072 Y2.799
G1 F720 X65.689 Y2.799 E77.60595
G0 F18000 X65.689 Y2.399
G1 F720 X60.504 Y2.399 E77.86463
G0 F18000 X60.857 Y1.999
G1 F720 X65.689 Y1.999 E78.1057
G0 F18000 X65.689 Y1.599
G1 F720 X61.077 Y1.599 E78.3358
G0 F18000 X61.277 Y1.199
G1 F720 X65.689 Y1.199 E78.55591
G0 F18000 X65.689 Y0.799
G1 F720 X61.375 Y0.799 E78.77114
G0 F18000 X61.473 Y0.399
G1 F720 X65.689 Y0.399 E78.98148
G0 F18000 X65.689 Y0
G1 F720 X61.469 Y0 E79.19201
G0 F18000 X61.46 Y-0.4
G1 F720 X65.689 Y-0.4 E79.403
G0 F18000 X65.689 Y-0.8
G1 F720 X61.377 Y-0.8 E79.61812
G0 F18000 X61.26 Y-1.2
G1 F720 X65.689 Y-1.2 E79.83909
G0 F18000 X65.689 Y-1.6
G1 F720 X61.084 Y-1.6 E80.06883
G0 F18000 X60.842 Y-2
G1 F720 X65.689 Y-2 E80.31065
G0 F18000 X65.689 Y-2.4
G1 F720 X60.507 Y-2.4 E80.56918
G0 F18000 X60.087 Y-2.8
G1 F720 X65.689 Y-2.8 E80.84867
G0 F18000 X65.689 Y-3.2
G1 F720 X59.371 Y-3.2 E81.16387
G0 F18000 X56.597 Y-3.2
G1 F720 X6.311 Y-3.2 E83.67265
G0 F18000 X6.311 Y-2.8
G1 F720 X55.93 Y-2.8 E86.14815
G0 F18000 X55.497 Y-2.4
G1 F720 X6.311 Y-2.4 E88.60205
G0 F18000 X6.311 Y-2
G1 F720 X55.144 Y-2 E91.03834
G0 F18000 X54.924 Y-1.6
G1 F720 X6.311 Y-1.6 E93.46365
G0 F18000 X6.311 Y-1.2
G1 F720 X54.723 Y-1.2 E95.87894
G0 F18000 X54.625 Y-0.8
G1 F720 X6.311 Y-0.8 E98.28933
G0 F18000 X6.311 Y-0.4
G1 F720 X54.527 Y-0.4 E100.69484
G0 F18000 X54.53 Y0
G1 F720 X6.311 Y0 E103.1005
G0 F18000 X6.31 Y0.399
G1 F720 X54.539 Y0.399 E105.50665
G0 F18000 X54.621 Y0.799
G1 F720 X6.31 Y0.799 E107.9169
G0 F18000 X6.31 Y1.199
G1 F720 X54.738 Y1.199 E110.33298
G0 F18000 X54.914 Y1.599
G1 F720 X6.31 Y1.599 E112.75784
G0 F18000 X6.31 Y1.999
G1 F720 X55.156 Y1.999 E115.19478
G0 F18000 X55.49 Y2.399
G1 F720 X6.31 Y2.399 E117.64838
G0 F18000 X6.31 Y2.799
G1 F720 X55.91 Y2.799 E120.12293
G0 F18000 X56.919 Y2.923
G0 X57.657 Y3.133
G0 X58.534 Y3.121
G0 X65.689 Y3.999
G0 X65.689 Y3.999
G1 F720 X6.31 Y3.999 E123.08536
G0 F18000 X6.31 Y4.4
G1 F720 X65.689 Y4.399 E126.04779
G0 F18000 X65.689 Y4.799
G1 F720 X6.31 Y4.8 E129.01022
G0 F18000 X6.31 Y5.2
G1 F720 X65.689 Y5.199 E131.97265
G0 F18000 X65.689 Y5.599
G1 F720 X6.31 Y5.6 E134.93508
G0 F18000 X6.31 Y6
G1 F720 X65.689 Y5.999 E137.89751
G0 F18000 X65.689 Y6.399
G1 F720 X6.31 Y6.4 E140.85995
G0 F18000 X6.31 Y6.8
G1 F720 X65.689 Y6.799 E143.82238
G0 F18000 X65.689 Y7.199
G1 F720 X6.31 Y7.2 E146.78481
G0 F18000 X6.31 Y7.6
G1 F720 X65.689 Y7.599 E149.74724
G0 F18000 X65.689 Y7.999
G1 F720 X6.31 Y8 E152.70967
G0 F18000 X6.31 Y8.4
G1 F720 X65.689 Y8.399 E155.6721
G0 F18000 X65.689 Y8.799
G1 F720 X6.31 Y8.8 E158.63453
G0 F18000 X6.31 Y9.2
G1 F720 X65.689 Y9.199 E161.59696
G0 F18000 X65.689 Y9.599
G1 F720 X6.31 Y9.6 E164.55939
G0 F18000 X6.31 Y10
G1 F720 X65.689 Y9.999 E167.52182
G0 F18000 X65.689 Y10.399
G1 F720 X6.31 Y10.4 E170.48425
G0 F18000 X6.31 Y10.8
G1 F720 X65.689 Y10.799 E173.44668
G0 F18000 X65.689 Y11.199
G1 F720 X6.31 Y11.2 E176.40911
G0 F18000 X6.31 Y11.6
G1 F720 X65.689 Y11.599 E179.37154
G0 F18000 X65.689 Y11.999
G1 F720 X6.31 Y12 E182.33397
G0 F18000 X6.31 Y12.4
G1 F720 X65.689 Y12.399 E185.2964
G0 F18000 X65.689 Y12.799
G1 F720 X6.31 Y12.8 E188.25883
G0 F18000 X6.31 Y13.2
G1 F720 X65.689 Y13.199 E191.22126
G0 F18000 X65.689 Y13.599
G1 F720 X6.31 Y13.6 E194.18369
G0 F18000 X6.31 Y14
G1 F720 X65.689 Y13.999 E197.14612
G0 F18000 X65.689 Y14.399
G1 F720 X6.31 Y14.4 E200.10855
G0 F18000 X6.31 Y14.8
G1 F720 X65.689 Y14.799 E203.07098
G0 F18000 X65.689 Y15.199
G1 F720 X6.31 Y15.2 E206.03341
G0 F18000 X6.31 Y15.6
G1 F720 X65.689 Y15.599 E208.99584
G0 F18000 X65.689 Y15.999
G1 F720 X6.31 Y16 E211.95827
G0 F18000 X6.31 Y16.4
G1 F720 X65.689 Y16.399 E214.9207
G0 F18000 X65.689 Y16.799
G1 F720 X6.31 Y16.8 E217.88313
G0 F18000 X6.31 Y17.2
G1 F720 X65.689 Y17.199 E220.84556
G0 F18000 X65.689 Y17.599
G1 F720 X6.31 Y17.6 E223.80799
G0 F18000 X6.31 Y18
G1 F720 X65.689 Y17.999 E226.77042
G0 F18000 X65.689 Y18.399
G1 F720 X6.31 Y18.4 E229.73286
G0 F18000 X6.31 Y18.8
G1 F720 X65.689 Y18.799 E232.69529
G0 F18000 X65.689 Y19.199
G1 F720 X6.31 Y19.2 E235.65772
G0 F18000 X6.31 Y19.6
G1 F720 X65.689 Y19.599 E238.62015
G0 F18000 X65.689 Y19.999
G1 F720 X6.31 Y20 E241.58258
G0 F18000 X6.31 Y20.4
G1 F720 X65.689 Y20.399 E244.54501
G0 F18000 X65.689 Y20.799
G1 F720 X6.31 Y20.8 E247.50744
G0 F18000 X6.31 Y21.2
G1 F720 X65.689 Y21.199 E250.46987
G0 F18000 X65.689 Y21.599
G1 F720 X6.31 Y21.6 E253.4323
G0 F18000 X6.31 Y22
G1 F720 X65.689 Y21.999 E256.39473
G0 F18000 X65.689 Y22.399
G1 F720 X6.31 Y22.4 E259.35716
G0 F18000 X6.31 Y22.8
G1 F720 X65.689 Y22.799 E262.31959
G0 F18000 X65.689 Y23.199
G1 F720 X6.31 Y23.2 E265.28202
G0 F18000 X6.31 Y23.6
G1 F720 X65.689 Y23.599 E268.24445
G0 F18000 X65.689 Y23.999
G1 F720 X6.31 Y24 E271.20688
G0 F18000 X6.31 Y24.4
G1 F720 X65.689 Y24.399 E274.16931
G0 F18000 X65.689 Y24.799
G1 F720 X6.31 Y24.8 E277.13174
G0 F18000 X6.31 Y25.2
G1 F720 X65.689 Y25.199 E280.09417
G0 F18000 X65.689 Y25.599
G1 F720 X6.31 Y25.6 E283.0566
G0 F18000 X6.31 Y26
G1 F720 X65.689 Y25.999 E286.01903
G0 F18000 X65.689 Y26.399
G1 F720 X6.31 Y26.4 E288.98146
G0 F18000 X6.31 Y26.8
G1 F720 X65.689 Y26.799 E291.94389
G0 F18000 X65.689 Y27.199
G1 F720 X6.31 Y27.2 E294.90632
G0 F18000 X6.31 Y27.6
G1 F720 X65.689 Y27.599 E297.86875
G0 F18000 X65.689 Y27.999
G1 F720 X6.31 Y28 E300.83118
G0 F18000 X6.31 Y28.4
G1 F720 X65.689 Y28.399 E303.79361
G0 F18000 X65.689 Y28.799
G1 F720 X6.31 Y28.8 E306.75604
G0 F18000 X6.31 Y29.2
G1 F720 X65.689 Y29.199 E309.71847
G0 F18000 X65.689 Y29.599
G1 F720 X6.31 Y29.6 E312.6809
G0 F18000 X6.31 Y30
G1 F720 X65.689 Y29.999 E315.64334
G0 F18000 X65.689 Y30.399
G1 F720 X6.31 Y30.4 E318.60577
G0 F18000 X6.31 Y30.8
G1 F720 X65.689 Y30.799 E321.5682
G0 F18000 X65.689 Y31.199
G1 F720 X6.31 Y31.2 E324.53063
G0 F18000 X6.31 Y31.6
G1 F720 X65.689 Y31.599 E327.49306
G0 F18000 X65.689 Y31.999
G1 F720 X6.31 Y32 E330.45549
G0 F18000 X6.31 Y32.4
G1 F720 X65.689 Y32.399 E333.41792
G0 F18000 X65.689 Y32.799
G1 F720 X6.31 Y32.8 E336.38035
G0 F18000 X6.31 Y33.2
G1 F720 X65.689 Y33.199 E339.34278
G0 F18000 X65.689 Y33.599
G1 F720 X6.31 Y33.6 E342.30521
G0 F18000 X6.31 Y34
G1 F720 X65.689 Y33.999 E345.26764
G0 F18000 X65.689 Y-3.6
G0 X65.689 Y-3.6
G1 F720 X6.311 Y-3.6 E348.23002
G0 F18000 X6.311 Y-4
G1 F720 X65.689 Y-4 E351.1924
G0 F18000 X65.689 Y-4.4
G1 F720 X6.311 Y-4.4 E354.15478
G0 F18000 X6.311 Y-4.8
G1 F720 X65.689 Y-4.8 E357.11716
G0 F18000 X65.689 Y-5.2
G1 F720 X6.311 Y-5.2 E360.07954
G0 F18000 X6.311 Y-5.6
G1 F720 X65.689 Y-5.6 E363.04192
G0 F18000 X65.689 Y-6
G1 F720 X6.311 Y-6 E366.0043
G0 F18000 X6.311 Y-6.4
G1 F720 X65.689 Y-6.4 E368.96668
G0 F18000 X65.689 Y-6.8
G1 F720 X6.311 Y-6.8 E371.92906
G0 F18000 X6.311 Y-7.2
G1 F720 X65.689 Y-7.2 E374.89144
G0 F18000 X65.689 Y-7.6
G1 F720 X6.31 Y-7.6 E377.85387
G0 F18000 X6.31 Y-8
G1 F720 X65.689 Y-8 E380.8163
G0 F18000 X65.689 Y-8.4
G1 F720 X6.31 Y-8.4 E383.77873
G0 F18000 X6.31 Y-8.8
G1 F720 X65.689 Y-8.8 E386.74116
G0 F18000 X65.689 Y-9.2
G1 F720 X6.31 Y-9.2 E389.70359
G0 F18000 X6.31 Y-9.6
G1 F720 X65.689 Y-9.6 E392.66603
G0 F18000 X65.689 Y-10
G1 F720 X6.31 Y-10 E395.62846
G0 F18000 X6.31 Y-10.4
G1 F720 X65.689 Y-10.4 E398.59089
G0 F18000 X65.689 Y-10.8
G1 F720 X6.31 Y-10.8 E401.55332
G0 F18000 X6.31 Y-11.2
G1 F720 X65.689 Y-11.2 E404.51575
G0 F18000 X65.689 Y-11.6
G1 F720 X6.31 Y-11.6 E407.47818
G0 F18000 X6.31 Y-12
G1 F720 X65.689 Y-12 E410.44061
G0 F18000 X65.689 Y-12.4
G1 F720 X6.31 Y-12.4 E413.40304
G0 F18000 X6.31 Y-12.8
G1 F720 X65.689 Y-12.8 E416.36547
G0 F18000 X65.689 Y-13.2
G1 F720 X6.31 Y-13.2 E419.3279
G0 F18000 X6.31 Y-13.6
G1 F720 X65.689 Y-13.6 E422.29033
G0 F18000 X65.689 Y-14
G1 F720 X6.31 Y-14 E425.25276
G0 F18000 X6.31 Y-14.4
G1 F720 X65.689 Y-14.4 E428.21519
G0 F18000 X65.689 Y-14.8
G1 F720 X6.31 Y-14.8 E431.17762
G0 F18000 X6.31 Y-15.2
G1 F720 X65.689 Y-15.2 E434.14005
G0 F18000 X65.689 Y-15.6
G1 F720 X6.31 Y-15.6 E437.10248
G0 F18000 X6.31 Y-16
G1 F720 X65.689 Y-16 E440.06491
G0 F18000 X65.689 Y-16.4
G1 F720 X6.31 Y-16.4 E443.02734
G0 F18000 X6.31 Y-16.8
G1 F720 X65.689 Y-16.8 E445.98977
G0 F18000 X65.689 Y-17.2
G1 F720 X6.31 Y-17.2 E448.9522
G0 F18000 X6.31 Y-17.6
G1 F720 X65.689 Y-17.6 E451.91463
G0 F18000 X65.689 Y-18
G1 F720 X6.31 Y-18 E454.87706
G0 F18000 X6.31 Y-18.4
G1 F720 X65.689 Y-18.4 E457.83949
G0 F18000 X65.689 Y-18.8
G1 F720 X6.31 Y-18.8 E460.80192
G0 F18000 X6.31 Y-19.2
G1 F720 X65.689 Y-19.2 E463.76435
G0 F18000 X65.689 Y-19.6
G1 F720 X6.31 Y-19.6 E466.72678
G0 F18000 X6.31 Y-20
G1 F720 X65.689 Y-20 E469.68921
G0 F18000 X65.689 Y-20.4
G1 F720 X6.31 Y-20.4 E472.65164
G0 F18000 X6.31 Y-20.8
G1 F720 X65.689 Y-20.8 E475.61407
G0 F18000 X65.689 Y-21.2
G1 F720 X6.31 Y-21.2 E478.5765
G0 F18000 X6.31 Y-21.6
G1 F720 X65.689 Y-21.6 E481.53894
G0 F18000 X65.689 Y-22
G1 F720 X6.31 Y-22 E484.50137
G0 F18000 X6.31 Y-22.4
G1 F720 X65.689 Y-22.4 E487.4638
G0 F18000 X65.689 Y-22.8
G1 F720 X6.31 Y-22.8 E490.42623
G0 F18000 X6.31 Y-23.2
G1 F720 X65.689 Y-23.2 E493.38866
G0 F18000 X65.689 Y-23.6
G1 F720 X6.31 Y-23.6 E496.35109
G0 F18000 X6.31 Y-24
G1 F720 X65.689 Y-24 E499.31352
G0 F18000 X65.689 Y-24.4
G1 F720 X6.31 Y-24.4 E502.27595
G0 F18000 X6.31 Y-24.8
G1 F720 X65.689 Y-24.8 E505.23838
G0 F18000 X65.689 Y-25.2
G1 F720 X6.31 Y-25.2 E508.20081
G0 F18000 X6.31 Y-25.6
G1 F720 X65.689 Y-25.6 E511.16324
G0 F18000 X65.689 Y-26
G1 F720 X6.31 Y-26 E514.12567
G0 F18000 X6.31 Y-26.4
G1 F720 X65.689 Y-26.4 E517.0881
G0 F18000 X65.689 Y-26.8
G1 F720 X6.31 Y-26.8 E520.05053
G0 F18000 X6.31 Y-27.2
G1 F720 X65.689 Y-27.2 E523.01296
G0 F18000 X65.689 Y-27.6
G1 F720 X6.31 Y-27.6 E525.97539
G0 F18000 X6.31 Y-28
G1 F720 X65.689 Y-28 E528.93782
G0 F18000 X65.689 Y-28.4
G1 F720 X6.31 Y-28.4 E531.90025
G0 F18000 X6.31 Y-28.8
G1 F720 X65.689 Y-28.8 E534.86268
G0 F18000 X65.689 Y-29.2
G1 F720 X6.31 Y-29.2 E537.82511
G0 F18000 X6.31 Y-29.6
G1 F720 X65.689 Y-29.6 E540.78754
G0 F18000 X65.689 Y-30
G1 F720 X6.31 Y-30 E543.74997
G0 F18000 X6.31 Y-30.4
G1 F720 X65.689 Y-30.4 E546.7124
G0 F18000 X65.689 Y-30.8
G1 F720 X6.31 Y-30.8 E549.67483
G0 F18000 X6.31 Y-31.2
G1 F720 X65.689 Y-31.2 E552.63726
G0 F18000 X65.689 Y-31.6
G1 F720 X6.31 Y-31.6 E555.59969
G0 F18000 X6.31 Y-32
G1 F720 X65.689 Y-32 E558.56212
G0 F18000 X65.689 Y-32.4
G1 F720 X6.31 Y-32.4 E561.52455
G0 F18000 X6.31 Y-32.8
G1 F720 X65.689 Y-32.8 E564.48698
G0 F18000 X65.689 Y-33.2
G1 F720 X6.31 Y-33.2 E567.44941
G0 F18000 X6.31 Y-33.6
G1 F720 X65.689 Y-33.6 E570.41185
G0 F18000 X65.689 Y-34
G1 F720 X6.31 Y-34 E573.37428
G1 F6600 E566.57428
G1 Z0.6
G0 F18000 X-67.299 Y35.8
; TYPE:WALL-OUTER
G1 Z0.3
G1 F6600 E573.47428
G1 F720 X-67.299 Y35.8 E573.47428
G1 X-67.299 Y-35.799 E577.04636
G1 X-4.699 Y-35.799 E580.16949
G1 X-4.699 Y35.8 E583.74158
G1 X-67.299 Y35.8 E586.86471
G0 F18000 X-66.899 Y35.4
; TYPE:WALL-INNER
G1 F720 X-66.899 Y35.4 E586.86471
G1 X-66.899 Y-35.399 E590.39688
G1 X-5.099 Y-35.399 E593.4801
G1 X-5.099 Y35.4 E597.01227
G1 X-66.899 Y35.4 E600.09549
G0 F18000 X-66.559 Y34.8
; TYPE:BOTTOM-FILL
G1 F720 X-5.438 Y34.8 E603.14483
G0 F18000 X-5.438 Y34.4
G1 F720 X-66.559 Y34.4 E606.19417
G0 F18000 X-66.559 Y34
G1 F720 X-5.438 Y34 E609.24351
G0 F18000 X-5.438 Y33.6
G1 F720 X-66.559 Y33.6 E612.29284
G0 F18000 X-66.559 Y33.2
G1 F720 X-5.438 Y33.2 E615.34218
G0 F18000 X-5.438 Y32.8
G1 F720 X-66.559 Y32.8 E618.39152
G0 F18000 X-66.559 Y32.4
G1 F720 X-5.438 Y32.4 E621.44086
G0 F18000 X-5.438 Y32
G1 F720 X-66.559 Y32 E624.4902
G0 F18000 X-66.559 Y31.6
G1 F720 X-5.438 Y31.6 E627.53954
G0 F18000 X-5.438 Y31.2
G1 F720 X-66.559 Y31.2 E630.58888
G0 F18000 X-66.559 Y30.8
G1 F720 X-5.438 Y30.8 E633.63822
G0 F18000 X-5.438 Y30.4
G1 F720 X-66.559 Y30.4 E636.68756
G0 F18000 X-66.559 Y30
G1 F720 X-5.438 Y30 E639.7369
G0 F18000 X-5.438 Y29.6
G1 F720 X-66.559 Y29.6 E642.78624
G0 F18000 X-66.559 Y29.2
G1 F720 X-5.438 Y29.2 E645.83557
G0 F18000 X-5.438 Y28.8
G1 F720 X-66.559 Y28.8 E648.88491
G0 F18000 X-66.559 Y28.4
G1 F720 X-5.438 Y28.4 E651.93425
G0 F18000 X-5.438 Y28
G1 F720 X-66.559 Y28 E654.98359
G0 F18000 X-66.559 Y27.6
G1 F720 X-5.438 Y27.6 E658.03293
G0 F18000 X-5.438 Y27.2
G1 F720 X-66.559 Y27.2 E661.08227
G0 F18000 X-66.559 Y26.8
G1 F720 X-5.438 Y26.8 E664.13161
G0 F18000 X-5.438 Y26.4
G1 F720 X-66.559 Y26.4 E667.18095
G0 F18000 X-66.559 Y26
G1 F720 X-5.438 Y26 E670.23029
G0 F18000 X-5.438 Y25.6
G1 F720 X-66.559 Y25.6 E673.27963
G0 F18000 X-66.559 Y25.2
G1 F720 X-5.438 Y25.2 E676.32896
G0 F18000 X-5.438 Y24.8
G1 F720 X-66.559 Y24.8 E679.3783
G0 F18000 X-66.559 Y24.4
G1 F720 X-5.438 Y24.4 E682.42764
G0 F18000 X-5.438 Y24
G1 F720 X-66.559 Y24 E685.47698
G0 F18000 X-66.559 Y23.6
G1 F720 X-5.438 Y23.6 E688.52632
G0 F18000 X-5.438 Y23.2
G1 F720 X-66.559 Y23.2 E691.57566
G0 F18000 X-66.559 Y22.8
G1 F720 X-5.438 Y22.8 E694.625
G0 F18000 X-5.438 Y22.4
G1 F720 X-66.559 Y22.4 E697.67434
G0 F18000 X-66.559 Y22
G1 F720 X-5.438 Y22 E700.72368
G0 F18000 X-5.438 Y21.6
G1 F720 X-66.559 Y21.6 E703.77302
G0 F18000 X-66.559 Y21.2
G1 F720 X-5.438 Y21.2 E706.82236
G0 F18000 X-5.438 Y20.8
G1 F720 X-66.559 Y20.8 E709.87169
G0 F18000 X-66.559 Y20.4
G1 F720 X-5.438 Y20.4 E712.92103
G0 F18000 X-5.438 Y20
G1 F720 X-66.559 Y20 E715.97037
G0 F18000 X-66.559 Y19.6
G1 F720 X-5.438 Y19.6 E719.01971
G0 F18000 X-5.438 Y19.2
G1 F720 X-66.559 Y19.2 E722.06905
G0 F18000 X-66.559 Y18.8
G1 F720 X-5.438 Y18.8 E725.11839
G0 F18000 X-5.438 Y18.4
G1 F720 X-66.559 Y18.4 E728.16773
G0 F18000 X-66.559 Y18
G1 F720 X-5.438 Y18 E731.21707
G0 F18000 X-5.438 Y17.6
G1 F720 X-66.559 Y17.6 E734.26641
G0 F18000 X-66.559 Y17.2
G1 F720 X-5.438 Y17.2 E737.31575
G0 F18000 X-5.438 Y16.8
G1 F720 X-66.559 Y16.8 E740.36509
G0 F18000 X-66.559 Y16.4
G1 F720 X-5.438 Y16.4 E743.41442
G0 F18000 X-5.438 Y16
G1 F720 X-66.559 Y16 E746.46376
G0 F18000 X-66.559 Y15.6
G1 F720 X-5.438 Y15.6 E749.5131
G0 F18000 X-5.438 Y15.2
G1 F720 X-66.559 Y15.2 E752.56244
G0 F18000 X-66.559 Y14.8
G1 F720 X-5.438 Y14.8 E755.61178
G0 F18000 X-5.438 Y14.4
G1 F720 X-66.559 Y14.4 E758.66112
G0 F18000 X-66.559 Y14
G1 F720 X-5.438 Y14 E761.71046
G0 F18000 X-5.438 Y13.6
G1 F720 X-66.559 Y13.6 E764.7598
G0 F18000 X-66.559 Y13.2
G1 F720 X-5.438 Y13.2 E767.80914
G0 F18000 X-5.438 Y12.8
G1 F720 X-66.559 Y12.8 E770.85848
G0 F18000 X-66.559 Y12.4
G1 F720 X-5.438 Y12.4 E773.90782
G0 F18000 X-5.438 Y12
G1 F720 X-66.559 Y12 E776.95715
G0 F18000 X-66.559 Y11.6
G1 F720 X-5.438 Y11.6 E780.00649
G0 F18000 X-5.438 Y11.2
G1 F720 X-66.559 Y11.2 E783.05583
G0 F18000 X-66.559 Y10.8
G1 F720 X-5.438 Y10.8 E786.10517
G0 F18000 X-5.438 Y10.4
G1 F720 X-66.559 Y10.4 E789.15451
G0 F18000 X-66.559 Y10
G1 F720 X-5.438 Y10 E792.20385
G0 F18000 X-5.438 Y9.6
G1 F720 X-66.559 Y9.6 E795.25319
G0 F18000 X-66.559 Y9.2
G1 F720 X-5.438 Y9.2 E798.30253
G0 F18000 X-5.438 Y8.8
G1 F720 X-66.559 Y8.8 E801.35187
G0 F18000 X-66.559 Y8.4
G1 F720 X-5.438 Y8.4 E804.40121
G0 F18000 X-5.438 Y8
G1 F720 X-66.559 Y8 E807.45055
G0 F18000 X-66.559 Y7.6
G1 F720 X-5.438 Y7.6 E810.49988
G0 F18000 X-5.439 Y7.2
G1 F720 X-66.559 Y7.2 E813.54917
G0 F18000 X-66.559 Y6.8
G1 F720 X-5.439 Y6.8 E816.59846
G0 F18000 X-5.439 Y6.4
G1 F720 X-66.559 Y6.4 E819.64775
G0 F18000 X-66.559 Y6
G1 F720 X-5.439 Y6 E822.69704
G0 F18000 X-5.439 Y5.6
G1 F720 X-66.559 Y5.6 E825.74633
G0 F18000 X-66.559 Y5.2
G1 F720 X-5.439 Y5.2 E828.79562
G0 F18000 X-5.439 Y4.8
G1 F720 X-66.559 Y4.8 E831.84491
G0 F18000 X-66.559 Y4.4
G1 F720 X-5.439 Y4.4 E834.8942
G0 F18000 X-5.439 Y4
G1 F720 X-66.559 Y4 E837.94349
G0 F18000 X-66.559 Y3.6
G1 F720 X-5.439 Y3.6 E840.99278
G0 F18000 X-5.439 Y3.2
G1 F720 X-66.559 Y3.2 E844.04207
G0 F18000 X-66.559 Y2.8
G1 F720 X-5.439 Y2.8 E847.09135
G0 F18000 X-5.439 Y2.4
G1 F720 X-66.559 Y2.4 E850.14064
G0 F18000 X-66.559 Y2
G1 F720 X-5.439 Y2 E853.18993
G0 F18000 X-5.439 Y1.6
G1 F720 X-66.559 Y1.6 E856.23922
G0 F18000 X-66.559 Y1.2
G1 F720 X-5.439 Y1.2 E859.28851
G0 F18000 X-5.439 Y0.8
G1 F720 X-66.559 Y0.8 E862.3378
G0 F18000 X-66.559 Y0.4
G1 F720 X-5.439 Y0.4 E865.38709
G0 F18000 X-5.438 Y0
G1 F720 X-66.559 Y0 E868.43643
G0 F18000 X-66.559 Y-0.399
G1 F720 X-5.438 Y-0.399 E871.48577
G0 F18000 X-5.438 Y-0.799
G1 F720 X-66.559 Y-0.799 E874.53511
G0 F18000 X-66.559 Y-1.199
G1 F720 X-5.438 Y-1.199 E877.58445
G0 F18000 X-5.438 Y-1.599
G1 F720 X-66.559 Y-1.599 E880.63378
G0 F18000 X-66.559 Y-1.999
G1 F720 X-5.438 Y-1.999 E883.68312
G0 F18000 X-5.438 Y-2.399
G1 F720 X-66.559 Y-2.399 E886.73246
G0 F18000 X-66.559 Y-2.799
G1 F720 X-5.438 Y-2.799 E889.7818
G0 F18000 X-5.438 Y-3.199
G1 F720 X-66.559 Y-3.199 E892.83114
G0 F18000 X-66.559 Y-3.599
G1 F720 X-5.438 Y-3.599 E895.88048
G0 F18000 X-5.438 Y-3.999
G1 F720 X-66.559 Y-3.999 E898.92982
G0 F18000 X-66.559 Y-4.399
G1 F720 X-5.438 Y-4.4 E901.97916
G0 F18000 X-5.438 Y-4.8
G1 F720 X-66.559 Y-4.799 E905.0285
G0 F18000 X-66.559 Y-5.199
G1 F720 X-5.438 Y-5.2 E908.07784
G0 F18000 X-5.438 Y-5.6
G1 F720 X-66.559 Y-5.599 E911.12718
G0 F18000 X-66.559 Y-5.999
G1 F720 X-5.438 Y-6 E914.17651
G0 F18000 X-5.438 Y-6.4
G1 F720 X-66.559 Y-6.399 E917.22585
G0 F18000 X-66.559 Y-6.799
G1 F720 X-5.438 Y-6.8 E920.27519
G0 F18000 X-5.438 Y-7.2
G1 F720 X-66.559 Y-7.199 E923.32453
G0 F18000 X-66.559 Y-7.599
G1 F720 X-5.438 Y-7.6 E926.37387
G0 F18000 X-5.438 Y-8
G1 F720 X-66.559 Y-7.999 E929.42321
G0 F18000 X-66.559 Y-8.399
G1 F720 X-5.438 Y-8.4 E932.47255
G0 F18000 X-5.438 Y-8.8
G1 F720 X-66.559 Y-8.799 E935.52189
G0 F18000 X-66.559 Y-9.199
G1 F720 X-5.438 Y-9.2 E938.57123
G0 F18000 X-5.438 Y-9.6
G1 F720 X-66.559 Y-9.599 E941.62057
G0 F18000 X-66.559 Y-9.999
G1 F720 X-5.438 Y-10 E944.66991
G0 F18000 X-5.438 Y-10.4
G1 F720 X-66.559 Y-10.399 E947.71924
G0 F18000 X-66.559 Y-10.799
G1 F720 X-5.438 Y-10.8 E950.76858
G0 F18000 X-5.438 Y-11.2
G1 F720 X-66.559 Y-11.199 E953.81792
G0 F18000 X-66.559 Y-11.599
G1 F720 X-5.438 Y-11.6 E956.86726
G0 F18000 X-5.438 Y-12
G1 F720 X-66.559 Y-11.999 E959.9166
G0 F18000 X-66.559 Y-12.399
G1 F720 X-5.438 Y-12.4 E962.96594
G0 F18000 X-5.438 Y-12.8
G1 F720 X-66.559 Y-12.799 E966.01528
G0 F18000 X-66.559 Y-13.199
G1 F720 X-5.438 Y-13.2 E969.06462
G0 F18000 X-5.438 Y-13.6
G1 F720 X-66.559 Y-13.599 E972.11396
G0 F18000 X-66.559 Y-13.999
G1 F720 X-5.438 Y-14 E975.1633
G0 F18000 X-5.438 Y-14.4
G1 F720 X-66.559 Y-14.399 E978.21264
G0 F18000 X-66.559 Y-14.799
G1 F720 X-5.438 Y-14.8 E981.26197
G0 F18000 X-5.438 Y-15.2
G1 F720 X-66.559 Y-15.199 E984.31131
G0 F18000 X-66.559 Y-15.599
G1 F720 X-5.438 Y-15.6 E987.36065
G0 F18000 X-5.438 Y-16
G1 F720 X-66.559 Y-15.999 E990.40999
G0 F18000 X-66.559 Y-16.399
G1 F720 X-5.438 Y-16.4 E993.45933
G0 F18000 X-5.438 Y-16.8
G1 F720 X-66.559 Y-16.799 E996.50867
G0 F18000 X-66.559 Y-17.199
G1 F720 X-5.438 Y-17.2 E999.55801
G0 F18000 X-5.438 Y-17.6
G1 F720 X-66.559 Y-17.599 E1002.60735
G0 F18000 X-66.559 Y-17.999
G1 F720 X-5.438 Y-18 E1005.65669
G0 F18000 X-5.438 Y-18.4
G1 F720 X-66.559 Y-18.399 E1008.70603
G0 F18000 X-66.559 Y-18.799
G1 F720 X-5.438 Y-18.8 E1011.75536
G0 F18000 X-5.438 Y-19.2
G1 F720 X-66.559 Y-19.199 E1014.8047
G0 F18000 X-66.559 Y-19.599
G1 F720 X-5.438 Y-19.6 E1017.85404
G0 F18000 X-5.438 Y-20
G1 F720 X-66.559 Y-19.999 E1020.90338
G0 F18000 X-66.559 Y-20.399
G1 F720 X-5.438 Y-20.4 E1023.95272
G0 F18000 X-5.438 Y-20.8
G1 F720 X-66.559 Y-20.799 E1027.00206
G0 F18000 X-66.559 Y-21.199
G1 F720 X-5.438 Y-21.2 E1030.0514
G0 F18000 X-5.438 Y-21.6
G1 F720 X-66.559 Y-21.599 E1033.10074
G0 F18000 X-66.559 Y-21.999
G1 F720 X-5.438 Y-22 E1036.15008
G0 F18000 X-5.438 Y-22.4
G1 F720 X-66.559 Y-22.399 E1039.19942
G0 F18000 X-66.559 Y-22.799
G1 F720 X-5.438 Y-22.8 E1042.24876
G0 F18000 X-5.438 Y-23.2
G1 F720 X-66.559 Y-23.199 E1045.29809
G0 F18000 X-66.559 Y-23.599
G1 F720 X-5.438 Y-23.6 E1048.34743
G0 F18000 X-5.438 Y-24
G1 F720 X-66.559 Y-23.999 E1051.39677
G0 F18000 X-66.559 Y-24.399
G1 F720 X-5.438 Y-24.4 E1054.44611
G0 F18000 X-5.438 Y-24.8
G1 F720 X-66.559 Y-24.799 E1057.49545
G0 F18000 X-66.559 Y-25.199
G1 F720 X-5.438 Y-25.2 E1060.54479
G0 F18000 X-5.438 Y-25.6
G1 F720 X-66.559 Y-25.599 E1063.59413
G0 F18000 X-66.559 Y-25.999
G1 F720 X-5.438 Y-26 E1066.64347
G0 F18000 X-5.438 Y-26.4
G1 F720 X-66.559 Y-26.399 E1069.69281
G0 F18000 X-66.559 Y-26.799
G1 F720 X-5.438 Y-26.8 E1072.74215
G0 F18000 X-5.438 Y-27.2
G1 F720 X-66.559 Y-27.199 E1075.79149
G0 F18000 X-66.559 Y-27.599
G1 F720 X-5.438 Y-27.6 E1078.84082
G0 F18000 X-5.438 Y-28
G1 F720 X-66.559 Y-27.999 E1081.89016
G0 F18000 X-66.559 Y-28.399
G1 F720 X-5.438 Y-28.4 E1084.9395
G0 F18000 X-5.438 Y-28.8
G1 F720 X-66.559 Y-28.799 E1087.98884
G0 F18000 X-66.559 Y-29.199
G1 F720 X-5.438 Y-29.2 E1091.03818
G0 F18000 X-5.438 Y-29.6
G1 F720 X-66.559 Y-29.599 E1094.08752
G0 F18000 X-66.559 Y-29.999
G1 F720 X-5.438 Y-30 E1097.13686
G0 F18000 X-5.438 Y-30.4
G1 F720 X-66.559 Y-30.399 E1100.1862
G0 F18000 X-66.559 Y-30.799
G1 F720 X-5.438 Y-30.8 E1103.23554
G0 F18000 X-5.438 Y-31.2
G1 F720 X-66.559 Y-31.199 E1106.28488
G0 F18000 X-66.559 Y-31.599
G1 F720 X-5.438 Y-31.6 E1109.33422
G0 F18000 X-5.438 Y-32
G1 F720 X-66.559 Y-31.999 E1112.38355
G0 F18000 X-66.559 Y-32.399
G1 F720 X-5.438 Y-32.4 E1115.43289
G0 F18000 X-5.438 Y-32.8
G1 F720 X-66.559 Y-32.799 E1118.48223
G0 F18000 X-66.559 Y-33.199
G1 F720 X-5.438 Y-33.2 E1121.53157
G0 F18000 X-5.438 Y-33.6
G1 F720 X-66.559 Y-33.599 E1124.58091
G0 F18000 X-66.559 Y-33.999
G1 F720 X-5.438 Y-34 E1127.63025
G0 F18000 X-5.438 Y-34.4
G1 F720 X-66.559 Y-34.399 E1130.67959
G0 F18000 X-66.559 Y-34.799
G1 F720 X-5.438 Y-34.8 E1133.72893
; Layer Change GCode
; LAYER:1
G1 F6600 E1126.92893
G1 Z0.6
G0 F18000 X5.24 Y35.259 Z0.8
G0 X5.74 Y34.759
; TYPE:WALL-INNER
G1 Z0.5
G1 F6600 E1133.82893
G1 F2400 X5.74 Y34.759 E1133.82893
G1 X5.74 Y-34.758 E1136.71911
G1 X66.259 Y-34.758 E1139.2352
G1 X66.259 Y34.759 E1142.12538
G1 X5.74 Y34.759 E1144.64146
G0 F18000 X5.24 Y35.259
; TYPE:WALL-OUTER
G1 F2100 X5.24 Y35.259 E1144.64146
G1 X5.24 Y-35.258 E1147.57322
G1 X66.759 Y-35.258 E1150.13088
G1 X66.759 Y35.259 E1153.06264
G1 X5.24 Y35.259 E1155.6203
G1 F6600 E1148.8203
G1 Z0.8
G0 F18000 X5.5 Y34.909
G0 X55.421 Y2.07
G0 X55.421 Y2.07
; TYPE:WALL-INNER
G1 Z0.5
G1 F6600 E1155.7203
G1 F2400 X55.421 Y2.07 E1155.7203
G1 X56.045 Y2.666 E1155.75618
G1 X56.801 Y3.081 E1155.79203
G1 X57.64 Y3.286 E1155.82794
G1 X58.503 Y3.268 E1155.86383
G1 X59.332 Y3.025 E1155.89974
G1 X60.07 Y2.578 E1155.93562
G1 X60.666 Y1.954 E1155.97149
G1 X61.081 Y1.199 E1156.00731
G1 X61.286 Y0.36 E1156.04322
G1 X61.268 Y-0.502 E1156.07906
G1 X61.025 Y-1.331 E1156.11498
G1 X60.578 Y-2.069 E1156.15085
G1 X59.954 Y-2.665 E1156.18673
G1 X59.198 Y-3.08 E1156.22258
G1 X58.359 Y-3.285 E1156.25849
G1 X57.496 Y-3.267 E1156.29438
G1 X56.667 Y-3.024 E1156.33029
G1 X55.929 Y-2.577 E1156.36616
G1 X55.333 Y-1.953 E1156.40204
G1 X54.918 Y-1.197 E1156.43789
G1 X54.713 Y-0.358 E1156.4738
G1 X54.731 Y0.504 E1156.50965
G1 X54.974 Y1.332 E1156.54552
G1 X55.421 Y2.07 E1156.58139
G0 F18000 X55.697 Y2.203
G0 X56.82 Y3.032
G0 X57.357 Y3.002
G0 X57.613 Y3.124
G0 X57.613 Y3.124
G0 X57.695 Y2.785
; TYPE:WALL-OUTER
G1 F2100 X57.695 Y2.785 E1156.58139
G1 X58.426 Y2.769 E1156.61179
G1 X59.129 Y2.564 E1156.64224
G1 X59.754 Y2.185 E1156.67263
G1 X60.259 Y1.656 E1156.70303
G1 X60.611 Y1.016 E1156.7334
G1 X60.785 Y0.305 E1156.76383
G1 X60.769 Y-0.425 E1156.79419
G1 X60.564 Y-1.128 E1156.82463
G1 X60.185 Y-1.753 E1156.85502
G1 X59.656 Y-2.258 E1156.88543
G1 X59.015 Y-2.61 E1156.91583
G1 X58.304 Y-2.784 E1156.94626
G1 X57.573 Y-2.768 E1156.97666
G1 X56.87 Y-2.563 E1157.00711
G1 X56.245 Y-2.184 E1157.0375
G1 X55.74 Y-1.655 E1157.0679
G1 X55.388 Y-1.014 E1157.09831
G1 X55.214 Y-0.303 E1157.12874
G1 X55.23 Y0.427 E1157.1591
G1 X55.435 Y1.129 E1157.1895
G1 X55.814 Y1.754 E1157.21989
G1 X56.343 Y2.259 E1157.25029
G1 X56.984 Y2.611 E1157.2807
G1 X57.695 Y2.785 E1157.31113
G0 F18000 X57.5 Y3.704
; TYPE:FILL
G1 F2400 X57.5 Y34.318 E1158.58391
G0 F18000 X58 Y34.318
G1 F2400 X58 Y3.718 E1159.85611
G0 F18000 X58.5 Y3.707
G1 F2400 X58.5 Y34.318 E1161.12877
G0 F18000 X59 Y34.318
G1 F2400 X59 Y3.579 E1162.40675
G0 F18000 X59.5 Y3.432
G1 F2400 X59.5 Y34.318 E1163.69084
G0 F18000 X60 Y34.318
G1 F2400 X60 Y3.134 E1164.98732
G0 F18000 X60.5 Y2.765
G1 F2400 X60.5 Y34.318 E1166.29914
G0 F18000 X61 Y34.318
G1 F2400 X61 Y2.241 E1167.63275
G0 F18000 X61.5 Y1.34
G1 F2400 X61.5 Y34.318 E1169.00381
G0 F18000 X62 Y34.318
G1 F2400 X61.999 Y-34.317 E1171.85733
G0 F18000 X61.499 Y-34.317
G1 F2400 X61.5 Y-1.27 E1173.23126
G0 F18000 X61 Y-2.221
G1 F2400 X60.999 Y-34.317 E1174.56566
G0 F18000 X60.499 Y-34.317
G1 F2400 X60.5 Y-2.752 E1175.87798
G0 F18000 X60 Y-3.14
G1 F2400 X59.999 Y-34.317 E1177.17417
G0 F18000 X59.499 Y-34.317
G1 F2400 X59.5 Y-3.415 E1178.45892
G0 F18000 X59 Y-3.581
G1 F2400 X58.999 Y-34.317 E1179.73678
G0 F18000 X58.499 Y-34.317
G1 F2400 X58.5 Y-3.703 E1181.00956
G0 F18000 X58 Y-3.717
G1 F2400 X57.999 Y-34.317 E1182.28176
G0 F18000 X57.499 Y-34.317
G1 F2400 X57.5 Y-3.706 E1183.55442
G0 F18000 X57 Y-3.578
G1 F2400 X56.999 Y-34.317 E1184.8324
G0 F18000 X56.499 Y-34.317
G1 F2400 X56.5 Y-3.431 E1186.11649
G0 F18000 X56 Y-3.133
G1 F2400 X55.999 Y-34.317 E1187.41297
G0 F18000 X55.499 Y-34.317
G1 F2400 X55.5 Y-2.765 E1188.72475
G0 F18000 X55 Y-2.241
G1 F2400 X54.999 Y-34.317 E1190.05831
G0 F18000 X54.499 Y-34.317
G1 F2400 X54.5 Y-1.342 E1191.42925
G0 F18000 X54.5 Y1.275
G0 X54.5 Y1.275
G1 F2400 X54.5 Y34.318 E1192.80302
G0 F18000 X55 Y34.318
G1 F2400 X55 Y2.224 E1194.13733
G0 F18000 X55.5 Y2.754
G1 F2400 X55.5 Y34.318 E1195.44961
G0 F18000 X56 Y34.318
G1 F2400 X56 Y3.142 E1196.74576
G0 F18000 X56.5 Y3.416
G1 F2400 X56.5 Y34.318 E1198.03052
G0 F18000 X57 Y34.318
G1 F2400 X57 Y3.582 E1199.30837
G0 F18000 X54 Y34.318
G1 F2400 X53.999 Y-34.317 E1202.16188
G0 F18000 X53.499 Y-34.317
G1 F2400 X53.5 Y34.318 E1205.01539
G0 F18000 X53 Y34.318
G1 F2400 X52.999 Y-34.317 E1207.86891
G0 F18000 X52.499 Y-34.317
G1 F2400 X52.5 Y34.318 E1210.72242
G0 F18000 X52 Y34.318
G1 F2400 X51.999 Y-34.317 E1213.57593
G0 F18000 X51.499 Y-34.317
G1 F2400 X51.5 Y34.318 E1216.42944
G0 F18000 X51 Y34.318
G1 F2400 X50.999 Y-34.317 E1219.28295
G0 F18000 X50.499 Y-34.317
G1 F2400 X50.5 Y34.318 E1222.13646
G0 F18000 X50 Y34.318
G1 F2400 X49.999 Y-34.317 E1224.98998
G0 F18000 X49.499 Y-34.317
G1 F2400 X49.5 Y34.318 E1227.84349
G0 F18000 X49 Y34.318
G1 F2400 X48.999 Y-34.317 E1230.697
G0 F18000 X48.499 Y-34.317
G1 F2400 X48.5 Y34.318 E1233.55051
G0 F18000 X48 Y34.318
G1 F2400 X47.999 Y-34.317 E1236.40402
G0 F18000 X47.499 Y-34.317
G1 F2400 X47.5 Y34.318 E1239.25753
G0 F18000 X47 Y34.318
G1 F2400 X46.999 Y-34.317 E1242.11105
G0 F18000 X46.499 Y-34.317
G1 F2400 X46.5 Y34.318 E1244.96456
G0 F18000 X46 Y34.318
G1 F2400 X45.999 Y-34.317 E1247.81807
G0 F18000 X45.499 Y-34.317
G1 F2400 X45.5 Y34.318 E1250.67158
G0 F18000 X45 Y34.318
G1 F2400 X44.999 Y-34.317 E1253.52509
G0 F18000 X44.499 Y-34.317
G1 F2400 X44.5 Y34.318 E1256.3786
G0 F18000 X44 Y34.318
G1 F2400 X43.999 Y-34.317 E1259.23212
G0 F18000 X43.499 Y-34.317
G1 F2400 X43.5 Y34.318 E1262.08563
G0 F18000 X43 Y34.318
G1 F2400 X42.999 Y-34.317 E1264.93914
G0 F18000 X42.499 Y-34.317
G1 F2400 X42.5 Y34.318 E1267.79265
G0 F18000 X42 Y34.318
G1 F2400 X41.999 Y-34.317 E1270.64616
G0 F18000 X41.499 Y-34.317
G1 F2400 X41.5 Y34.318 E1273.49967
G0 F18000 X41 Y34.318
G1 F2400 X40.999 Y-34.317 E1276.35319
G0 F18000 X40.499 Y-34.317
G1 F2400 X40.5 Y34.318 E1279.2067
G0 F18000 X40 Y34.318
G1 F2400 X39.999 Y-34.317 E1282.06021
G0 F18000 X39.499 Y-34.317
G1 F2400 X39.5 Y34.318 E1284.91372
G0 F18000 X39 Y34.318
G1 F2400 X38.999 Y-34.317 E1287.76723
G0 F18000 X38.499 Y-34.317
G1 F2400 X38.5 Y34.318 E1290.62074
G0 F18000 X38 Y34.318
G1 F2400 X37.999 Y-34.317 E1293.47426
G0 F18000 X37.499 Y-34.317
G1 F2400 X37.5 Y34.318 E1296.32777
G0 F18000 X37 Y34.318
G1 F2400 X36.999 Y-34.317 E1299.18128
G0 F18000 X36.499 Y-34.317
G1 F2400 X36.5 Y34.318 E1302.03479
G0 F18000 X36 Y34.318
G1 F2400 X35.999 Y-34.317 E1304.8883
G0 F18000 X35.499 Y-34.318
G1 F2400 X35.5 Y34.318 E1307.74186
G0 F18000 X35 Y34.318
G1 F2400 X34.999 Y-34.318 E1310.59541
G0 F18000 X34.499 Y-34.318
G1 F2400 X34.5 Y34.318 E1313.44896
G0 F18000 X34 Y34.318
G1 F2400 X33.999 Y-34.318 E1316.30252
G0 F18000 X33.499 Y-34.318
G1 F2400 X33.5 Y34.318 E1319.15607
G0 F18000 X33 Y34.318
G1 F2400 X32.999 Y-34.318 E1322.00962
G0 F18000 X32.499 Y-34.318
G1 F2400 X32.5 Y34.318 E1324.86318
G0 F18000 X32 Y34.318
G1 F2400 X31.999 Y-34.318 E1327.71673
G0 F18000 X31.499 Y-34.318
G1 F2400 X31.5 Y34.318 E1330.57028
G0 F18000 X31 Y34.318
G1 F2400 X30.999 Y-34.318 E1333.42384
G0 F18000 X30.499 Y-34.318
G1 F2400 X30.5 Y34.318 E1336.27739
G0 F18000 X30 Y34.318
G1 F2400 X29.999 Y-34.318 E1339.13094
G0 F18000 X29.499 Y-34.318
G1 F2400 X29.5 Y34.319 E1341.98454
G0 F18000 X29 Y34.319
G1 F2400 X28.999 Y-34.318 E1344.83813
G0 F18000 X28.499 Y-34.318
G1 F2400 X28.5 Y34.319 E1347.69173
G0 F18000 X28 Y34.319
G1 F2400 X27.999 Y-34.318 E1350.54532
G0 F18000 X27.499 Y-34.318
G1 F2400 X27.5 Y34.319 E1353.39892
G0 F18000 X27 Y34.319
G1 F2400 X26.999 Y-34.318 E1356.25251
G0 F18000 X26.499 Y-34.318
G1 F2400 X26.5 Y34.319 E1359.10611
G0 F18000 X26 Y34.319
G1 F2400 X25.999 Y-34.318 E1361.9597
G0 F18000 X25.499 Y-34.318
G1 F2400 X25.5 Y34.319 E1364.8133
G0 F18000 X25 Y34.319
G1 F2400 X24.999 Y-34.318 E1367.66689
G0 F18000 X24.499 Y-34.318
G1 F2400 X24.5 Y34.319 E1370.52049
G0 F18000 X24 Y34.319
G1 F2400 X23.999 Y-34.318 E1373.37408
G0 F18000 X23.499 Y-34.318
G1 F2400 X23.5 Y34.319 E1376.22768
G0 F18000 X23 Y34.319
G1 F2400 X22.999 Y-34.318 E1379.08127
G0 F18000 X22.499 Y-34.318
G1 F2400 X22.5 Y34.319 E1381.93487
G0 F18000 X22 Y34.319
G1 F2400 X21.999 Y-34.318 E1384.78846
G0 F18000 X21.499 Y-34.318
G1 F2400 X21.5 Y34.319 E1387.64206
G0 F18000 X21 Y34.319
G1 F2400 X20.999 Y-34.318 E1390.49565
G0 F18000 X20.499 Y-34.318
G1 F2400 X20.5 Y34.319 E1393.34925
G0 F18000 X20 Y34.319
G1 F2400 X19.999 Y-34.318 E1396.20284
G0 F18000 X19.499 Y-34.318
G1 F2400 X19.5 Y34.319 E1399.05643
G0 F18000 X19 Y34.319
G1 F2400 X18.999 Y-34.318 E1401.91003
G0 F18000 X18.499 Y-34.318
G1 F2400 X18.5 Y34.319 E1404.76362
G0 F18000 X18 Y34.319
G1 F2400 X17.999 Y-34.318 E1407.61722
G0 F18000 X17.499 Y-34.318
G1 F2400 X17.5 Y34.319 E1410.47081
G0 F18000 X17 Y34.319
G1 F2400 X16.999 Y-34.318 E1413.32441
G0 F18000 X16.499 Y-34.318
G1 F2400 X16.5 Y34.319 E1416.178
G0 F18000 X16 Y34.319
G1 F2400 X15.999 Y-34.318 E1419.0316
G0 F18000 X15.499 Y-34.318
G1 F2400 X15.5 Y34.319 E1421.88519
G0 F18000 X15 Y34.319
G1 F2400 X14.999 Y-34.318 E1424.73879
G0 F18000 X14.499 Y-34.318
G1 F2400 X14.5 Y34.319 E1427.59238
G0 F18000 X14 Y34.319
G1 F2400 X13.999 Y-34.318 E1430.44598
G0 F18000 X13.499 Y-34.318
G1 F2400 X13.5 Y34.319 E1433.29957
G0 F18000 X13 Y34.319
G1 F2400 X12.999 Y-34.318 E1436.15317
G0 F18000 X12.499 Y-34.318
G1 F2400 X12.5 Y34.319 E1439.00676
G0 F18000 X12 Y34.319
G1 F2400 X11.999 Y-34.318 E1441.86036
G0 F18000 X11.499 Y-34.318
G1 F2400 X11.5 Y34.319 E1444.71395
G0 F18000 X11 Y34.319
G1 F2400 X10.999 Y-34.318 E1447.56755
G0 F18000 X10.499 Y-34.318
G1 F2400 X10.5 Y34.319 E1450.42114
G0 F18000 X10 Y34.319
G1 F2400 X9.999 Y-34.318 E1453.27474
G0 F18000 X9.499 Y-34.318
G1 F2400 X9.5 Y34.319 E1456.12833
G0 F18000 X9 Y34.319
G1 F2400 X8.999 Y-34.318 E1458.98193
G0 F18000 X8.499 Y-34.318
G1 F2400 X8.5 Y34.319 E1461.83552
G0 F18000 X8 Y34.319
G1 F2400 X7.999 Y-34.318 E1464.68912
G0 F18000 X7.499 Y-34.318
G1 F2400 X7.5 Y34.319 E1467.54271
G0 F18000 X7 Y34.319
G1 F2400 X6.999 Y-34.318 E1470.39631
G0 F18000 X6.499 Y-34.318
G1 F2400 X6.5 Y34.319 E1473.2499
G0 F18000 X62.5 Y34.318
G0 X62.5 Y34.318
G1 F2400 X62.499 Y-34.317 E1476.10341
G0 F18000 X62.999 Y-34.317
G1 F2400 X63 Y34.318 E1478.95692
G0 F18000 X63.5 Y34.318
G1 F2400 X63.499 Y-34.317 E1481.81044
G0 F18000 X63.999 Y-34.317
G1 F2400 X64 Y34.318 E1484.66395
G0 F18000 X64.5 Y34.318
G1 F2400 X64.499 Y-34.317 E1487.51746
G0 F18000 X64.999 Y-34.317
G1 F2400 X65 Y34.318 E1490.37097
G0 F18000 X65.5 Y34.318
G1 F2400 X65.499 Y-34.317 E1493.22448
G1 F6600 E1486.42448
G1 Z0.8
G0 F18000 X-67.249 Y35.75
G0 X-66.749 Y35.25
; TYPE:WALL-INNER
G1 Z0.5
G1 F6600 E1493.32448
G1 F2400 X-66.749 Y35.25 E1493.32448
G1 X-66.749 Y-35.249 E1496.25549
G1 X-5.249 Y-35.249 E1498.81236
G1 X-5.249 Y35.25 E1501.74337
G1 X-66.749 Y35.25 E1504.30024
G0 F18000 X-67.249 Y35.75
; TYPE:WALL-OUTER
G1 F2100 X-67.249 Y35.75 E1504.30024
G1 X-67.249 Y-35.749 E1507.27283
G1 X-4.749 Y-35.749 E1509.87128
G1 X-4.749 Y35.75 E1512.84386
G1 X-67.249 Y35.75 E1515.44231
G0 F18000 X-66.989 Y35.4
G0 X-66 Y34.809
G0 X-66 Y34.809
; TYPE:FILL
G1 F2400 X-66 Y-34.808 E1518.33665
G0 F18000 X-65.5 Y-34.808
G1 F2400 X-65.499 Y34.809 E1521.23098
G0 F18000 X-64.999 Y34.809
G1 F2400 X-65 Y-34.808 E1524.12532
G0 F18000 X-64.5 Y-34.808
G1 F2400 X-64.499 Y34.809 E1527.01966
G0 F18000 X-63.999 Y34.809
G1 F2400 X-64 Y-34.808 E1529.914
G0 F18000 X-63.5 Y-34.808
G1 F2400 X-63.499 Y34.809 E1532.80834
G0 F18000 X-62.999 Y34.809
G1 F2400 X-63 Y-34.808 E1535.70268
G0 F18000 X-62.5 Y-34.808
G1 F2400 X-62.499 Y34.809 E1538.59701
G0 F18000 X-61.999 Y34.809
G1 F2400 X-62 Y-34.808 E1541.49135
G0 F18000 X-61.5 Y-34.808
G1 F2400 X-61.499 Y34.809 E1544.38569
G0 F18000 X-60.999 Y34.809
G1 F2400 X-61 Y-34.808 E1547.28003
G0 F18000 X-60.5 Y-34.808
G1 F2400 X-60.499 Y34.809 E1550.17437
G0 F18000 X-59.999 Y34.809
G1 F2400 X-60 Y-34.808 E1553.06871
G0 F18000 X-59.5 Y-34.808
G1 F2400 X-59.499 Y34.809 E1555.96305
G0 F18000 X-58.999 Y34.809
G1 F2400 X-59 Y-34.808 E1558.85738
G0 F18000 X-58.5 Y-34.808
G1 F2400 X-58.499 Y34.809 E1561.75172
G0 F18000 X-57.999 Y34.809
G1 F2400 X-58 Y-34.808 E1564.64606
G0 F18000 X-57.5 Y-34.808
G1 F2400 X-57.499 Y34.809 E1567.5404
G0 F18000 X-56.999 Y34.809
G1 F2400 X-57 Y-34.808 E1570.43474
G0 F18000 X-56.5 Y-34.808
G1 F2400 X-56.499 Y34.809 E1573.32908
G0 F18000 X-55.999 Y34.809
G1 F2400 X-56 Y-34.808 E1576.22342
G0 F18000 X-55.5 Y-34.808
G1 F2400 X-55.499 Y34.809 E1579.11775
G0 F18000 X-54.999 Y34.809
G1 F2400 X-55 Y-34.808 E1582.01209
G0 F18000 X-54.5 Y-34.808
G1 F2400 X-54.499 Y34.809 E1584.90643
G0 F18000 X-53.999 Y34.809
G1 F2400 X-54 Y-34.808 E1587.80077
G0 F18000 X-53.5 Y-34.808
G1 F2400 X-53.499 Y34.809 E1590.69511
G0 F18000 X-52.999 Y34.809
G1 F2400 X-53 Y-34.808 E1593.58945
G0 F18000 X-52.5 Y-34.808
G1 F2400 X-52.499 Y34.809 E1596.48379
G0 F18000 X-51.999 Y34.809
G1 F2400 X-52 Y-34.808 E1599.37812
G0 F18000 X-51.5 Y-34.808
G1 F2400 X-51.499 Y34.809 E1602.27246
G0 F18000 X-50.999 Y34.809
G1 F2400 X-51 Y-34.808 E1605.1668
G0 F18000 X-50.5 Y-34.808
G1 F2400 X-50.499 Y34.809 E1608.06114
G0 F18000 X-49.999 Y34.809
G1 F2400 X-50 Y-34.808 E1610.95548
G0 F18000 X-49.5 Y-34.808
G1 F2400 X-49.499 Y34.809 E1613.84982
G0 F18000 X-48.999 Y34.809
G1 F2400 X-49 Y-34.808 E1616.74416
G0 F18000 X-48.5 Y-34.808
G1 F2400 X-48.499 Y34.809 E1619.63849
G0 F18000 X-47.999 Y34.809
G1 F2400 X-48 Y-34.808 E1622.53283
G0 F18000 X-47.5 Y-34.808
G1 F2400 X-47.499 Y34.809 E1625.42717
G0 F18000 X-46.999 Y34.809
G1 F2400 X-47 Y-34.808 E1628.32151
G0 F18000 X-46.5 Y-34.808
G1 F2400 X-46.499 Y34.809 E1631.21585
G0 F18000 X-45.999 Y34.809
G1 F2400 X-46 Y-34.808 E1634.11019
G0 F18000 X-45.5 Y-34.808
G1 F2400 X-45.499 Y34.809 E1637.00452
G0 F18000 X-44.999 Y34.809
G1 F2400 X-45 Y-34.808 E1639.89886
G0 F18000 X-44.5 Y-34.808
G1 F2400 X-44.499 Y34.809 E1642.7932
G0 F18000 X-43.999 Y34.809
G1 F2400 X-44 Y-34.808 E1645.68754
G0 F18000 X-43.5 Y-34.808
G1 F2400 X-43.499 Y34.809 E1648.58188
G0 F18000 X-42.999 Y34.809
G1 F2400 X-43 Y-34.808 E1651.47622
G0 F18000 X-42.5 Y-34.808
G1 F2400 X-42.499 Y34.809 E1654.37056
G0 F18000 X-41.999 Y34.809
G1 F2400 X-42 Y-34.808 E1657.26489
G0 F18000 X-41.5 Y-34.808
G1 F2400 X-41.499 Y34.809 E1660.15923
G0 F18000 X-40.999 Y34.809
G1 F2400 X-41 Y-34.808 E1663.05357
G0 F18000 X-40.5 Y-34.808
G1 F2400 X-40.499 Y34.809 E1665.94791
G0 F18000 X-39.999 Y34.809
G1 F2400 X-40 Y-34.808 E1668.84225
G0 F18000 X-39.5 Y-34.808
G1 F2400 X-39.499 Y34.809 E1671.73659
G0 F18000 X-38.999 Y34.809
G1 F2400 X-39 Y-34.808 E1674.63093
G0 F18000 X-38.5 Y-34.808
G1 F2400 X-38.499 Y34.809 E1677.52526
G0 F18000 X-37.999 Y34.809
G1 F2400 X-38 Y-34.808 E1680.4196
G0 F18000 X-37.5 Y-34.808
G1 F2400 X-37.499 Y34.809 E1683.31394
G0 F18000 X-36.999 Y34.809
G1 F2400 X-37 Y-34.808 E1686.20828
G0 F18000 X-36.5 Y-34.808
G1 F2400 X-36.499 Y34.809 E1689.10262
G0 F18000 X-35.999 Y34.809
G1 F2400 X-36 Y-34.808 E1691.99696
G0 F18000 X-35.5 Y-34.808
G1 F2400 X-35.499 Y34.81 E1694.89134
G0 F18000 X-34.999 Y34.81
G1 F2400 X-35 Y-34.808 E1697.78572
G0 F18000 X-34.5 Y-34.808
G1 F2400 X-34.499 Y34.81 E1700.6801
G0 F18000 X-33.999 Y34.81
G1 F2400 X-34 Y-34.808 E1703.57448
G0 F18000 X-33.5 Y-34.808
G1 F2400 X-33.499 Y34.81 E1706.46886
G0 F18000 X-32.999 Y34.81
G1 F2400 X-33 Y-34.808 E1709.36324
G0 F18000 X-32.5 Y-34.808
G1 F2400 X-32.499 Y34.81 E1712.25762
G0 F18000 X-31.999 Y34.81
G1 F2400 X-32 Y-34.808 E1715.152
G0 F18000 X-31.5 Y-34.808
G1 F2400 X-31.499 Y34.81 E1718.04638
G0 F18000 X-30.999 Y34.81
G1 F2400 X-31 Y-34.808 E1720.94076
G0 F18000 X-30.5 Y-34.808
G1 F2400 X-30.499 Y34.81 E1723.83514
G0 F18000 X-29.999 Y34.81
G1 F2400 X-30 Y-34.808 E1726.72952
G0 F18000 X-29.5 Y-34.809
G1 F2400 X-29.499 Y34.81 E1729.62394
G0 F18000 X-28.999 Y34.81
G1 F2400 X-29 Y-34.809 E1732.51836
G0 F18000 X-28.5 Y-34.809
G1 F2400 X-28.499 Y34.81 E1735.41278
G0 F18000 X-27.999 Y34.81
G1 F2400 X-28 Y-34.809 E1738.3072
G0 F18000 X-27.5 Y-34.809
G1 F2400 X-27.499 Y34.81 E1741.20163
G0 F18000 X-26.999 Y34.81
G1 F2400 X-27 Y-34.809 E1744.09605
G0 F18000 X-26.5 Y-34.809
G1 F2400 X-26.499 Y34.81 E1746.99047
G0 F18000 X-25.999 Y34.81
G1 F2400 X-26 Y-34.809 E1749.88489
G0 F18000 X-25.5 Y-34.809
G1 F2400 X-25.499 Y34.81 E1752.77931
G0 F18000 X-24.999 Y34.81
G1 F2400 X-25 Y-34.809 E1755.67373
G0 F18000 X-24.5 Y-34.809
G1 F2400 X-24.499 Y34.81 E1758.56816
G0 F18000 X-23.999 Y34.81
G1 F2400 X-24 Y-34.809 E1761.46258
G0 F18000 X-23.5 Y-34.809
G1 F2400 X-23.499 Y34.81 E1764.357
G0 F18000 X-22.999 Y34.81
G1 F2400 X-23 Y-34.809 E1767.25142
G0 F18000 X-22.5 Y-34.809
G1 F2400 X-22.499 Y34.81 E1770.14584
G0 F18000 X-21.999 Y34.81
G1 F2400 X-22 Y-34.809 E1773.04027
G0 F18000 X-21.5 Y-34.809
G1 F2400 X-21.499 Y34.81 E1775.93469
G0 F18000 X-20.999 Y34.81
G1 F2400 X-21 Y-34.809 E1778.82911
G0 F18000 X-20.5 Y-34.809
G1 F2400 X-20.499 Y34.81 E1781.72353
G0 F18000 X-19.999 Y34.81
G1 F2400 X-20 Y-34.809 E1784.61795
G0 F18000 X-19.5 Y-34.809
G1 F2400 X-19.499 Y34.81 E1787.51237
G0 F18000 X-18.999 Y34.81
G1 F2400 X-19 Y-34.809 E1790.4068
G0 F18000 X-18.5 Y-34.809
G1 F2400 X-18.499 Y34.81 E1793.30122
G0 F18000 X-17.999 Y34.81
G1 F2400 X-18 Y-34.809 E1796.19564
G0 F18000 X-17.5 Y-34.809
G1 F2400 X-17.499 Y34.81 E1799.09006
G0 F18000 X-16.999 Y34.81
G1 F2400 X-17 Y-34.809 E1801.98448
G0 F18000 X-16.5 Y-34.809
G1 F2400 X-16.499 Y34.81 E1804.8789
G0 F18000 X-15.999 Y34.81
G1 F2400 X-16 Y-34.809 E1807.77333
G0 F18000 X-15.5 Y-34.809
G1 F2400 X-15.499 Y34.81 E1810.66775
G0 F18000 X-14.999 Y34.81
G1 F2400 X-15 Y-34.809 E1813.56217
G0 F18000 X-14.5 Y-34.809
G1 F2400 X-14.499 Y34.81 E1816.45659
G0 F18000 X-13.999 Y34.81
G1 F2400 X-14 Y-34.809 E1819.35101
G0 F18000 X-13.5 Y-34.809
G1 F2400 X-13.499 Y34.81 E1822.24543
G0 F18000 X-12.999 Y34.81
G1 F2400 X-13 Y-34.809 E1825.13986
G0 F18000 X-12.5 Y-34.809
G1 F2400 X-12.499 Y34.81 E1828.03428
G0 F18000 X-11.999 Y34.81
G1 F2400 X-12 Y-34.809 E1830.9287
G0 F18000 X-11.5 Y-34.809
G1 F2400 X-11.499 Y34.81 E1833.82312
G0 F18000 X-10.999 Y34.81
G1 F2400 X-11 Y-34.809 E1836.71754
G0 F18000 X-10.5 Y-34.809
G1 F2400 X-10.499 Y34.81 E1839.61196
G0 F18000 X-9.999 Y34.81
G1 F2400 X-10 Y-34.809 E1842.50639
G0 F18000 X-9.5 Y-34.809
G1 F2400 X-9.499 Y34.81 E1845.40081
G0 F18000 X-8.999 Y34.81
G1 F2400 X-9 Y-34.809 E1848.29523
G0 F18000 X-8.5 Y-34.809
G1 F2400 X-8.499 Y34.81 E1851.18965
G0 F18000 X-7.999 Y34.81
G1 F2400 X-8 Y-34.809 E1854.08407
G0 F18000 X-7.5 Y-34.809
G1 F2400 X-7.499 Y34.81 E1856.97849
G0 F18000 X-6.999 Y34.81
G1 F2400 X-7 Y-34.809 E1859.87292
G0 F18000 X-6.5 Y-34.809
G1 F2400 X-6.499 Y34.81 E1862.76734
G0 F18000 X-5.999 Y34.81
G1 F2400 X-6 Y-34.809 E1865.66176
; Layer Change GCode
; LAYER:2
G4 P0
M106 S255
G1 F6600 E1858.86176
G1 Z0.8
G0 F18000 X5.065 Y35.434 Z1
G0 X5.565 Y34.934
; TYPE:WALL-INNER
G1 Z0.7
G1 F6600 E1865.76176
G1 F2400 X5.565 Y34.934 E1865.76176
G1 X5.565 Y-34.933 E1868.66649
G1 X66.434 Y-34.933 E1871.19713
G1 X66.434 Y34.934 E1874.10186
G1 X5.565 Y34.934 E1876.6325
G0 F18000 X5.065 Y35.434
; TYPE:WALL-OUTER
G1 F2100 X5.065 Y35.434 E1876.6325
G1 X5.065 Y-35.433 E1879.57881
G1 X66.934 Y-35.433 E1882.15102
G1 X66.934 Y35.434 E1885.09733
G1 X5.065 Y35.434 E1887.66954
G1 F6600 E1880.86954
G1 Z1
G0 F18000 X5.325 Y35.084
G0 X55.421 Y2.07
G0 X55.421 Y2.07
; TYPE:WALL-INNER
G1 Z0.7
G1 F6600 E1887.76954
G1 F2400 X55.421 Y2.07 E1887.76954
G1 X56.045 Y2.666 E1887.80542
G1 X56.801 Y3.081 E1887.84127
G1 X57.64 Y3.286 E1887.87718
G1 X58.503 Y3.268 E1887.91307
G1 X59.332 Y3.025 E1887.94899
G1 X60.07 Y2.578 E1887.98486
G1 X60.666 Y1.954 E1888.02073
G1 X61.081 Y1.199 E1888.05655
G1 X61.286 Y0.36 E1888.09246
G1 X61.268 Y-0.502 E1888.1283
G1 X61.025 Y-1.331 E1888.16422
G1 X60.578 Y-2.069 E1888.20009
G1 X59.954 Y-2.665 E1888.23597
G1 X59.198 Y-3.08 E1888.27182
G1 X58.359 Y-3.285 E1888.30773
G1 X57.496 Y-3.267 E1888.34362
G1 X56.667 Y-3.024 E1888.37953
G1 X55.929 Y-2.577 E1888.4154
G1 X55.333 Y-1.953 E1888.45128
G1 X54.918 Y-1.197 E1888.48714
G1 X54.713 Y-0.358 E1888.52304
G1 X54.731 Y0.504 E1888.55889
G1 X54.974 Y1.332 E1888.59476
G1 X55.421 Y2.07 E1888.63064
G0 F18000 X55.697 Y2.203
G0 X56.82 Y3.032
G0 X57.357 Y3.002
G0 X57.613 Y3.124
G0 X57.613 Y3.124
G0 X57.695 Y2.785
; TYPE:WALL-OUTER
G1 F2100 X57.695 Y2.785 E1888.63064
G1 X58.426 Y2.769 E1888.66103
G1 X59.129 Y2.564 E1888.69148
G1 X59.754 Y2.185 E1888.72187
G1 X60.259 Y1.656 E1888.75227
G1 X60.611 Y1.016 E1888.78264
G1 X60.785 Y0.305 E1888.81307
G1 X60.769 Y-0.425 E1888.84343
G1 X60.564 Y-1.128 E1888.87388
G1 X60.185 Y-1.753 E1888.90426
G1 X59.656 Y-2.258 E1888.93467
G1 X59.015 Y-2.61 E1888.96507
G1 X58.304 Y-2.784 E1888.99551
G1 X57.573 Y-2.768 E1889.0259
G1 X56.87 Y-2.563 E1889.05635
G1 X56.245 Y-2.184 E1889.08674
G1 X55.74 Y-1.655 E1889.11714
G1 X55.388 Y-1.014 E1889.14755
G1 X55.214 Y-0.303 E1889.17798
G1 X55.23 Y0.427 E1889.20834
G1 X55.435 Y1.129 E1889.23874
G1 X55.814 Y1.754 E1889.26913
G1 X56.343 Y2.259 E1889.29954
G1 X56.984 Y2.611 E1889.32994
G1 X57.695 Y2.785 E1889.36037
G0 F18000 X56.659 Y3.499
; TYPE:FILL
G1 F2400 X6.004 Y3.499 E1891.46636
G0 F18000 X6.004 Y3.999
G1 F2400 X65.994 Y3.999 E1893.96046
G0 F18000 X65.994 Y3.499
G1 F2400 X59.272 Y3.499 E1894.23992
G0 F18000 X60.223 Y2.999
G1 F2400 X65.994 Y2.999 E1894.47985
G0 F18000 X65.994 Y2.499
G1 F2400 X60.754 Y2.499 E1894.69771
G0 F18000 X61.142 Y1.999
G1 F2400 X65.994 Y1.999 E1894.89943
G0 F18000 X65.994 Y1.499
G1 F2400 X61.417 Y1.499 E1895.08972
G0 F18000 X61.583 Y0.999
G1 F2400 X65.994 Y0.999 E1895.27311
G0 F18000 X65.994 Y0.499
G1 F2400 X61.705 Y0.499 E1895.45142
G0 F18000 X61.719 Y0
G1 F2400 X65.994 Y0 E1895.62916
G0 F18000 X65.994 Y-0.5
G1 F2400 X61.708 Y-0.5 E1895.80735
G0 F18000 X61.579 Y-1
G1 F2400 X65.994 Y-1 E1895.9909
G0 F18000 X65.994 Y-1.5
G1 F2400 X61.432 Y-1.5 E1896.18057
G0 F18000 X61.134 Y-2
G1 F2400 X65.994 Y-2 E1896.38263
G0 F18000 X65.994 Y-2.5
G1 F2400 X60.764 Y-2.5 E1896.60006
G0 F18000 X60.24 Y-3
G1 F2400 X65.994 Y-3 E1896.83929
G0 F18000 X65.994 Y-3.5
G1 F2400 X59.331 Y-3.5 E1897.1163
G0 F18000 X56.734 Y-3.5
G1 F2400 X6.005 Y-3.5 E1899.22537
G0 F18000 X6.005 Y-3
G1 F2400 X55.779 Y-3 E1901.29473
G0 F18000 X55.247 Y-2.5
G1 F2400 X6.005 Y-2.5 E1903.34198
G0 F18000 X6.005 Y-2
G1 F2400 X54.858 Y-2 E1905.37305
G0 F18000 X54.583 Y-1.5
G1 F2400 X6.005 Y-1.5 E1907.39269
G0 F18000 X6.005 Y-1
G1 F2400 X54.417 Y-1 E1909.40542
G0 F18000 X54.295 Y-0.5
G1 F2400 X6.005 Y-0.5 E1911.41309
G0 F18000 X6.005 Y0
G1 F2400 X54.28 Y0 E1913.42013
G0 F18000 X54.291 Y0.499
G1 F2400 X6.004 Y0.499 E1915.42767
G0 F18000 X6.004 Y0.999
G1 F2400 X54.419 Y0.999 E1917.44053
G0 F18000 X54.566 Y1.499
G1 F2400 X6.004 Y1.499 E1919.4595
G0 F18000 X6.004 Y1.999
G1 F2400 X54.864 Y1.999 E1921.49087
G0 F18000 X55.233 Y2.499
G1 F2400 X6.004 Y2.499 E1923.53757
G0 F18000 X6.004 Y2.999
G1 F2400 X55.757 Y2.999 E1925.60606
G0 F18000 X65.994 Y4.499
G0 X65.994 Y4.499
G1 F2400 X6.004 Y4.5 E1928.10016
G0 F18000 X6.004 Y5
G1 F2400 X65.994 Y4.999 E1930.59425
G0 F18000 X65.994 Y5.499
G1 F2400 X6.004 Y5.5 E1933.08834
G0 F18000 X6.004 Y6
G1 F2400 X65.994 Y5.999 E1935.58244
G0 F18000 X65.994 Y6.499
G1 F2400 X6.004 Y6.5 E1938.07653
G0 F18000 X6.004 Y7
G1 F2400 X65.994 Y6.999 E1940.57063
G0 F18000 X65.994 Y7.499
G1 F2400 X6.004 Y7.5 E1943.06472
G0 F18000 X6.004 Y8
G1 F2400 X65.994 Y7.999 E1945.55882
G0 F18000 X65.994 Y8.499
G1 F2400 X6.004 Y8.5 E1948.05291
G0 F18000 X6.004 Y9
G1 F2400 X65.994 Y8.999 E1950.547
G0 F18000 X65.994 Y9.499
G1 F2400 X6.004 Y9.5 E1953.0411
G0 F18000 X6.004 Y10
G1 F2400 X65.994 Y9.999 E1955.53519
G0 F18000 X65.994 Y10.499
G1 F2400 X6.004 Y10.5 E1958.02929
G0 F18000 X6.004 Y11
G1 F2400 X65.994 Y10.999 E1960.52338
G0 F18000 X65.994 Y11.499
G1 F2400 X6.004 Y11.5 E1963.01748
G0 F18000 X6.004 Y12
G1 F2400 X65.994 Y11.999 E1965.51157
G0 F18000 X65.994 Y12.499
G1 F2400 X6.004 Y12.5 E1968.00567
G0 F18000 X6.004 Y13
G1 F2400 X65.994 Y12.999 E1970.49976
G0 F18000 X65.994 Y13.499
G1 F2400 X6.004 Y13.5 E1972.99385
G0 F18000 X6.004 Y14
G1 F2400 X65.994 Y13.999 E1975.48795
G0 F18000 X65.994 Y14.499
G1 F2400 X6.004 Y14.5 E1977.98204
G0 F18000 X6.004 Y15
G1 F2400 X65.994 Y14.999 E1980.47614
G0 F18000 X65.994 Y15.499
G1 F2400 X6.004 Y15.5 E1982.97023
G0 F18000 X6.004 Y16
G1 F2400 X65.994 Y15.999 E1985.46433
G0 F18000 X65.994 Y16.499
G1 F2400 X6.004 Y16.5 E1987.95842
G0 F18000 X6.004 Y17
G1 F2400 X65.994 Y16.999 E1990.45251
G0 F18000 X65.994 Y17.499
G1 F2400 X6.004 Y17.5 E1992.94661
G0 F18000 X6.004 Y18
G1 F2400 X65.994 Y17.999 E1995.4407
G0 F18000 X65.994 Y18.499
G1 F2400 X6.004 Y18.5 E1997.9348
G0 F18000 X6.004 Y19
G1 F2400 X65.994 Y18.999 E2000.42889
G0 F18000 X65.994 Y19.499
G1 F2400 X6.004 Y19.5 E2002.92299
G0 F18000 X6.004 Y20
G1 F2400 X65.994 Y19.999 E2005.41708
G0 F18000 X65.994 Y20.499
G1 F2400 X6.004 Y20.5 E2007.91118
G0 F18000 X6.004 Y21
G1 F2400 X65.994 Y20.999 E2010.40527
G0 F18000 X65.994 Y21.499
G1 F2400 X6.004 Y21.5 E2012.89936
G0 F18000 X6.004 Y22
G1 F2400 X65.994 Y21.999 E2015.39346
G0 F18000 X65.994 Y22.499
G1 F2400 X6.004 Y22.5 E2017.88755
G0 F18000 X6.004 Y23
G1 F2400 X65.994 Y22.999 E2020.38165
G0 F18000 X65.994 Y23.499
G1 F2400 X6.004 Y23.5 E2022.87574
G0 F18000 X6.004 Y24
G1 F2400 X65.994 Y23.999 E2025.36984
G0 F18000 X65.994 Y24.499
G1 F2400 X6.004 Y24.5 E2027.86393
G0 F18000 X6.004 Y25
G1 F2400 X65.994 Y24.999 E2030.35802
G0 F18000 X65.994 Y25.499
G1 F2400 X6.004 Y25.5 E2032.85212
G0 F18000 X6.004 Y26
G1 F2400 X65.994 Y25.999 E2035.34621
G0 F18000 X65.994 Y26.499
G1 F2400 X6.004 Y26.5 E2037.84031
G0 F18000 X6.004 Y27
G1 F2400 X65.994 Y26.999 E2040.3344
G0 F18000 X65.994 Y27.499
G1 F2400 X6.004 Y27.5 E2042.8285
G0 F18000 X6.004 Y28
G1 F2400 X65.994 Y27.999 E2045.32259
G0 F18000 X65.994 Y28.499
G1 F2400 X6.004 Y28.5 E2047.81669
G0 F18000 X6.004 Y29
G1 F2400 X65.994 Y28.999 E2050.31078
G0 F18000 X65.994 Y29.499
G1 F2400 X6.004 Y29.5 E2052.80487
G0 F18000 X6.004 Y30
G1 F2400 X65.994 Y29.999 E2055.29897
G0 F18000 X65.994 Y30.499
G1 F2400 X6.004 Y30.5 E2057.79306
G0 F18000 X6.004 Y31
G1 F2400 X65.994 Y30.999 E2060.28716
G0 F18000 X65.994 Y31.499
G1 F2400 X6.004 Y31.5 E2062.78125
G0 F18000 X6.004 Y32
G1 F2400 X65.994 Y31.999 E2065.27535
G0 F18000 X65.994 Y32.499
G1 F2400 X6.004 Y32.5 E2067.76944
G0 F18000 X6.004 Y33
G1 F2400 X65.994 Y32.999 E2070.26353
G0 F18000 X65.994 Y33.499
G1 F2400 X6.004 Y33.5 E2072.75763
G0 F18000 X6.004 Y34
G1 F2400 X65.994 Y33.999 E2075.25172
G0 F18000 X65.994 Y-4
G0 X65.994 Y-4
G1 F2400 X6.005 Y-4 E2077.74578
G0 F18000 X6.005 Y-4.5
G1 F2400 X65.994 Y-4.5 E2080.23983
G0 F18000 X65.994 Y-5
G1 F2400 X6.005 Y-5 E2082.73388
G0 F18000 X6.005 Y-5.5
G1 F2400 X65.994 Y-5.5 E2085.22793
G0 F18000 X65.994 Y-6
G1 F2400 X6.005 Y-6 E2087.72199
G0 F18000 X6.005 Y-6.5
G1 F2400 X65.994 Y-6.5 E2090.21604
G0 F18000 X65.994 Y-7
G1 F2400 X6.005 Y-7 E2092.71009
G0 F18000 X6.004 Y-7.5
G1 F2400 X65.994 Y-7.5 E2095.20419
G0 F18000 X65.994 Y-8
G1 F2400 X6.004 Y-8 E2097.69828
G0 F18000 X6.004 Y-8.5
G1 F2400 X65.994 Y-8.5 E2100.19238
G0 F18000 X65.994 Y-9
G1 F2400 X6.004 Y-9 E2102.68647
G0 F18000 X6.004 Y-9.5
G1 F2400 X65.994 Y-9.5 E2105.18057
G0 F18000 X65.994 Y-10
G1 F2400 X6.004 Y-10 E2107.67466
G0 F18000 X6.004 Y-10.5
G1 F2400 X65.994 Y-10.5 E2110.16875
G0 F18000 X65.994 Y-11
G1 F2400 X6.004 Y-11 E2112.66285
G0 F18000 X6.004 Y-11.5
G1 F2400 X65.994 Y-11.5 E2115.15694
G0 F18000 X65.994 Y-12
G1 F2400 X6.004 Y-12 E2117.65104
G0 F18000 X6.004 Y-12.5
G1 F2400 X65.994 Y-12.5 E2120.14513
G0 F18000 X65.994 Y-13
G1 F2400 X6.004 Y-13 E2122.63923
G0 F18000 X6.004 Y-13.5
G1 F2400 X65.994 Y-13.5 E2125.13332
G0 F18000 X65.994 Y-14
G1 F2400 X6.004 Y-14 E2127.62741
G0 F18000 X6.004 Y-14.5
G1 F2400 X65.994 Y-14.5 E2130.12151
G0 F18000 X65.994 Y-15
G1 F2400 X6.004 Y-15 E2132.6156
G0 F18000 X6.004 Y-15.5
G1 F2400 X65.994 Y-15.5 E2135.1097
G0 F18000 X65.994 Y-16
G1 F2400 X6.004 Y-16 E2137.60379
G0 F18000 X6.004 Y-16.5
G1 F2400 X65.994 Y-16.5 E2140.09789
G0 F18000 X65.994 Y-17
G1 F2400 X6.004 Y-17 E2142.59198
G0 F18000 X6.004 Y-17.5
G1 F2400 X65.994 Y-17.5 E2145.08608
G0 F18000 X65.994 Y-18
G1 F2400 X6.004 Y-18 E2147.58017
G0 F18000 X6.004 Y-18.5
G1 F2400 X65.994 Y-18.5 E2150.07426
G0 F18000 X65.994 Y-19
G1 F2400 X6.004 Y-19 E2152.56836
G0 F18000 X6.004 Y-19.5
G1 F2400 X65.994 Y-19.5 E2155.06245
G0 F18000 X65.994 Y-20
G1 F2400 X6.004 Y-20 E2157.55655
G0 F18000 X6.004 Y-20.5
G1 F2400 X65.994 Y-20.5 E2160.05064
G0 F18000 X65.994 Y-21
G1 F2400 X6.004 Y-21 E2162.54474
G0 F18000 X6.004 Y-21.5
G1 F2400 X65.994 Y-21.5 E2165.03883
G0 F18000 X65.994 Y-22
G1 F2400 X6.004 Y-22 E2167.53292
G0 F18000 X6.004 Y-22.5
G1 F2400 X65.994 Y-22.5 E2170.02702
G0 F18000 X65.994 Y-23
G1 F2400 X6.004 Y-23 E2172.52111
G0 F18000 X6.004 Y-23.5
G1 F2400 X65.994 Y-23.5 E2175.01521
G0 F18000 X65.994 Y-24
G1 F2400 X6.004 Y-24 E2177.5093
G0 F18000 X6.004 Y-24.5
G1 F2400 X65.994 Y-24.5 E2180.0034
G0 F18000 X65.994 Y-25
G1 F2400 X6.004 Y-25 E2182.49749
G0 F18000 X6.004 Y-25.5
G1 F2400 X65.994 Y-25.5 E2184.99159
G0 F18000 X65.994 Y-26
G1 F2400 X6.004 Y-26 E2187.48568
G0 F18000 X6.004 Y-26.5
G1 F2400 X65.994 Y-26.5 E2189.97977
G0 F18000 X65.994 Y-27
G1 F2400 X6.004 Y-27 E2192.47387
G0 F18000 X6.004 Y-27.5
G1 F2400 X65.994 Y-27.5 E2194.96796
G0 F18000 X65.994 Y-28
G1 F2400 X6.004 Y-28 E2197.46206
G0 F18000 X6.004 Y-28.5
G1 F2400 X65.994 Y-28.5 E2199.95615
G0 F18000 X65.994 Y-29
G1 F2400 X6.004 Y-29 E2202.45025
G0 F18000 X6.004 Y-29.5
G1 F2400 X65.994 Y-29.5 E2204.94434
G0 F18000 X65.994 Y-30
G1 F2400 X6.004 Y-30 E2207.43843
G0 F18000 X6.004 Y-30.5
G1 F2400 X65.994 Y-30.5 E2209.93253
G0 F18000 X65.994 Y-31
G1 F2400 X6.004 Y-31 E2212.42662
G0 F18000 X6.004 Y-31.5
G1 F2400 X65.994 Y-31.5 E2214.92072
G0 F18000 X65.994 Y-32
G1 F2400 X6.004 Y-32 E2217.41481
G0 F18000 X6.004 Y-32.5
G1 F2400 X65.994 Y-32.5 E2219.90891
G0 F18000 X65.994 Y-33
G1 F2400 X6.004 Y-33 E2222.403
G0 F18000 X6.004 Y-33.5
G1 F2400 X65.994 Y-33.5 E2224.8971
G0 F18000 X65.994 Y-34
G1 F2400 X6.004 Y-34 E2227.39119
G1 F6600 E2220.59119
G1 Z1
G0 F18000 X-67.249 Y35.75
G0 X-66.749 Y35.25
; TYPE:WALL-INNER
G1 Z0.7
G1 F6600 E2227.49119
G1 F2400 X-66.749 Y35.25 E2227.49119
G1 X-66.749 Y-35.249 E2230.4222
G1 X-5.249 Y-35.249 E2232.97907
G1 X-5.249 Y35.25 E2235.91008
G1 X-66.749 Y35.25 E2238.46695
G0 F18000 X-67.249 Y35.75
; TYPE:WALL-OUTER
G1 F2100 X-67.249 Y35.75 E2238.46695
G1 X-67.249 Y-35.749 E2241.43953
G1 X-4.749 Y-35.749 E2244.03798
G1 X-4.749 Y35.75 E2247.01057
G1 X-67.249 Y35.75 E2249.60901
G0 F18000 X-66.989 Y35.4
G0 X-66.309 Y34.5
G0 X-66.309 Y34.5
; TYPE:FILL
G1 F2400 X-5.688 Y34.5 E2252.12934
G0 F18000 X-5.688 Y34
G1 F2400 X-66.309 Y34 E2254.64967
G0 F18000 X-66.309 Y33.5
G1 F2400 X-5.688 Y33.5 E2257.17
G0 F18000 X-5.688 Y33
G1 F2400 X-66.309 Y33 E2259.69033
G0 F18000 X-66.309 Y32.5
G1 F2400 X-5.688 Y32.5 E2262.21065
G0 F18000 X-5.688 Y32
G1 F2400 X-66.309 Y32 E2264.73098
G0 F18000 X-66.309 Y31.5
G1 F2400 X-5.688 Y31.5 E2267.25131
G0 F18000 X-5.688 Y31
G1 F2400 X-66.309 Y31 E2269.77164
G0 F18000 X-66.309 Y30.5
G1 F2400 X-5.688 Y30.5 E2272.29197
G0 F18000 X-5.688 Y30
G1 F2400 X-66.309 Y30 E2274.8123
G0 F18000 X-66.309 Y29.5
G1 F2400 X-5.688 Y29.5 E2277.33262
G0 F18000 X-5.688 Y29
G1 F2400 X-66.309 Y29 E2279.85295
G0 F18000 X-66.309 Y28.5
G1 F2400 X-5.688 Y28.5 E2282.37328
G0 F18000 X-5.688 Y28
G1 F2400 X-66.309 Y28 E2284.89361
G0 F18000 X-66.309 Y27.5
G1 F2400 X-5.688 Y27.5 E2287.41394
G0 F18000 X-5.688 Y27
G1 F2400 X-66.309 Y27 E2289.93427
G0 F18000 X-66.309 Y26.5
G1 F2400 X-5.688 Y26.5 E2292.45459
G0 F18000 X-5.688 Y26
G1 F2400 X-66.309 Y26 E2294.97492
G0 F18000 X-66.309 Y25.5
G1 F2400 X-5.688 Y25.5 E2297.49525
G0 F18000 X-5.688 Y25
G1 F2400 X-66.309 Y25 E2300.01558
G0 F18000 X-66.309 Y24.5
G1 F2400 X-5.688 Y24.5 E2302.53591
G0 F18000 X-5.688 Y24
G1 F2400 X-66.309 Y24 E2305.05624
G0 F18000 X-66.309 Y23.5
G1 F2400 X-5.688 Y23.5 E2307.57656
G0 F18000 X-5.688 Y23
G1 F2400 X-66.309 Y23 E2310.09689
G0 F18000 X-66.309 Y22.5
G1 F2400 X-5.688 Y22.5 E2312.61722
G0 F18000 X-5.688 Y22
G1 F2400 X-66.309 Y22 E2315.13755
G0 F18000 X-66.309 Y21.5
G1 F2400 X-5.688 Y21.5 E2317.65788
G0 F18000 X-5.688 Y21
G1 F2400 X-66.309 Y21 E2320.17821
G0 F18000 X-66.309 Y20.5
G1 F2400 X-5.688 Y20.5 E2322.69853
G0 F18000 X-5.688 Y20
G1 F2400 X-66.309 Y20 E2325.21886
G0 F18000 X-66.309 Y19.5
G1 F2400 X-5.688 Y19.5 E2327.73919
G0 F18000 X-5.688 Y19
G1 F2400 X-66.309 Y19 E2330.25952
G0 F18000 X-66.309 Y18.5
G1 F2400 X-5.688 Y18.5 E2332.77985
G0 F18000 X-5.688 Y18
G1 F2400 X-66.309 Y18 E2335.30018
G0 F18000 X-66.309 Y17.5
G1 F2400 X-5.688 Y17.5 E2337.8205
G0 F18000 X-5.688 Y17
G1 F2400 X-66.309 Y17 E2340.34083
G0 F18000 X-66.309 Y16.5
G1 F2400 X-5.688 Y16.5 E2342.86116
G0 F18000 X-5.688 Y16
G1 F2400 X-66.309 Y16 E2345.38149
G0 F18000 X-66.309 Y15.5
G1 F2400 X-5.688 Y15.5 E2347.90182
G0 F18000 X-5.688 Y15
G1 F2400 X-66.309 Y15 E2350.42215
G0 F18000 X-66.309 Y14.5
G1 F2400 X-5.688 Y14.5 E2352.94247
G0 F18000 X-5.688 Y14
G1 F2400 X-66.309 Y14 E2355.4628
G0 F18000 X-66.309 Y13.5
G1 F2400 X-5.688 Y13.5 E2357.98313
G0 F18000 X-5.688 Y13
G1 F2400 X-66.309 Y13 E2360.50346
G0 F18000 X-66.309 Y12.5
G1 F2400 X-5.688 Y12.5 E2363.02379
G0 F18000 X-5.688 Y12
G1 F2400 X-66.309 Y12 E2365.54412
G0 F18000 X-66.309 Y11.5
G1 F2400 X-5.688 Y11.5 E2368.06444
G0 F18000 X-5.688 Y11
G1 F2400 X-66.309 Y11 E2370.58477
G0 F18000 X-66.309 Y10.5
G1 F2400 X-5.688 Y10.5 E2373.1051
G0 F18000 X-5.688 Y10
G1 F2400 X-66.309 Y10 E2375.62543
G0 F18000 X-66.309 Y9.5
G1 F2400 X-5.688 Y9.5 E2378.14576
G0 F18000 X-5.688 Y9
G1 F2400 X-66.309 Y9 E2380.66609
G0 F18000 X-66.309 Y8.5
G1 F2400 X-5.688 Y8.5 E2383.18641
G0 F18000 X-5.688 Y8
G1 F2400 X-66.309 Y8 E2385.70674
G0 F18000 X-66.309 Y7.5
G1 F2400 X-5.688 Y7.5 E2388.22707
G0 F18000 X-5.689 Y7
G1 F2400 X-66.309 Y7 E2390.74736
G0 F18000 X-66.309 Y6.5
G1 F2400 X-5.689 Y6.5 E2393.26764
G0 F18000 X-5.689 Y6
G1 F2400 X-66.309 Y6 E2395.78793
G0 F18000 X-66.309 Y5.5
G1 F2400 X-5.689 Y5.5 E2398.30822
G0 F18000 X-5.689 Y5
G1 F2400 X-66.309 Y5 E2400.8285
G0 F18000 X-66.309 Y4.5
G1 F2400 X-5.689 Y4.5 E2403.34879
G0 F18000 X-5.689 Y4
G1 F2400 X-66.309 Y4 E2405.86908
G0 F18000 X-66.309 Y3.5
G1 F2400 X-5.689 Y3.5 E2408.38936
G0 F18000 X-5.689 Y3
G1 F2400 X-66.309 Y3 E2410.90965
G0 F18000 X-66.309 Y2.5
G1 F2400 X-5.689 Y2.5 E2413.42994
G0 F18000 X-5.689 Y2
G1 F2400 X-66.309 Y2 E2415.95022
G0 F18000 X-66.309 Y1.5
G1 F2400 X-5.689 Y1.5 E2418.47051
G0 F18000 X-5.689 Y1
G1 F2400 X-66.309 Y1 E2420.9908
G0 F18000 X-66.309 Y0.5
G1 F2400 X-5.689 Y0.5 E2423.51108
G0 F18000 X-5.688 Y0
G1 F2400 X-66.309 Y0 E2426.03141
G0 F18000 X-66.309 Y-0.499
G1 F2400 X-5.688 Y-0.499 E2428.55174
G0 F18000 X-5.688 Y-0.999
G1 F2400 X-66.309 Y-0.999 E2431.07207
G0 F18000 X-66.309 Y-1.499
G1 F2400 X-5.688 Y-1.499 E2433.5924
G0 F18000 X-5.688 Y-1.999
G1 F2400 X-66.309 Y-1.999 E2436.11273
G0 F18000 X-66.309 Y-2.499
G1 F2400 X-5.688 Y-2.499 E2438.63305
G0 F18000 X-5.688 Y-2.999
G1 F2400 X-66.309 Y-2.999 E2441.15338
G0 F18000 X-66.309 Y-3.499
G1 F2400 X-5.688 Y-3.499 E2443.67371
G0 F18000 X-5.688 Y-3.999
G1 F2400 X-66.309 Y-3.999 E2446.19404
G0 F18000 X-66.309 Y-4.499
G1 F2400 X-5.688 Y-4.5 E2448.71437
G0 F18000 X-5.688 Y-5
G1 F2400 X-66.309 Y-4.999 E2451.2347
G0 F18000 X-66.309 Y-5.499
G1 F2400 X-5.688 Y-5.5 E2453.75502
G0 F18000 X-5.688 Y-6
G1 F2400 X-66.309 Y-5.999 E2456.27535
G0 F18000 X-66.309 Y-6.499
G1 F2400 X-5.688 Y-6.5 E2458.79568
G0 F18000 X-5.688 Y-7
G1 F2400 X-66.309 Y-6.999 E2461.31601
G0 F18000 X-66.309 Y-7.499
G1 F2400 X-5.688 Y-7.5 E2463.83634
G0 F18000 X-5.688 Y-8
G1 F2400 X-66.309 Y-7.999 E2466.35667
G0 F18000 X-66.309 Y-8.499
G1 F2400 X-5.688 Y-8.5 E2468.87699
G0 F18000 X-5.688 Y-9
G1 F2400 X-66.309 Y-8.999 E2471.39732
G0 F18000 X-66.309 Y-9.499
G1 F2400 X-5.688 Y-9.5 E2473.91765
G0 F18000 X-5.688 Y-10
G1 F2400 X-66.309 Y-9.999 E2476.43798
G0 F18000 X-66.309 Y-10.499
G1 F2400 X-5.688 Y-10.5 E2478.95831
G0 F18000 X-5.688 Y-11
G1 F2400 X-66.309 Y-10.999 E2481.47864
G0 F18000 X-66.309 Y-11.499
G1 F2400 X-5.688 Y-11.5 E2483.99896
G0 F18000 X-5.688 Y-12
G1 F2400 X-66.309 Y-11.999 E2486.51929
G0 F18000 X-66.309 Y-12.499
G1 F2400 X-5.688 Y-12.5 E2489.03962
G0 F18000 X-5.688 Y-13
G1 F2400 X-66.309 Y-12.999 E2491.55995
G0 F18000 X-66.309 Y-13.499
G1 F2400 X-5.688 Y-13.5 E2494.08028
G0 F18000 X-5.688 Y-14
G1 F2400 X-66.309 Y-13.999 E2496.60061
G0 F18000 X-66.309 Y-14.499
G1 F2400 X-5.688 Y-14.5 E2499.12093
G0 F18000 X-5.688 Y-15
G1 F2400 X-66.309 Y-14.999 E2501.64126
G0 F18000 X-66.309 Y-15.499
G1 F2400 X-5.688 Y-15.5 E2504.16159
G0 F18000 X-5.688 Y-16
G1 F2400 X-66.309 Y-15.999 E2506.68192
G0 F18000 X-66.309 Y-16.499
G1 F2400 X-5.688 Y-16.5 E2509.20225
G0 F18000 X-5.688 Y-17
G1 F2400 X-66.309 Y-16.999 E2511.72258
G0 F18000 X-66.309 Y-17.499
G1 F2400 X-5.688 Y-17.5 E2514.2429
G0 F18000 X-5.688 Y-18
G1 F2400 X-66.309 Y-17.999 E2516.76323
G0 F18000 X-66.309 Y-18.499
G1 F2400 X-5.688 Y-18.5 E2519.28356
G0 F18000 X-5.688 Y-19
G1 F2400 X-66.309 Y-18.999 E2521.80389
G0 F18000 X-66.309 Y-19.499
G1 F2400 X-5.688 Y-19.5 E2524.32422
G0 F18000 X-5.688 Y-20
G1 F2400 X-66.309 Y-19.999 E2526.84455
G0 F18000 X-66.309 Y-20.499
G1 F2400 X-5.688 Y-20.5 E2529.36487
G0 F18000 X-5.688 Y-21
G1 F2400 X-66.309 Y-20.999 E2531.8852
G0 F18000 X-66.309 Y-21.499
G1 F2400 X-5.688 Y-21.5 E2534.40553
G0 F18000 X-5.688 Y-22
G1 F2400 X-66.309 Y-21.999 E2536.92586
G0 F18000 X-66.309 Y-22.499
G1 F2400 X-5.688 Y-22.5 E2539.44619
G0 F18000 X-5.688 Y-23
G1 F2400 X-66.309 Y-22.999 E2541.96651
G0 F18000 X-66.309 Y-23.499
G1 F2400 X-5.688 Y-23.5 E2544.48684
G0 F18000 X-5.688 Y-24
G1 F2400 X-66.309 Y-23.999 E2547.00717
G0 F18000 X-66.309 Y-24.499
G1 F2400 X-5.688 Y-24.5 E2549.5275
G0 F18000 X-5.688 Y-25
G1 F2400 X-66.309 Y-24.999 E2552.04783
G0 F18000 X-66.309 Y-25.499
G1 F2400 X-5.688 Y-25.5 E2554.56816
G0 F18000 X-5.688 Y-26
G1 F2400 X-66.309 Y-25.999 E2557.08848
G0 F18000 X-66.309 Y-26.499
G1 F2400 X-5.688 Y-26.5 E2559.60881
G0 F18000 X-5.688 Y-27
G1 F2400 X-66.309 Y-26.999 E2562.12914
G0 F18000 X-66.309 Y-27.499
G1 F2400 X-5.688 Y-27.5 E2564.64947
G0 F18000 X-5.688 Y-28
G1 F2400 X-66.309 Y-27.999 E2567.1698
G0 F18000 X-66.309 Y-28.499
G1 F2400 X-5.688 Y-28.5 E2569.69013
G0 F18000 X-5.688 Y-29
G1 F2400 X-66.309 Y-28.999 E2572.21045
G0 F18000 X-66.309 Y-29.499
G1 F2400 X-5.688 Y-29.5 E2574.73078
G0 F18000 X-5.688 Y-30
G1 F2400 X-66.309 Y-29.999 E2577.25111
G0 F18000 X-66.309 Y-30.499
G1 F2400 X-5.688 Y-30.5 E2579.77144
G0 F18000 X-5.688 Y-31
G1 F2400 X-66.309 Y-30.999 E2582.29177
G0 F18000 X-66.309 Y-31.499
G1 F2400 X-5.688 Y-31.5 E2584.8121
G0 F18000 X-5.688 Y-32
G1 F2400 X-66.309 Y-31.999 E2587.33242
G0 F18000 X-66.309 Y-32.499
G1 F2400 X-5.688 Y-32.5 E2589.85275
G0 F18000 X-5.688 Y-33
G1 F2400 X-66.309 Y-32.999 E2592.37308
G0 F18000 X-66.309 Y-33.499
G1 F2400 X-5.688 Y-33.5 E2594.89341
G0 F18000 X-5.688 Y-34
G1 F2400 X-66.309 Y-33.999 E2597.41374
G0 F18000 X-66.309 Y-34.499
G1 F2400 X-5.688 Y-34.5 E2599.93407
; Layer Change GCode
; LAYER:3
G1 F6600 E2593.13407
G1 Z1
G0 F18000 X4.929 Y35.57 Z1.2
G0 X5.429 Y35.07
; TYPE:WALL-INNER
G1 Z0.9
G1 F6600 E2600.03407
G1 F2400 X5.429 Y35.07 E2600.03407
G1 X5.429 Y-35.069 E2602.95011
G1 X66.57 Y-35.069 E2605.49205
G1 X66.57 Y35.07 E2608.40809
G1 X5.429 Y35.07 E2610.95004
G0 F18000 X4.929 Y35.57
; TYPE:WALL-OUTER
G1 F2100 X4.929 Y35.57 E2610.95004
G1 X4.929 Y-35.569 E2613.90766
G1 X67.07 Y-35.569 E2616.49118
G1 X67.07 Y35.57 E2619.4488
G1 X4.929 Y35.57 E2622.03232
G1 F6600 E2615.23232
G1 Z1.2
G0 F18000 X5.189 Y35.22
G0 X55.421 Y2.07
G0 X55.421 Y2.07
; TYPE:WALL-INNER
G1 Z0.9
G1 F6600 E2622.13232
G1 F2400 X55.421 Y2.07 E2622.13232
G1 X56.045 Y2.666 E2622.16819
G1 X56.801 Y3.081 E2622.20405
G1 X57.64 Y3.286 E2622.23996
G1 X58.503 Y3.268 E2622.27584
G1 X59.332 Y3.025 E2622.31176
G1 X60.07 Y2.578 E2622.34763
G1 X60.666 Y1.954 E2622.38351
G1 X61.081 Y1.199 E2622.41933
G1 X61.286 Y0.36 E2622.45523
G1 X61.268 Y-0.502 E2622.49108
G1 X61.025 Y-1.331 E2622.527
G1 X60.578 Y-2.069 E2622.56287
G1 X59.954 Y-2.665 E2622.59874
G1 X59.198 Y-3.08 E2622.6346
G1 X58.359 Y-3.285 E2622.6705
G1 X57.496 Y-3.267 E2622.70639
G1 X56.667 Y-3.024 E2622.74231
G1 X55.929 Y-2.577 E2622.77818
G1 X55.333 Y-1.953 E2622.81405
G1 X54.918 Y-1.197 E2622.84991
G1 X54.713 Y-0.358 E2622.88582
G1 X54.731 Y0.504 E2622.92166
G1 X54.974 Y1.332 E2622.95754
G1 X55.421 Y2.07 E2622.99341
G0 F18000 X55.697 Y2.203
G0 X56.82 Y3.032
G0 X57.357 Y3.002
G0 X57.613 Y3.124
G0 X57.613 Y3.124
G0 X57.695 Y2.785
; TYPE:WALL-OUTER
G1 F2100 X57.695 Y2.785 E2622.99341
G1 X58.426 Y2.769 E2623.02381
G1 X59.129 Y2.564 E2623.05425
G1 X59.754 Y2.185 E2623.08464
G1 X60.259 Y1.656 E2623.11505
G1 X60.611 Y1.016 E2623.14542
G1 X60.785 Y0.305 E2623.17585
G1 X60.769 Y-0.425 E2623.20621
G1 X60.564 Y-1.128 E2623.23665
G1 X60.185 Y-1.753 E2623.26704
G1 X59.656 Y-2.258 E2623.29744
G1 X59.015 Y-2.61 E2623.32785
G1 X58.304 Y-2.784 E2623.35828
G1 X57.573 Y-2.768 E2623.38868
G1 X56.87 Y-2.563 E2623.41912
G1 X56.245 Y-2.184 E2623.44951
G1 X55.74 Y-1.655 E2623.47992
G1 X55.388 Y-1.014 E2623.51032
G1 X55.214 Y-0.303 E2623.54075
G1 X55.23 Y0.427 E2623.57111
G1 X55.435 Y1.129 E2623.60152
G1 X55.814 Y1.754 E2623.6319
G1 X56.343 Y2.259 E2623.66231
G1 X56.984 Y2.611 E2623.69271
G1 X57.695 Y2.785 E2623.72315
G0 F18000 X57.5 Y3.704
; TYPE:FILL
G1 F2400 X57.5 Y34.629 E2625.00886
G0 F18000 X58 Y34.629
G1 F2400 X58 Y3.718 E2626.29399
G0 F18000 X58.5 Y3.707
G1 F2400 X58.5 Y34.629 E2627.57958
G0 F18000 X59 Y34.629
G1 F2400 X59 Y3.579 E2628.87048
G0 F18000 X59.5 Y3.432
G1 F2400 X59.5 Y34.629 E2630.16751
G0 F18000 X60 Y34.629
G1 F2400 X60 Y3.134 E2631.47692
G0 F18000 X60.5 Y2.765
G1 F2400 X60.5 Y34.629 E2632.80167
G0 F18000 X61 Y34.629
G1 F2400 X61 Y2.241 E2634.1482
G0 F18000 X61.5 Y1.34
G1 F2400 X61.5 Y34.629 E2635.5322
G0 F18000 X62 Y34.629
G1 F2400 X61.999 Y-34.628 E2638.41157
G0 F18000 X61.499 Y-34.628
G1 F2400 X61.5 Y-1.27 E2639.79843
G0 F18000 X61 Y-2.221
G1 F2400 X60.999 Y-34.628 E2641.14576
G0 F18000 X60.499 Y-34.628
G1 F2400 X60.5 Y-2.752 E2642.47101
G0 F18000 X60 Y-3.14
G1 F2400 X59.999 Y-34.628 E2643.78013
G0 F18000 X59.499 Y-34.628
G1 F2400 X59.5 Y-3.415 E2645.07782
G0 F18000 X59 Y-3.581
G1 F2400 X58.999 Y-34.628 E2646.3686
G0 F18000 X58.499 Y-34.628
G1 F2400 X58.5 Y-3.703 E2647.65431
G0 F18000 X58 Y-3.717
G1 F2400 X57.999 Y-34.628 E2648.93944
G0 F18000 X57.499 Y-34.628
G1 F2400 X57.5 Y-3.706 E2650.22503
G0 F18000 X57 Y-3.578
G1 F2400 X56.999 Y-34.628 E2651.51594
G0 F18000 X56.499 Y-34.628
G1 F2400 X56.5 Y-3.431 E2652.81296
G0 F18000 X56 Y-3.133
G1 F2400 X55.999 Y-34.628 E2654.12237
G0 F18000 X55.499 Y-34.628
G1 F2400 X55.5 Y-2.765 E2655.44708
G0 F18000 X55 Y-2.241
G1 F2400 X54.999 Y-34.628 E2656.79357
G0 F18000 X54.499 Y-34.628
G1 F2400 X54.5 Y-1.342 E2658.17745
G0 F18000 X54.5 Y1.275
G0 X54.5 Y1.275
G1 F2400 X54.5 Y34.629 E2659.56414
G0 F18000 X55 Y34.629
G1 F2400 X55 Y2.224 E2660.91139
G0 F18000 X55.5 Y2.754
G1 F2400 X55.5 Y34.629 E2662.2366
G0 F18000 X56 Y34.629
G1 F2400 X56 Y3.142 E2663.54567
G0 F18000 X56.5 Y3.416
G1 F2400 X56.5 Y34.629 E2664.84336
G0 F18000 X57 Y34.629
G1 F2400 X57 Y3.582 E2666.13414
G0 F18000 X54 Y34.629
G1 F2400 X53.999 Y-34.628 E2669.01351
G0 F18000 X53.499 Y-34.628
G1 F2400 X53.5 Y34.629 E2671.89289
G0 F18000 X53 Y34.629
G1 F2400 X52.999 Y-34.628 E2674.77226
G0 F18000 X52.499 Y-34.628
G1 F2400 X52.5 Y34.629 E2677.65163
G0 F18000 X52 Y34.629
G1 F2400 X51.999 Y-34.628 E2680.531
G0 F18000 X51.499 Y-34.628
G1 F2400 X51.5 Y34.629 E2683.41037
G0 F18000 X51 Y34.629
G1 F2400 X50.999 Y-34.628 E2686.28974
G0 F18000 X50.499 Y-34.628
G1 F2400 X50.5 Y34.629 E2689.16911
G0 F18000 X50 Y34.629
G1 F2400 X49.999 Y-34.628 E2692.04849
G0 F18000 X49.499 Y-34.628
G1 F2400 X49.5 Y34.629 E2694.92786
G0 F18000 X49 Y34.629
G1 F2400 X48.999 Y-34.628 E2697.80723
G0 F18000 X48.499 Y-34.628
G1 F2400 X48.5 Y34.629 E2700.6866
G0 F18000 X48 Y34.629
G1 F2400 X47.999 Y-34.628 E2703.56597
G0 F18000 X47.499 Y-34.628
G1 F2400 X47.5 Y34.629 E2706.44534
G0 F18000 X47 Y34.629
G1 F2400 X46.999 Y-34.628 E2709.32471
G0 F18000 X46.499 Y-34.628
G1 F2400 X46.5 Y34.629 E2712.20409
G0 F18000 X46 Y34.629
G1 F2400 X45.999 Y-34.628 E2715.08346
G0 F18000 X45.499 Y-34.628
G1 F2400 X45.5 Y34.629 E2717.96283
G0 F18000 X45 Y34.629
G1 F2400 X44.999 Y-34.628 E2720.8422
G0 F18000 X44.499 Y-34.628
G1 F2400 X44.5 Y34.629 E2723.72157
G0 F18000 X44 Y34.629
G1 F2400 X43.999 Y-34.628 E2726.60094
G0 F18000 X43.499 Y-34.628
G1 F2400 X43.5 Y34.629 E2729.48031
G0 F18000 X43 Y34.629
G1 F2400 X42.999 Y-34.628 E2732.35969
G0 F18000 X42.499 Y-34.628
G1 F2400 X42.5 Y34.629 E2735.23906
G0 F18000 X42 Y34.629
G1 F2400 X41.999 Y-34.628 E2738.11843
G0 F18000 X41.499 Y-34.628
G1 F2400 X41.5 Y34.629 E2740.9978
G0 F18000 X41 Y34.629
G1 F2400 X40.999 Y-34.628 E2743.87717
G0 F18000 X40.499 Y-34.628
G1 F2400 X40.5 Y34.629 E2746.75654
G0 F18000 X40 Y34.629
G1 F2400 X39.999 Y-34.628 E2749.63592
G0 F18000 X39.499 Y-34.628
G1 F2400 X39.5 Y34.629 E2752.51529
G0 F18000 X39 Y34.629
G1 F2400 X38.999 Y-34.628 E2755.39466
G0 F18000 X38.499 Y-34.628
G1 F2400 X38.5 Y34.629 E2758.27403
G0 F18000 X38 Y34.629
G1 F2400 X37.999 Y-34.628 E2761.1534
G0 F18000 X37.499 Y-34.628
G1 F2400 X37.5 Y34.629 E2764.03277
G0 F18000 X37 Y34.629
G1 F2400 X36.999 Y-34.628 E2766.91214
G0 F18000 X36.499 Y-34.628
G1 F2400 X36.5 Y34.629 E2769.79152
G0 F18000 X36 Y34.629
G1 F2400 X35.999 Y-34.628 E2772.67089
G0 F18000 X35.499 Y-34.629
G1 F2400 X35.5 Y34.629 E2775.5503
G0 F18000 X35 Y34.629
G1 F2400 X34.999 Y-34.629 E2778.42971
G0 F18000 X34.499 Y-34.629
G1 F2400 X34.5 Y34.629 E2781.30913
G0 F18000 X34 Y34.629
G1 F2400 X33.999 Y-34.629 E2784.18854
G0 F18000 X33.499 Y-34.629
G1 F2400 X33.5 Y34.629 E2787.06795
G0 F18000 X33 Y34.629
G1 F2400 X32.999 Y-34.629 E2789.94736
G0 F18000 X32.499 Y-34.629
G1 F2400 X32.5 Y34.629 E2792.82678
G0 F18000 X32 Y34.629
G1 F2400 X31.999 Y-34.629 E2795.70619
G0 F18000 X31.499 Y-34.629
G1 F2400 X31.5 Y34.629 E2798.5856
G0 F18000 X31 Y34.629
G1 F2400 X30.999 Y-34.629 E2801.46502
G0 F18000 X30.499 Y-34.629
G1 F2400 X30.5 Y34.629 E2804.34443
G0 F18000 X30 Y34.629
G1 F2400 X29.999 Y-34.629 E2807.22384
G0 F18000 X29.499 Y-34.629
G1 F2400 X29.5 Y34.63 E2810.1033
G0 F18000 X29 Y34.63
G1 F2400 X28.999 Y-34.629 E2812.98275
G0 F18000 X28.499 Y-34.629
G1 F2400 X28.5 Y34.63 E2815.86221
G0 F18000 X28 Y34.63
G1 F2400 X27.999 Y-34.629 E2818.74166
G0 F18000 X27.499 Y-34.629
G1 F2400 X27.5 Y34.63 E2821.62112
G0 F18000 X27 Y34.63
G1 F2400 X26.999 Y-34.629 E2824.50057
G0 F18000 X26.499 Y-34.629
G1 F2400 X26.5 Y34.63 E2827.38003
G0 F18000 X26 Y34.63
G1 F2400 X25.999 Y-34.629 E2830.25948
G0 F18000 X25.499 Y-34.629
G1 F2400 X25.5 Y34.63 E2833.13893
G0 F18000 X25 Y34.63
G1 F2400 X24.999 Y-34.629 E2836.01839
G0 F18000 X24.499 Y-34.629
G1 F2400 X24.5 Y34.63 E2838.89784
G0 F18000 X24 Y34.63
G1 F2400 X23.999 Y-34.629 E2841.7773
G0 F18000 X23.499 Y-34.629
G1 F2400 X23.5 Y34.63 E2844.65675
G0 F18000 X23 Y34.63
G1 F2400 X22.999 Y-34.629 E2847.53621
G0 F18000 X22.499 Y-34.629
G1 F2400 X22.5 Y34.63 E2850.41566
G0 F18000 X22 Y34.63
G1 F2400 X21.999 Y-34.629 E2853.29512
G0 F18000 X21.499 Y-34.629
G1 F2400 X21.5 Y34.63 E2856.17457
G0 F18000 X21 Y34.63
G1 F2400 X20.999 Y-34.629 E2859.05403
G0 F18000 X20.499 Y-34.629
G1 F2400 X20.5 Y34.63 E2861.93348
G0 F18000 X20 Y34.63
G1 F2400 X19.999 Y-34.629 E2864.81294
G0 F18000 X19.499 Y-34.629
G1 F2400 X19.5 Y34.63 E2867.69239
G0 F18000 X19 Y34.63
G1 F2400 X18.999 Y-34.629 E2870.57184
G0 F18000 X18.499 Y-34.629
G1 F2400 X18.5 Y34.63 E2873.4513
G0 F18000 X18 Y34.63
G1 F2400 X17.999 Y-34.629 E2876.33075
G0 F18000 X17.499 Y-34.629
G1 F2400 X17.5 Y34.63 E2879.21021
G0 F18000 X17 Y34.63
G1 F2400 X16.999 Y-34.629 E2882.08966
G0 F18000 X16.499 Y-34.629
G1 F2400 X16.5 Y34.63 E2884.96912
G0 F18000 X16 Y34.63
G1 F2400 X15.999 Y-34.629 E2887.84857
G0 F18000 X15.499 Y-34.629
G1 F2400 X15.5 Y34.63 E2890.72803
G0 F18000 X15 Y34.63
G1 F2400 X14.999 Y-34.629 E2893.60748
G0 F18000 X14.499 Y-34.629
G1 F2400 X14.5 Y34.63 E2896.48694
G0 F18000 X14 Y34.63
G1 F2400 X13.999 Y-34.629 E2899.36639
G0 F18000 X13.499 Y-34.629
G1 F2400 X13.5 Y34.63 E2902.24585
G0 F18000 X13 Y34.63
G1 F2400 X12.999 Y-34.629 E2905.1253
G0 F18000 X12.499 Y-34.629
G1 F2400 X12.5 Y34.63 E2908.00475
G0 F18000 X12 Y34.63
G1 F2400 X11.999 Y-34.629 E2910.88421
G0 F18000 X11.499 Y-34.629
G1 F2400 X11.5 Y34.63 E2913.76366
G0 F18000 X11 Y34.63
G1 F2400 X10.999 Y-34.629 E2916.64312
G0 F18000 X10.499 Y-34.629
G1 F2400 X10.5 Y34.63 E2919.52257
G0 F18000 X10 Y34.63
G1 F2400 X9.999 Y-34.629 E2922.40203
G0 F18000 X9.499 Y-34.629
G1 F2400 X9.5 Y34.63 E2925.28148
G0 F18000 X9 Y34.63
G1 F2400 X8.999 Y-34.629 E2928.16094
G0 F18000 X8.499 Y-34.629
G1 F2400 X8.5 Y34.63 E2931.04039
G0 F18000 X8 Y34.63
G1 F2400 X7.999 Y-34.629 E2933.91985
G0 F18000 X7.499 Y-34.629
G1 F2400 X7.5 Y34.63 E2936.7993
G0 F18000 X7 Y34.63
G1 F2400 X6.999 Y-34.629 E2939.67876
G0 F18000 X6.499 Y-34.629
G1 F2400 X6.5 Y34.63 E2942.55821
G0 F18000 X6 Y34.63
G1 F2400 X5.999 Y-34.629 E2945.43766
G0 F18000 X62.499 Y-34.628
G1 F2400 X62.5 Y34.629 E2948.31704
G0 F18000 X63 Y34.629
G1 F2400 X62.999 Y-34.628 E2951.19641
G0 F18000 X63.499 Y-34.628
G1 F2400 X63.5 Y34.629 E2954.07578
G0 F18000 X64 Y34.629
G1 F2400 X63.999 Y-34.628 E2956.95515
G0 F18000 X64.499 Y-34.628
G1 F2400 X64.5 Y34.629 E2959.83452
G0 F18000 X65 Y34.629
G1 F2400 X64.999 Y-34.628 E2962.71389
G0 F18000 X65.499 Y-34.628
G1 F2400 X65.5 Y34.629 E2965.59327
G0 F18000 X66 Y34.629
G1 F2400 X66 Y-34.628 E2968.47264
G1 F6600 E2961.67264
G1 Z1.2
G0 F18000 X-67.249 Y35.75
G0 X-66.749 Y35.25
; TYPE:WALL-INNER
G1 Z0.9
G1 F6600 E2968.57264
G1 F2400 X-66.749 Y35.25 E2968.57264
G1 X-66.749 Y-35.249 E2971.50364
G1 X-5.249 Y-35.249 E2974.06052
G1 X-5.249 Y35.25 E2976.99153
G1 X-66.749 Y35.25 E2979.5484
G0 F18000 X-67.249 Y35.75
; TYPE:WALL-OUTER
G1 F2100 X-67.249 Y35.75 E2979.5484
G1 X-67.249 Y-35.749 E2982.52098
G1 X-4.749 Y-35.749 E2985.11943
G1 X-4.749 Y35.75 E2988.09201
G1 X-67.249 Y35.75 E2990.69046
G0 F18000 X-66.989 Y35.4
G0 X-66 Y34.809
G0 X-66 Y34.809
; TYPE:FILL
G1 F2400 X-66 Y-34.808 E2993.5848
G0 F18000 X-65.5 Y-34.808
G1 F2400 X-65.499 Y34.809 E2996.47914
G0 F18000 X-64.999 Y34.809
G1 F2400 X-65 Y-34.808 E2999.37348
G0 F18000 X-64.5 Y-34.808
G1 F2400 X-64.499 Y34.809 E3002.26781
G0 F18000 X-63.999 Y34.809
G1 F2400 X-64 Y-34.808 E3005.16215
G0 F18000 X-63.5 Y-34.808
G1 F2400 X-63.499 Y34.809 E3008.05649
G0 F18000 X-62.999 Y34.809
G1 F2400 X-63 Y-34.808 E3010.95083
G0 F18000 X-62.5 Y-34.808
G1 F2400 X-62.499 Y34.809 E3013.84517
G0 F18000 X-61.999 Y34.809
G1 F2400 X-62 Y-34.808 E3016.73951
G0 F18000 X-61.5 Y-34.808
G1 F2400 X-61.499 Y34.809 E3019.63385
G0 F18000 X-60.999 Y34.809
G1 F2400 X-61 Y-34.808 E3022.52818
G0 F18000 X-60.5 Y-34.808
G1 F2400 X-60.499 Y34.809 E3025.42252
G0 F18000 X-59.999 Y34.809
G1 F2400 X-60 Y-34.808 E3028.31686
G0 F18000 X-59.5 Y-34.808
G1 F2400 X-59.499 Y34.809 E3031.2112
G0 F18000 X-58.999 Y34.809
G1 F2400 X-59 Y-34.808 E3034.10554
G0 F18000 X-58.5 Y-34.808
G1 F2400 X-58.499 Y34.809 E3036.99988
G0 F18000 X-57.999 Y34.809
G1 F2400 X-58 Y-34.808 E3039.89422
G0 F18000 X-57.5 Y-34.808
G1 F2400 X-57.499 Y34.809 E3042.78855
G0 F18000 X-56.999 Y34.809
G1 F2400 X-57 Y-34.808 E3045.68289
G0 F18000 X-56.5 Y-34.808
G1 F2400 X-56.499 Y34.809 E3048.57723
G0 F18000 X-55.999 Y34.809
G1 F2400 X-56 Y-34.808 E3051.47157
G0 F18000 X-55.5 Y-34.808
G1 F2400 X-55.499 Y34.809 E3054.36591
G0 F18000 X-54.999 Y34.809
G1 F2400 X-55 Y-34.808 E3057.26025
G0 F18000 X-54.5 Y-34.808
G1 F2400 X-54.499 Y34.809 E3060.15458
G0 F18000 X-53.999 Y34.809
G1 F2400 X-54 Y-34.808 E3063.04892
G0 F18000 X-53.5 Y-34.808
G1 F2400 X-53.499 Y34.809 E3065.94326
G0 F18000 X-52.999 Y34.809
G1 F2400 X-53 Y-34.808 E3068.8376
G0 F18000 X-52.5 Y-34.808
G1 F2400 X-52.499 Y34.809 E3071.73194
G0 F18000 X-51.999 Y34.809
G1 F2400 X-52 Y-34.808 E3074.62628
G0 F18000 X-51.5 Y-34.808
G1 F2400 X-51.499 Y34.809 E3077.52062
G0 F18000 X-50.999 Y34.809
G1 F2400 X-51 Y-34.808 E3080.41495
G0 F18000 X-50.5 Y-34.808
G1 F2400 X-50.499 Y34.809 E3083.30929
G0 F18000 X-49.999 Y34.809
G1 F2400 X-50 Y-34.808 E3086.20363
G0 F18000 X-49.5 Y-34.808
G1 F2400 X-49.499 Y34.809 E3089.09797
G0 F18000 X-48.999 Y34.809
G1 F2400 X-49 Y-34.808 E3091.99231
G0 F18000 X-48.5 Y-34.808
G1 F2400 X-48.499 Y34.809 E3094.88665
G0 F18000 X-47.999 Y34.809
G1 F2400 X-48 Y-34.808 E3097.78099
G0 F18000 X-47.5 Y-34.808
G1 F2400 X-47.499 Y34.809 E3100.67532
G0 F18000 X-46.999 Y34.809
G1 F2400 X-47 Y-34.808 E3103.56966
G0 F18000 X-46.5 Y-34.808
G1 F2400 X-46.499 Y34.809 E3106.464
G0 F18000 X-45.999 Y34.809
G1 F2400 X-46 Y-34.808 E3109.35834
G0 F18000 X-45.5 Y-34.808
G1 F2400 X-45.499 Y34.809 E3112.25268
G0 F18000 X-44.999 Y34.809
G1 F2400 X-45 Y-34.808 E3115.14702
G0 F18000 X-44.5 Y-34.808
G1 F2400 X-44.499 Y34.809 E3118.04136
G0 F18000 X-43.999 Y34.809
G1 F2400 X-44 Y-34.808 E3120.93569
G0 F18000 X-43.5 Y-34.808
G1 F2400 X-43.499 Y34.809 E3123.83003
G0 F18000 X-42.999 Y34.809
G1 F2400 X-43 Y-34.808 E3126.72437
G0 F18000 X-42.5 Y-34.808
G1 F2400 X-42.499 Y34.809 E3129.61871
G0 F18000 X-41.999 Y34.809
G1 F2400 X-42 Y-34.808 E3132.51305
G0 F18000 X-41.5 Y-34.808
G1 F2400 X-41.499 Y34.809 E3135.40739
G0 F18000 X-40.999 Y34.809
G1 F2400 X-41 Y-34.808 E3138.30172
G0 F18000 X-40.5 Y-34.808
G1 F2400 X-40.499 Y34.809 E3141.19606
G0 F18000 X-39.999 Y34.809
G1 F2400 X-40 Y-34.808 E3144.0904
G0 F18000 X-39.5 Y-34.808
G1 F2400 X-39.499 Y34.809 E3146.98474
G0 F18000 X-38.999 Y34.809
G1 F2400 X-39 Y-34.808 E3149.87908
G0 F18000 X-38.5 Y-34.808
G1 F2400 X-38.499 Y34.809 E3152.77342
G0 F18000 X-37.999 Y34.809
G1 F2400 X-38 Y-34.808 E3155.66776
G0 F18000 X-37.5 Y-34.808
G1 F2400 X-37.499 Y34.809 E3158.56209
G0 F18000 X-36.999 Y34.809
G1 F2400 X-37 Y-34.808 E3161.45643
G0 F18000 X-36.5 Y-34.808
G1 F2400 X-36.499 Y34.809 E3164.35077
G0 F18000 X-35.999 Y34.809
G1 F2400 X-36 Y-34.808 E3167.24511
G0 F18000 X-35.5 Y-34.808
G1 F2400 X-35.499 Y34.81 E3170.13949
G0 F18000 X-34.999 Y34.81
G1 F2400 X-35 Y-34.808 E3173.03387
G0 F18000 X-34.5 Y-34.808
G1 F2400 X-34.499 Y34.81 E3175.92825
G0 F18000 X-33.999 Y34.81
G1 F2400 X-34 Y-34.808 E3178.82263
G0 F18000 X-33.5 Y-34.808
G1 F2400 X-33.499 Y34.81 E3181.71701
G0 F18000 X-32.999 Y34.81
G1 F2400 X-33 Y-34.808 E3184.61139
G0 F18000 X-32.5 Y-34.808
G1 F2400 X-32.499 Y34.81 E3187.50577
G0 F18000 X-31.999 Y34.81
G1 F2400 X-32 Y-34.808 E3190.40015
G0 F18000 X-31.5 Y-34.808
G1 F2400 X-31.499 Y34.81 E3193.29453
G0 F18000 X-30.999 Y34.81
G1 F2400 X-31 Y-34.808 E3196.18891
G0 F18000 X-30.5 Y-34.808
G1 F2400 X-30.499 Y34.81 E3199.08329
G0 F18000 X-29.999 Y34.81
G1 F2400 X-30 Y-34.808 E3201.97767
G0 F18000 X-29.5 Y-34.809
G1 F2400 X-29.499 Y34.81 E3204.87209
G0 F18000 X-28.999 Y34.81
G1 F2400 X-29 Y-34.809 E3207.76651
G0 F18000 X-28.5 Y-34.809
G1 F2400 X-28.499 Y34.81 E3210.66094
G0 F18000 X-27.999 Y34.81
G1 F2400 X-28 Y-34.809 E3213.55536
G0 F18000 X-27.5 Y-34.809
G1 F2400 X-27.499 Y34.81 E3216.44978
G0 F18000 X-26.999 Y34.81
G1 F2400 X-27 Y-34.809 E3219.3442
G0 F18000 X-26.5 Y-34.809
G1 F2400 X-26.499 Y34.81 E3222.23862
G0 F18000 X-25.999 Y34.81
G1 F2400 X-26 Y-34.809 E3225.13304
G0 F18000 X-25.5 Y-34.809
G1 F2400 X-25.499 Y34.81 E3228.02747
G0 F18000 X-24.999 Y34.81
G1 F2400 X-25 Y-34.809 E3230.92189
G0 F18000 X-24.5 Y-34.809
G1 F2400 X-24.499 Y34.81 E3233.81631
G0 F18000 X-23.999 Y34.81
G1 F2400 X-24 Y-34.809 E3236.71073
G0 F18000 X-23.5 Y-34.809
G1 F2400 X-23.499 Y34.81 E3239.60515
G0 F18000 X-22.999 Y34.81
G1 F2400 X-23 Y-34.809 E3242.49957
G0 F18000 X-22.5 Y-34.809
G1 F2400 X-22.499 Y34.81 E3245.394
G0 F18000 X-21.999 Y34.81
G1 F2400 X-22 Y-34.809 E3248.28842
G0 F18000 X-21.5 Y-34.809
G1 F2400 X-21.499 Y34.81 E3251.18284
G0 F18000 X-20.999 Y34.81
G1 F2400 X-21 Y-34.809 E3254.07726
G0 F18000 X-20.5 Y-34.809
G1 F2400 X-20.499 Y34.81 E3256.97168
G0 F18000 X-19.999 Y34.81
G1 F2400 X-20 Y-34.809 E3259.86611
G0 F18000 X-19.5 Y-34.809
G1 F2400 X-19.499 Y34.81 E3262.76053
G0 F18000 X-18.999 Y34.81
G1 F2400 X-19 Y-34.809 E3265.65495
G0 F18000 X-18.5 Y-34.809
G1 F2400 X-18.499 Y34.81 E3268.54937
G0 F18000 X-17.999 Y34.81
G1 F2400 X-18 Y-34.809 E3271.44379
G0 F18000 X-17.5 Y-34.809
G1 F2400 X-17.499 Y34.81 E3274.33821
G0 F18000 X-16.999 Y34.81
G1 F2400 X-17 Y-34.809 E3277.23264
G0 F18000 X-16.5 Y-34.809
G1 F2400 X-16.499 Y34.81 E3280.12706
G0 F18000 X-15.999 Y34.81
G1 F2400 X-16 Y-34.809 E3283.02148
G0 F18000 X-15.5 Y-34.809
G1 F2400 X-15.499 Y34.81 E3285.9159
G0 F18000 X-14.999 Y34.81
G1 F2400 X-15 Y-34.809 E3288.81032
G0 F18000 X-14.5 Y-34.809
G1 F2400 X-14.499 Y34.81 E3291.70474
G0 F18000 X-13.999 Y34.81
G1 F2400 X-14 Y-34.809 E3294.59917
G0 F18000 X-13.5 Y-34.809
G1 F2400 X-13.499 Y34.81 E3297.49359
G0 F18000 X-12.999 Y34.81
G1 F2400 X-13 Y-34.809 E3300.38801
G0 F18000 X-12.5 Y-34.809
G1 F2400 X-12.499 Y34.81 E3303.28243
G0 F18000 X-11.999 Y34.81
G1 F2400 X-12 Y-34.809 E3306.17685
G0 F18000 X-11.5 Y-34.809
G1 F2400 X-11.499 Y34.81 E3309.07127
G0 F18000 X-10.999 Y34.81
G1 F2400 X-11 Y-34.809 E3311.9657
G0 F18000 X-10.5 Y-34.809
G1 F2400 X-10.499 Y34.81 E3314.86012
G0 F18000 X-9.999 Y34.81
G1 F2400 X-10 Y-34.809 E3317.75454
G0 F18000 X-9.5 Y-34.809
G1 F2400 X-9.499 Y34.81 E3320.64896
G0 F18000 X-8.999 Y34.81
G1 F2400 X-9 Y-34.809 E3323.54338
G0 F18000 X-8.5 Y-34.809
G1 F2400 X-8.499 Y34.81 E3326.4378
G0 F18000 X-7.999 Y34.81
G1 F2400 X-8 Y-34.809 E3329.33223
G0 F18000 X-7.5 Y-34.809
G1 F2400 X-7.499 Y34.81 E3332.22665
G0 F18000 X-6.999 Y34.81
G1 F2400 X-7 Y-34.809 E3335.12107
G0 F18000 X-6.5 Y-34.809
G1 F2400 X-6.499 Y34.81 E3338.01549
G0 F18000 X-5.999 Y34.81
G1 F2400 X-6 Y-34.809 E3340.90991
; Layer Change GCode
; LAYER:4
G1 F6600 E3334.10991
G1 Z1.2
G0 F18000 X4.847 Y35.652 Z1.4
G0 X5.347 Y35.152
; TYPE:WALL-INNER
G1 Z1.1
G1 F6600 E3341.00991
G1 F2400 X5.347 Y35.152 E3341.00991
G1 X5.347 Y-35.151 E3343.93277
G1 X66.652 Y-35.151 E3346.48154
G1 X66.652 Y35.152 E3349.4044
G1 X5.347 Y35.152 E3351.95316
G0 F18000 X4.847 Y35.652
; TYPE:WALL-OUTER
G1 F2100 X4.847 Y35.652 E3351.95316
G1 X4.847 Y-35.651 E3354.9176
G1 X67.152 Y-35.651 E3357.50794
G1 X67.152 Y35.652 E3360.47237
G1 X4.847 Y35.652 E3363.06271
G1 F6600 E3356.26271
G1 Z1.4
G0 F18000 X5.107 Y35.302
G0 X55.421 Y2.07
G0 X55.421 Y2.07
; TYPE:WALL-INNER
G1 Z1.1
G1 F6600 E3363.16271
G1 F2400 X55.421 Y2.07 E3363.16271
G1 X56.045 Y2.666 E3363.19859
G1 X56.801 Y3.081 E3363.23444
G1 X57.64 Y3.286 E3363.27035
G1 X58.503 Y3.268 E3363.30624
G1 X59.332 Y3.025 E3363.34215
G1 X60.07 Y2.578 E3363.37802
G1 X60.666 Y1.954 E3363.4139
G1 X61.081 Y1.199 E3363.44972
G1 X61.286 Y0.36 E3363.48563
G1 X61.268 Y-0.502 E3363.52147
G1 X61.025 Y-1.331 E3363.55739
G1 X60.578 Y-2.069 E3363.59326
G1 X59.954 Y-2.665 E3363.62913
G1 X59.198 Y-3.08 E3363.66499
G1 X58.359 Y-3.285 E3363.7009
G1 X57.496 Y-3.267 E3363.73678
G1 X56.667 Y-3.024 E3363.7727
G1 X55.929 Y-2.577 E3363.80857
G1 X55.333 Y-1.953 E3363.84445
G1 X54.918 Y-1.197 E3363.8803
G1 X54.713 Y-0.358 E3363.91621
G1 X54.731 Y0.504 E3363.95206
G1 X54.974 Y1.332 E3363.98793
G1 X55.421 Y2.07 E3364.0238
G0 F18000 X55.697 Y2.203
G0 X56.82 Y3.032
G0 X57.357 Y3.002
G0 X57.613 Y3.124
G0 X57.613 Y3.124
G0 X57.695 Y2.785
; TYPE:WALL-OUTER
G1 F2100 X57.695 Y2.785 E3364.0238
G1 X58.426 Y2.769 E3364.0542
G1 X59.129 Y2.564 E3364.08465
G1 X59.754 Y2.185 E3364.11504
G1 X60.259 Y1.656 E3364.14544
G1 X60.611 Y1.016 E3364.17581
G1 X60.785 Y0.305 E3364.20624
G1 X60.769 Y-0.425 E3364.2366
G1 X60.564 Y-1.128 E3364.26704
G1 X60.185 Y-1.753 E3364.29743
G1 X59.656 Y-2.258 E3364.32784
G1 X59.015 Y-2.61 E3364.35824
G1 X58.304 Y-2.784 E3364.38867
G1 X57.573 Y-2.768 E3364.41907
G1 X56.87 Y-2.563 E3364.44952
G1 X56.245 Y-2.184 E3364.47991
G1 X55.74 Y-1.655 E3364.51031
G1 X55.388 Y-1.014 E3364.54071
G1 X55.214 Y-0.303 E3364.57115
G1 X55.23 Y0.427 E3364.6015
G1 X55.435 Y1.129 E3364.63191
G1 X55.814 Y1.754 E3364.6623
G1 X56.343 Y2.259 E3364.6927
G1 X56.984 Y2.611 E3364.72311
G1 X57.695 Y2.785 E3364.75354
G0 F18000 X56.659 Y3.499
; TYPE:FILL
G1 F2400 X5.786 Y3.499 E3366.86859
G0 F18000 X5.786 Y3.999
G1 F2400 X66.212 Y3.999 E3369.38081
G0 F18000 X66.212 Y3.499
G1 F2400 X59.272 Y3.499 E3369.66935
G0 F18000 X60.223 Y2.999
G1 F2400 X66.212 Y2.999 E3369.91834
G0 F18000 X66.212 Y2.499
G1 F2400 X60.754 Y2.499 E3370.14526
G0 F18000 X61.142 Y1.999
G1 F2400 X66.212 Y1.999 E3370.35604
G0 F18000 X66.212 Y1.499
G1 F2400 X61.417 Y1.499 E3370.5554
G0 F18000 X61.583 Y0.999
G1 F2400 X66.212 Y0.999 E3370.74785
G0 F18000 X66.212 Y0.499
G1 F2400 X61.705 Y0.499 E3370.93523
G0 F18000 X61.719 Y0
G1 F2400 X66.212 Y0 E3371.12202
G0 F18000 X66.212 Y-0.5
G1 F2400 X61.708 Y-0.5 E3371.30928
G0 F18000 X61.579 Y-1
G1 F2400 X66.212 Y-1 E3371.5019
G0 F18000 X66.212 Y-1.5
G1 F2400 X61.432 Y-1.5 E3371.70063
G0 F18000 X61.134 Y-2
G1 F2400 X66.212 Y-2 E3371.91174
G0 F18000 X66.212 Y-2.5
G1 F2400 X60.764 Y-2.5 E3372.13825
G0 F18000 X60.24 Y-3
G1 F2400 X66.212 Y-3 E3372.38653
G0 F18000 X66.212 Y-3.5
G1 F2400 X59.331 Y-3.5 E3372.67261
G0 F18000 X56.734 Y-3.5
G1 F2400 X5.787 Y-3.5 E3374.79074
G0 F18000 X5.787 Y-3
G1 F2400 X55.779 Y-3 E3376.86917
G0 F18000 X55.247 Y-2.5
G1 F2400 X5.787 Y-2.5 E3378.92547
G0 F18000 X5.787 Y-2
G1 F2400 X54.858 Y-2 E3380.96561
G0 F18000 X54.583 Y-1.5
G1 F2400 X5.787 Y-1.5 E3382.99431
G0 F18000 X5.787 Y-1
G1 F2400 X54.417 Y-1 E3385.01611
G0 F18000 X54.295 Y-0.5
G1 F2400 X5.787 Y-0.5 E3387.03284
G0 F18000 X5.787 Y0
G1 F2400 X54.28 Y0 E3389.04895
G0 F18000 X54.291 Y0.499
G1 F2400 X5.786 Y0.499 E3391.06555
G0 F18000 X5.786 Y0.999
G1 F2400 X54.419 Y0.999 E3393.08747
G0 F18000 X54.566 Y1.499
G1 F2400 X5.786 Y1.499 E3395.11551
G0 F18000 X5.786 Y1.999
G1 F2400 X54.864 Y1.999 E3397.15594
G0 F18000 X55.233 Y2.499
G1 F2400 X5.786 Y2.499 E3399.2117
G0 F18000 X5.786 Y2.999
G1 F2400 X55.757 Y2.999 E3401.28926
G0 F18000 X66.212 Y4.499
G0 X66.212 Y4.499
G1 F2400 X5.786 Y4.5 E3403.80148
G0 F18000 X5.786 Y5
G1 F2400 X66.212 Y4.999 E3406.3137
G0 F18000 X66.212 Y5.499
G1 F2400 X5.786 Y5.5 E3408.82592
G0 F18000 X5.786 Y6
G1 F2400 X66.212 Y5.999 E3411.33814
G0 F18000 X66.212 Y6.499
G1 F2400 X5.786 Y6.5 E3413.85036
G0 F18000 X5.786 Y7
G1 F2400 X66.212 Y6.999 E3416.36258
G0 F18000 X66.212 Y7.499
G1 F2400 X5.786 Y7.5 E3418.87481
G0 F18000 X5.786 Y8
G1 F2400 X66.212 Y7.999 E3421.38703
G0 F18000 X66.212 Y8.499
G1 F2400 X5.786 Y8.5 E3423.89925
G0 F18000 X5.786 Y9
G1 F2400 X66.212 Y8.999 E3426.41147
G0 F18000 X66.212 Y9.499
G1 F2400 X5.786 Y9.5 E3428.92369
G0 F18000 X5.786 Y10
G1 F2400 X66.212 Y9.999 E3431.43591
G0 F18000 X66.212 Y10.499
G1 F2400 X5.786 Y10.5 E3433.94813
G0 F18000 X5.786 Y11
G1 F2400 X66.212 Y10.999 E3436.46035
G0 F18000 X66.212 Y11.499
G1 F2400 X5.786 Y11.5 E3438.97257
G0 F18000 X5.786 Y12
G1 F2400 X66.212 Y11.999 E3441.4848
G0 F18000 X66.212 Y12.499
G1 F2400 X5.786 Y12.5 E3443.99702
G0 F18000 X5.786 Y13
G1 F2400 X66.212 Y12.999 E3446.50924
G0 F18000 X66.212 Y13.499
G1 F2400 X5.786 Y13.5 E3449.02146
G0 F18000 X5.786 Y14
G1 F2400 X66.212 Y13.999 E3451.53368
G0 F18000 X66.212 Y14.499
G1 F2400 X5.786 Y14.5 E3454.0459
G0 F18000 X5.786 Y15
G1 F2400 X66.212 Y14.999 E3456.55812
G0 F18000 X66.212 Y15.499
G1 F2400 X5.786 Y15.5 E3459.07034
G0 F18000 X5.786 Y16
G1 F2400 X66.212 Y15.999 E3461.58256
G0 F18000 X66.212 Y16.499
G1 F2400 X5.786 Y16.5 E3464.09479
G0 F18000 X5.786 Y17
G1 F2400 X66.212 Y16.999 E3466.60701
G0 F18000 X66.212 Y17.499
G1 F2400 X5.786 Y17.5 E3469.11923
G0 F18000 X5.786 Y18
G1 F2400 X66.212 Y17.999 E3471.63145
G0 F18000 X66.212 Y18.499
G1 F2400 X5.786 Y18.5 E3474.14367
G0 F18000 X5.786 Y19
G1 F2400 X66.212 Y18.999 E3476.65589
G0 F18000 X66.212 Y19.499
G1 F2400 X5.786 Y19.5 E3479.16811
G0 F18000 X5.786 Y20
G1 F2400 X66.212 Y19.999 E3481.68033
G0 F18000 X66.212 Y20.499
G1 F2400 X5.786 Y20.5 E3484.19255
G0 F18000 X5.786 Y21
G1 F2400 X66.212 Y20.999 E3486.70478
G0 F18000 X66.212 Y21.499
G1 F2400 X5.786 Y21.5 E3489.217
G0 F18000 X5.786 Y22
G1 F2400 X66.212 Y21.999 E3491.72922
G0 F18000 X66.212 Y22.499
G1 F2400 X5.786 Y22.5 E3494.24144
G0 F18000 X5.786 Y23
G1 F2400 X66.212 Y22.999 E3496.75366
G0 F18000 X66.212 Y23.499
G1 F2400 X5.786 Y23.5 E3499.26588
G0 F18000 X5.786 Y24
G1 F2400 X66.212 Y23.999 E3501.7781
G0 F18000 X66.212 Y24.499
G1 F2400 X5.786 Y24.5 E3504.29032
G0 F18000 X5.786 Y25
G1 F2400 X66.212 Y24.999 E3506.80255
G0 F18000 X66.212 Y25.499
G1 F2400 X5.786 Y25.5 E3509.31477
G0 F18000 X5.786 Y26
G1 F2400 X66.212 Y25.999 E3511.82699
G0 F18000 X66.212 Y26.499
G1 F2400 X5.786 Y26.5 E3514.33921
G0 F18000 X5.786 Y27
G1 F2400 X66.212 Y26.999 E3516.85143
G0 F18000 X66.212 Y27.499
G1 F2400 X5.786 Y27.5 E3519.36365
G0 F18000 X5.786 Y28
G1 F2400 X66.212 Y27.999 E3521.87587
G0 F18000 X66.212 Y28.499
G1 F2400 X5.786 Y28.5 E3524.38809
G0 F18000 X5.786 Y29
G1 F2400 X66.212 Y28.999 E3526.90031
G0 F18000 X66.212 Y29.499
G1 F2400 X5.786 Y29.5 E3529.41254
G0 F18000 X5.786 Y30
G1 F2400 X66.212 Y29.999 E3531.92476
G0 F18000 X66.212 Y30.499
G1 F2400 X5.786 Y30.5 E3534.43698
G0 F18000 X5.786 Y31
G1 F2400 X66.212 Y30.999 E3536.9492
G0 F18000 X66.212 Y31.499
G1 F2400 X5.786 Y31.5 E3539.46142
G0 F18000 X5.786 Y32
G1 F2400 X66.212 Y31.999 E3541.97364
G0 F18000 X66.212 Y32.499
G1 F2400 X5.786 Y32.5 E3544.48586
G0 F18000 X5.786 Y33
G1 F2400 X66.212 Y32.999 E3546.99808
G0 F18000 X66.212 Y33.499
G1 F2400 X5.786 Y33.5 E3549.5103
G0 F18000 X5.786 Y34
G1 F2400 X66.212 Y33.999 E3552.02253
G0 F18000 X66.212 Y34.499
G1 F2400 X5.786 Y34.5 E3554.53475
G0 F18000 X5.787 Y-4
G0 X5.787 Y-4
G1 F2400 X66.212 Y-4 E3557.04693
G0 F18000 X66.212 Y-4.5
G1 F2400 X5.787 Y-4.5 E3559.55911
G0 F18000 X5.787 Y-5
G1 F2400 X66.212 Y-5 E3562.07129
G0 F18000 X66.212 Y-5.5
G1 F2400 X5.787 Y-5.5 E3564.58347
G0 F18000 X5.787 Y-6
G1 F2400 X66.212 Y-6 E3567.09565
G0 F18000 X66.212 Y-6.5
G1 F2400 X5.787 Y-6.5 E3569.60782
G0 F18000 X5.787 Y-7
G1 F2400 X66.212 Y-7 E3572.12
G0 F18000 X66.212 Y-7.5
G1 F2400 X5.786 Y-7.5 E3574.63223
G0 F18000 X5.786 Y-8
G1 F2400 X66.212 Y-8 E3577.14445
G0 F18000 X66.212 Y-8.5
G1 F2400 X5.786 Y-8.5 E3579.65667
G0 F18000 X5.786 Y-9
G1 F2400 X66.212 Y-9 E3582.16889
G0 F18000 X66.212 Y-9.5
G1 F2400 X5.786 Y-9.5 E3584.68111
G0 F18000 X5.786 Y-10
G1 F2400 X66.212 Y-10 E3587.19333
G0 F18000 X66.212 Y-10.5
G1 F2400 X5.786 Y-10.5 E3589.70555
G0 F18000 X5.786 Y-11
G1 F2400 X66.212 Y-11 E3592.21777
G0 F18000 X66.212 Y-11.5
G1 F2400 X5.786 Y-11.5 E3594.72999
G0 F18000 X5.786 Y-12
G1 F2400 X66.212 Y-12 E3597.24222
G0 F18000 X66.212 Y-12.5
G1 F2400 X5.786 Y-12.5 E3599.75444
G0 F18000 X5.786 Y-13
G1 F2400 X66.212 Y-13 E3602.26666
G0 F18000 X66.212 Y-13.5
G1 F2400 X5.786 Y-13.5 E3604.77888
G0 F18000 X5.786 Y-14
G1 F2400 X66.212 Y-14 E3607.2911
G0 F18000 X66.212 Y-14.5
G1 F2400 X5.786 Y-14.5 E3609.80332
G0 F18000 X5.786 Y-15
G1 F2400 X66.212 Y-15 E3612.31554
G0 F18000 X66.212 Y-15.5
G1 F2400 X5.786 Y-15.5 E3614.82776
G0 F18000 X5.786 Y-16
G1 F2400 X66.212 Y-16 E3617.33998
G0 F18000 X66.212 Y-16.5
G1 F2400 X5.786 Y-16.5 E3619.85221
G0 F18000 X5.786 Y-17
G1 F2400 X66.212 Y-17 E3622.36443
G0 F18000 X66.212 Y-17.5
G1 F2400 X5.786 Y-17.5 E3624.87665
G0 F18000 X5.786 Y-18
G1 F2400 X66.212 Y-18 E3627.38887
G0 F18000 X66.212 Y-18.5
G1 F2400 X5.786 Y-18.5 E3629.90109
G0 F18000 X5.786 Y-19
G1 F2400 X66.212 Y-19 E3632.41331
G0 F18000 X66.212 Y-19.5
G1 F2400 X5.786 Y-19.5 E3634.92553
G0 F18000 X5.786 Y-20
G1 F2400 X66.212 Y-20 E3637.43775
G0 F18000 X66.212 Y-20.5
G1 F2400 X5.786 Y-20.5 E3639.94998
G0 F18000 X5.786 Y-21
G1 F2400 X66.212 Y-21 E3642.4622
G0 F18000 X66.212 Y-21.5
G1 F2400 X5.786 Y-21.5 E3644.97442
G0 F18000 X5.786 Y-22
G1 F2400 X66.212 Y-22 E3647.48664
G0 F18000 X66.212 Y-22.5
G1 F2400 X5.786 Y-22.5 E3649.99886
G0 F18000 X5.786 Y-23
G1 F2400 X66.212 Y-23 E3652.51108
G0 F18000 X66.212 Y-23.5
G1 F2400 X5.786 Y-23.5 E3655.0233
G0 F18000 X5.786 Y-24
G1 F2400 X66.212 Y-24 E3657.53552
G0 F18000 X66.212 Y-24.5
G1 F2400 X5.786 Y-24.5 E3660.04774
G0 F18000 X5.786 Y-25
G1 F2400 X66.212 Y-25 E3662.55997
G0 F18000 X66.212 Y-25.5
G1 F2400 X5.786 Y-25.5 E3665.07219
G0 F18000 X5.786 Y-26
G1 F2400 X66.212 Y-26 E3667.58441
G0 F18000 X66.212 Y-26.5
G1 F2400 X5.786 Y-26.5 E3670.09663
G0 F18000 X5.786 Y-27
G1 F2400 X66.212 Y-27 E3672.60885
G0 F18000 X66.212 Y-27.5
G1 F2400 X5.786 Y-27.5 E3675.12107
G0 F18000 X5.786 Y-28
G1 F2400 X66.212 Y-28 E3677.63329
G0 F18000 X66.212 Y-28.5
G1 F2400 X5.786 Y-28.5 E3680.14551
G0 F18000 X5.786 Y-29
G1 F2400 X66.212 Y-29 E3682.65773
G0 F18000 X66.212 Y-29.5
G1 F2400 X5.786 Y-29.5 E3685.16996
G0 F18000 X5.786 Y-30
G1 F2400 X66.212 Y-30 E3687.68218
G0 F18000 X66.212 Y-30.5
G1 F2400 X5.786 Y-30.5 E3690.1944
G0 F18000 X5.786 Y-31
G1 F2400 X66.212 Y-31 E3692.70662
G0 F18000 X66.212 Y-31.5
G1 F2400 X5.786 Y-31.5 E3695.21884
G0 F18000 X5.786 Y-32
G1 F2400 X66.212 Y-32 E3697.73106
G0 F18000 X66.212 Y-32.5
G1 F2400 X5.786 Y-32.5 E3700.24328
G0 F18000 X5.786 Y-33
G1 F2400 X66.212 Y-33 E3702.7555
G0 F18000 X66.212 Y-33.5
G1 F2400 X5.786 Y-33.5 E3705.26773
G0 F18000 X5.786 Y-34
G1 F2400 X66.212 Y-34 E3707.77995
G0 F18000 X66.212 Y-34.5
G1 F2400 X5.786 Y-34.5 E3710.29217
G1 F6600 E3703.49217
G1 Z1.4
G0 F18000 X-67.249 Y35.75
G0 X-66.749 Y35.25
; TYPE:WALL-INNER
G1 Z1.1
G1 F6600 E3710.39217
G1 F2400 X-66.749 Y35.25 E3710.39217
G1 X-66.749 Y-35.249 E3713.32318
G1 X-5.249 Y-35.249 E3715.88005
G1 X-5.249 Y35.25 E3718.81106
G1 X-66.749 Y35.25 E3721.36793
G0 F18000 X-67.249 Y35.75
; TYPE:WALL-OUTER
G1 F2100 X-67.249 Y35.75 E3721.36793
G1 X-67.249 Y-35.749 E3724.34051
G1 X-4.749 Y-35.749 E3726.93896
G1 X-4.749 Y35.75 E3729.91154
G1 X-67.249 Y35.75 E3732.50999
G0 F18000 X-66.989 Y35.4
G0 X-66.309 Y34.5
G0 X-66.309 Y34.5
; TYPE:FILL
G1 F2400 X-5.688 Y34.5 E3735.03032
G0 F18000 X-5.688 Y34
G1 F2400 X-66.309 Y34 E3737.55065
G0 F18000 X-66.309 Y33.5
G1 F2400 X-5.688 Y33.5 E3740.07098
G0 F18000 X-5.688 Y33
G1 F2400 X-66.309 Y33 E3742.5913
G0 F18000 X-66.309 Y32.5
G1 F2400 X-5.688 Y32.5 E3745.11163
G0 F18000 X-5.688 Y32
G1 F2400 X-66.309 Y32 E3747.63196
G0 F18000 X-66.309 Y31.5
G1 F2400 X-5.688 Y31.5 E3750.15229
G0 F18000 X-5.688 Y31
G1 F2400 X-66.309 Y31 E3752.67262
G0 F18000 X-66.309 Y30.5
G1 F2400 X-5.688 Y30.5 E3755.19295
G0 F18000 X-5.688 Y30
G1 F2400 X-66.309 Y30 E3757.71327
G0 F18000 X-66.309 Y29.5
G1 F2400 X-5.688 Y29.5 E3760.2336
G0 F18000 X-5.688 Y29
G1 F2400 X-66.309 Y29 E3762.75393
G0 F18000 X-66.309 Y28.5
G1 F2400 X-5.688 Y28.5 E3765.27426
G0 F18000 X-5.688 Y28
G1 F2400 X-66.309 Y28 E3767.79459
G0 F18000 X-66.309 Y27.5
G1 F2400 X-5.688 Y27.5 E3770.31492
G0 F18000 X-5.688 Y27
G1 F2400 X-66.309 Y27 E3772.83524
G0 F18000 X-66.309 Y26.5
G1 F2400 X-5.688 Y26.5 E3775.35557
G0 F18000 X-5.688 Y26
G1 F2400 X-66.309 Y26 E3777.8759
G0 F18000 X-66.309 Y25.5
G1 F2400 X-5.688 Y25.5 E3780.39623
G0 F18000 X-5.688 Y25
G1 F2400 X-66.309 Y25 E3782.91656
G0 F18000 X-66.309 Y24.5
G1 F2400 X-5.688 Y24.5 E3785.43689
G0 F18000 X-5.688 Y24
G1 F2400 X-66.309 Y24 E3787.95721
G0 F18000 X-66.309 Y23.5
G1 F2400 X-5.688 Y23.5 E3790.47754
G0 F18000 X-5.688 Y23
G1 F2400 X-66.309 Y23 E3792.99787
G0 F18000 X-66.309 Y22.5
G1 F2400 X-5.688 Y22.5 E3795.5182
G0 F18000 X-5.688 Y22
G1 F2400 X-66.309 Y22 E3798.03853
G0 F18000 X-66.309 Y21.5
G1 F2400 X-5.688 Y21.5 E3800.55886
G0 F18000 X-5.688 Y21
G1 F2400 X-66.309 Y21 E3803.07918
G0 F18000 X-66.309 Y20.5
G1 F2400 X-5.688 Y20.5 E3805.59951
G0 F18000 X-5.688 Y20
G1 F2400 X-66.309 Y20 E3808.11984
G0 F18000 X-66.309 Y19.5
G1 F2400 X-5.688 Y19.5 E3810.64017
G0 F18000 X-5.688 Y19
G1 F2400 X-66.309 Y19 E3813.1605
G0 F18000 X-66.309 Y18.5
G1 F2400 X-5.688 Y18.5 E3815.68083
G0 F18000 X-5.688 Y18
G1 F2400 X-66.309 Y18 E3818.20115
G0 F18000 X-66.309 Y17.5
G1 F2400 X-5.688 Y17.5 E3820.72148
G0 F18000 X-5.688 Y17
G1 F2400 X-66.309 Y17 E3823.24181
G0 F18000 X-66.309 Y16.5
G1 F2400 X-5.688 Y16.5 E3825.76214
G0 F18000 X-5.688 Y16
G1 F2400 X-66.309 Y16 E3828.28247
G0 F18000 X-66.309 Y15.5
G1 F2400 X-5.688 Y15.5 E3830.80279
G0 F18000 X-5.688 Y15
G1 F2400 X-66.309 Y15 E3833.32312
G0 F18000 X-66.309 Y14.5
G1 F2400 X-5.688 Y14.5 E3835.84345
G0 F18000 X-5.688 Y14
G1 F2400 X-66.309 Y14 E3838.36378
G0 F18000 X-66.309 Y13.5
G1 F2400 X-5.688 Y13.5 E3840.88411
G0 F18000 X-5.688 Y13
G1 F2400 X-66.309 Y13 E3843.40444
G0 F18000 X-66.309 Y12.5
G1 F2400 X-5.688 Y12.5 E3845.92476
G0 F18000 X-5.688 Y12
G1 F2400 X-66.309 Y12 E3848.44509
G0 F18000 X-66.309 Y11.5
G1 F2400 X-5.688 Y11.5 E3850.96542
G0 F18000 X-5.688 Y11
G1 F2400 X-66.309 Y11 E3853.48575
G0 F18000 X-66.309 Y10.5
G1 F2400 X-5.688 Y10.5 E3856.00608
G0 F18000 X-5.688 Y10
G1 F2400 X-66.309 Y10 E3858.52641
G0 F18000 X-66.309 Y9.5
G1 F2400 X-5.688 Y9.5 E3861.04673
G0 F18000 X-5.688 Y9
G1 F2400 X-66.309 Y9 E3863.56706
G0 F18000 X-66.309 Y8.5
G1 F2400 X-5.688 Y8.5 E3866.08739
G0 F18000 X-5.688 Y8
G1 F2400 X-66.309 Y8 E3868.60772
G0 F18000 X-66.309 Y7.5
G1 F2400 X-5.688 Y7.5 E3871.12805
G0 F18000 X-5.689 Y7
G1 F2400 X-66.309 Y7 E3873.64833
G0 F18000 X-66.309 Y6.5
G1 F2400 X-5.689 Y6.5 E3876.16862
G0 F18000 X-5.689 Y6
G1 F2400 X-66.309 Y6 E3878.68891
G0 F18000 X-66.309 Y5.5
G1 F2400 X-5.689 Y5.5 E3881.20919
G0 F18000 X-5.689 Y5
G1 F2400 X-66.309 Y5 E3883.72948
G0 F18000 X-66.309 Y4.5
G1 F2400 X-5.689 Y4.5 E3886.24977
G0 F18000 X-5.689 Y4
G1 F2400 X-66.309 Y4 E3888.77006
G0 F18000 X-66.309 Y3.5
G1 F2400 X-5.689 Y3.5 E3891.29034
G0 F18000 X-5.689 Y3
G1 F2400 X-66.309 Y3 E3893.81063
G0 F18000 X-66.309 Y2.5
G1 F2400 X-5.689 Y2.5 E3896.33092
G0 F18000 X-5.689 Y2
G1 F2400 X-66.309 Y2 E3898.8512
G0 F18000 X-66.309 Y1.5
G1 F2400 X-5.689 Y1.5 E3901.37149
G0 F18000 X-5.689 Y1
G1 F2400 X-66.309 Y1 E3903.89178
G0 F18000 X-66.309 Y0.5
G1 F2400 X-5.689 Y0.5 E3906.41206
G0 F18000 X-5.688 Y0
G1 F2400 X-66.309 Y0 E3908.93239
G0 F18000 X-66.309 Y-0.499
G1 F2400 X-5.688 Y-0.499 E3911.45272
G0 F18000 X-5.688 Y-0.999
G1 F2400 X-66.309 Y-0.999 E3913.97305
G0 F18000 X-66.309 Y-1.499
G1 F2400 X-5.688 Y-1.499 E3916.49338
G0 F18000 X-5.688 Y-1.999
G1 F2400 X-66.309 Y-1.999 E3919.0137
G0 F18000 X-66.309 Y-2.499
G1 F2400 X-5.688 Y-2.499 E3921.53403
G0 F18000 X-5.688 Y-2.999
G1 F2400 X-66.309 Y-2.999 E3924.05436
G0 F18000 X-66.309 Y-3.499
G1 F2400 X-5.688 Y-3.499 E3926.57469
G0 F18000 X-5.688 Y-3.999
G1 F2400 X-66.309 Y-3.999 E3929.09502
G0 F18000 X-66.309 Y-4.499
G1 F2400 X-5.688 Y-4.5 E3931.61535
G0 F18000 X-5.688 Y-5
G1 F2400 X-66.309 Y-4.999 E3934.13567
G0 F18000 X-66.309 Y-5.499
G1 F2400 X-5.688 Y-5.5 E3936.656
G0 F18000 X-5.688 Y-6
G1 F2400 X-66.309 Y-5.999 E3939.17633
G0 F18000 X-66.309 Y-6.499
G1 F2400 X-5.688 Y-6.5 E3941.69666
G0 F18000 X-5.688 Y-7
G1 F2400 X-66.309 Y-6.999 E3944.21699
G0 F18000 X-66.309 Y-7.499
G1 F2400 X-5.688 Y-7.5 E3946.73732
G0 F18000 X-5.688 Y-8
G1 F2400 X-66.309 Y-7.999 E3949.25764
G0 F18000 X-66.309 Y-8.499
G1 F2400 X-5.688 Y-8.5 E3951.77797
G0 F18000 X-5.688 Y-9
G1 F2400 X-66.309 Y-8.999 E3954.2983
G0 F18000 X-66.309 Y-9.499
G1 F2400 X-5.688 Y-9.5 E3956.81863
G0 F18000 X-5.688 Y-10
G1 F2400 X-66.309 Y-9.999 E3959.33896
G0 F18000 X-66.309 Y-10.499
G1 F2400 X-5.688 Y-10.5 E3961.85928
G0 F18000 X-5.688 Y-11
G1 F2400 X-66.309 Y-10.999 E3964.37961
G0 F18000 X-66.309 Y-11.499
G1 F2400 X-5.688 Y-11.5 E3966.89994
G0 F18000 X-5.688 Y-12
G1 F2400 X-66.309 Y-11.999 E3969.42027
G0 F18000 X-66.309 Y-12.499
G1 F2400 X-5.688 Y-12.5 E3971.9406
G0 F18000 X-5.688 Y-13
G1 F2400 X-66.309 Y-12.999 E3974.46093
G0 F18000 X-66.309 Y-13.499
G1 F2400 X-5.688 Y-13.5 E3976.98125
G0 F18000 X-5.688 Y-14
G1 F2400 X-66.309 Y-13.999 E3979.50158
G0 F18000 X-66.309 Y-14.499
G1 F2400 X-5.688 Y-14.5 E3982.02191
G0 F18000 X-5.688 Y-15
G1 F2400 X-66.309 Y-14.999 E3984.54224
G0 F18000 X-66.309 Y-15.499
G1 F2400 X-5.688 Y-15.5 E3987.06257
G0 F18000 X-5.688 Y-16
G1 F2400 X-66.309 Y-15.999 E3989.5829
G0 F18000 X-66.309 Y-16.499
G1 F2400 X-5.688 Y-16.5 E3992.10322
G0 F18000 X-5.688 Y-17
G1 F2400 X-66.309 Y-16.999 E3994.62355
G0 F18000 X-66.309 Y-17.499
G1 F2400 X-5.688 Y-17.5 E3997.14388
G0 F18000 X-5.688 Y-18
G1 F2400 X-66.309 Y-17.999 E3999.66421
G0 F18000 X-66.309 Y-18.499
G1 F2400 X-5.688 Y-18.5 E4002.18454
G0 F18000 X-5.688 Y-19
G1 F2400 X-66.309 Y-18.999 E4004.70487
G0 F18000 X-66.309 Y-19.499
G1 F2400 X-5.688 Y-19.5 E4007.22519
G0 F18000 X-5.688 Y-20
G1 F2400 X-66.309 Y-19.999 E4009.74552
G0 F18000 X-66.309 Y-20.499
G1 F2400 X-5.688 Y-20.5 E4012.26585
G0 F18000 X-5.688 Y-21
G1 F2400 X-66.309 Y-20.999 E4014.78618
G0 F18000 X-66.309 Y-21.499
G1 F2400 X-5.688 Y-21.5 E4017.30651
