; Generated with MatterSlice 1.0
; filamentDiameter = 1.75
; extrusionWidth = 0.5
; firstLayerExtrusionWidth = 0.4
; layerThickness = 0.2
; firstLayerThickness = 0.3
; automatic settings before start_gcode
G21 ; set units to millimeters
M107 ; fan off
T0 ; set the active extruder to 0
; settings from start_gcode
M104 S210
M190 S50
M109 S210
G28
; automatic settings after start_gcode
T0 ; set the active extruder to 0
G90 ; use absolute coordinates
G92 E0 ; reset the expected extruder position
M82 ; use absolute distance for extrusion
; Layer count: 210
; Layer Change GCode
; LAYER:0
G4 P0
M107
G0 F18000 X50.728 Y-38.194 Z0.6
; TYPE:SKIRT
G1 Z0.3
G1 F6600 E0
G1 F720 X52.11 Y-36.906 E0.09425
G1 X52.62 Y-35.416 E0.17282
G1 X54.345 Y-26.129 E0.64408
G1 X54.311 Y26.126 E3.25109
G1 X52.622 Y35.411 E3.72192
G1 X52.11 Y36.907 E3.80081
G1 X50.728 Y38.195 E3.89506
G1 X49.063 Y38.729 E3.98229
G1 X-49.062 Y38.729 E8.87777
G1 X-50.734 Y38.193 E8.96537
G1 X-52.107 Y36.903 E9.05936
G1 X-52.728 Y35.104 E9.1543
G1 X-52.728 Y-35.103 E12.65695
G1 X-52.107 Y-36.902 E12.7519
G1 X-50.734 Y-38.192 E12.84589
G1 X-49.062 Y-38.728 E12.93348
G1 X49.063 Y-38.728 E17.82896
G1 X50.728 Y-38.194 E17.91619
G0 F18000 X50.521 Y-37.841
G1 F720 X51.764 Y-36.681 E18.00102
G1 X52.232 Y-35.314 E18.0731
G1 X53.945 Y-26.093 E18.54101
G1 X53.911 Y26.09 E21.14443
G1 X52.234 Y35.31 E21.61197
G1 X51.764 Y36.682 E21.68432
G1 X50.521 Y37.842 E21.76914
G1 X49 Y38.329 E21.84882
G1 X-48.999 Y38.329 E26.73801
G1 X-50.526 Y37.84 E26.81801
G1 X-51.761 Y36.679 E26.90257
G1 X-52.328 Y35.037 E26.98924
G1 X-52.328 Y-35.036 E30.48519
G1 X-51.761 Y-36.678 E30.57186
G1 X-50.526 Y-37.839 E30.65643
G1 X-48.999 Y-38.328 E30.73642
G1 X49 Y-38.328 E35.62561
G1 X50.521 Y-37.841 E35.70529
G1 F6600 E28.90529
G1 Z0.6
G0 F18000 X-48.469 Y34.929
; TYPE:WALL-OUTER
G1 Z0.3
G1 F6600 E35.80529
G1 F720 X-48.469 Y34.929 E35.80529
G1 X-48.756 Y34.837 E35.82032
G1 X-48.821 Y34.775 E35.8248
G1 X-48.928 Y34.467 E35.84107
G1 X-48.928 Y-34.466 E39.28015
G1 X-48.821 Y-34.774 E39.29642
G1 X-48.756 Y-34.836 E39.3009
G1 X-48.469 Y-34.928 E39.31594
G1 X48.47 Y-34.928 E44.15224
G1 X48.759 Y-34.836 E44.16737
G1 X48.823 Y-34.776 E44.17175
G1 X48.929 Y-34.466 E44.1881
G1 X48.929 Y34.467 E47.62718
G1 X48.823 Y34.777 E47.64352
G1 X48.759 Y34.837 E47.6479
G1 X48.47 Y34.929 E47.66303
G1 X-48.469 Y34.929 E52.49934
G0 F18000 X-48.407 Y34.529
; TYPE:WALL-INNER
G1 F720 X-48.407 Y34.529 E52.49934
G1 X-48.493 Y34.501 E52.50385
G1 X-48.528 Y34.4 E52.50918
G1 X-48.528 Y-34.399 E55.94158
G1 X-48.493 Y-34.5 E55.94691
G1 X-48.406 Y-34.528 E55.95147
G1 X48.407 Y-34.528 E60.78149
G1 X48.494 Y-34.5 E60.78605
G1 X48.529 Y-34.397 E60.79148
G1 X48.529 Y34.398 E64.22367
G1 X48.494 Y34.501 E64.2291
G1 X48.408 Y34.529 E64.23361
G1 X-48.407 Y34.529 E69.06373
G0 F18000 X-48.188 Y34
; TYPE:BOTTOM-FILL
G1 F720 X48.189 Y34 E73.872
G0 F18000 X48.189 Y33.6
G1 F720 X-48.188 Y33.6 E78.68027
G0 F18000 X-48.188 Y33.2
G1 F720 X48.189 Y33.2 E83.48854
G0 F18000 X48.189 Y32.8
G1 F720 X-48.188 Y32.8 E88.29681
G0 F18000 X-48.188 Y32.4
G1 F720 X48.189 Y32.399 E93.10507
G0 F18000 X48.189 Y31.999
G1 F720 X-48.188 Y32 E97.91334
G0 F18000 X-48.188 Y31.6
G1 F720 X48.189 Y31.599 E102.72161
G0 F18000 X48.189 Y31.199
G1 F720 X-48.188 Y31.2 E107.52988
G0 F18000 X-48.188 Y30.8
G1 F720 X48.189 Y30.799 E112.33815
G0 F18000 X48.189 Y30.399
G1 F720 X-48.188 Y30.4 E117.14641
G0 F18000 X-48.188 Y30
G1 F720 X48.189 Y29.999 E121.95468
G0 F18000 X48.189 Y29.599
G1 F720 X-48.188 Y29.6 E126.76295
G0 F18000 X-48.188 Y29.2
G1 F720 X48.189 Y29.199 E131.57122
G0 F18000 X48.189 Y28.799
G1 F720 X-48.188 Y28.8 E136.37949
G0 F18000 X-48.188 Y28.4
G1 F720 X48.189 Y28.399 E141.18776
G0 F18000 X48.189 Y27.999
G1 F720 X-48.188 Y28 E145.99602
G0 F18000 X-48.188 Y27.6
G1 F720 X48.189 Y27.599 E150.80429
G0 F18000 X48.189 Y27.199
G1 F720 X-48.188 Y27.2 E155.61256
G0 F18000 X-48.188 Y26.8
G1 F720 X48.189 Y26.799 E160.42083
G0 F18000 X48.189 Y26.399
G1 F720 X-48.188 Y26.4 E165.2291
G0 F18000 X-48.188 Y26
G1 F720 X48.189 Y25.999 E170.03736
G0 F18000 X48.189 Y25.599
G1 F720 X-48.188 Y25.6 E174.84563
G0 F18000 X-48.188 Y25.2
G1 F720 X48.189 Y25.199 E179.6539
G0 F18000 X48.189 Y24.799
G1 F720 X-48.188 Y24.8 E184.46217
G0 F18000 X-48.188 Y24.4
G1 F720 X48.189 Y24.399 E189.27044
G0 F18000 X48.189 Y23.999
G1 F720 X-48.188 Y24 E194.0787
G0 F18000 X-48.188 Y23.6
G1 F720 X48.189 Y23.599 E198.88697
G0 F18000 X48.189 Y23.199
G1 F720 X-48.188 Y23.2 E203.69524
G0 F18000 X-48.188 Y22.8
G1 F720 X48.189 Y22.799 E208.50351
G0 F18000 X48.189 Y22.399
G1 F720 X-48.188 Y22.4 E213.31178
G0 F18000 X-48.188 Y22
G1 F720 X48.189 Y21.999 E218.12004
G0 F18000 X48.189 Y21.599
G1 F720 X-48.188 Y21.6 E222.92831
G0 F18000 X-48.188 Y21.2
G1 F720 X48.189 Y21.199 E227.73658
G0 F18000 X48.189 Y20.799
G1 F720 X-48.188 Y20.8 E232.54485
G0 F18000 X-48.188 Y20.4
G1 F720 X48.189 Y20.399 E237.35312
G0 F18000 X48.189 Y19.999
G1 F720 X-48.188 Y20 E242.16138
G0 F18000 X-48.188 Y19.6
G1 F720 X48.189 Y19.599 E246.96965
G0 F18000 X48.189 Y19.199
G1 F720 X-48.188 Y19.2 E251.77792
G0 F18000 X-48.188 Y18.8
G1 F720 X48.189 Y18.799 E256.58619
G0 F18000 X48.189 Y18.399
G1 F720 X-48.188 Y18.4 E261.39446
G0 F18000 X-48.188 Y18
G1 F720 X48.189 Y17.999 E266.20272
G0 F18000 X48.189 Y17.599
G1 F720 X-48.188 Y17.6 E271.01099
G0 F18000 X-48.188 Y17.2
G1 F720 X48.189 Y17.199 E275.81926
G0 F18000 X48.189 Y16.799
G1 F720 X-48.188 Y16.8 E280.62753
G0 F18000 X-48.188 Y16.4
G1 F720 X48.189 Y16.399 E285.4358
G0 F18000 X48.189 Y15.999
G1 F720 X-48.188 Y16 E290.24406
G0 F18000 X-48.188 Y15.6
G1 F720 X48.189 Y15.599 E295.05233
G0 F18000 X48.189 Y15.199
G1 F720 X-48.188 Y15.2 E299.8606
G0 F18000 X-48.188 Y14.8
G1 F720 X48.189 Y14.799 E304.66887
G0 F18000 X48.189 Y14.399
G1 F720 X-48.188 Y14.4 E309.47714
G0 F18000 X-48.188 Y14
G1 F720 X48.189 Y13.999 E314.28541
G0 F18000 X48.189 Y13.599
G1 F720 X-48.188 Y13.6 E319.09367
G0 F18000 X-48.188 Y13.2
G1 F720 X48.189 Y13.199 E323.90194
G0 F18000 X48.189 Y12.799
G1 F720 X-48.188 Y12.8 E328.71021
G0 F18000 X-48.188 Y12.4
G1 F720 X48.189 Y12.399 E333.51848
G0 F18000 X48.189 Y11.999
G1 F720 X-48.188 Y12 E338.32675
G0 F18000 X-48.188 Y11.6
G1 F720 X48.189 Y11.599 E343.13501
G0 F18000 X48.189 Y11.199
G1 F720 X-48.188 Y11.2 E347.94328
G0 F18000 X-48.188 Y10.8
G1 F720 X48.189 Y10.799 E352.75155
G0 F18000 X48.189 Y10.399
G1 F720 X-48.188 Y10.4 E357.55982
G0 F18000 X-48.188 Y10
G1 F720 X48.189 Y9.999 E362.36809
G0 F18000 X48.189 Y9.599
G1 F720 X-48.188 Y9.6 E367.17635
G0 F18000 X-48.188 Y9.2
G1 F720 X48.189 Y9.199 E371.98462
G0 F18000 X48.189 Y8.799
G1 F720 X-48.188 Y8.8 E376.79289
G0 F18000 X-48.188 Y8.4
G1 F720 X48.189 Y8.399 E381.60116
G0 F18000 X48.189 Y7.999
G1 F720 X-48.188 Y8 E386.40943
G0 F18000 X-48.188 Y7.6
G1 F720 X48.189 Y7.599 E391.21769
G0 F18000 X48.189 Y7.199
G1 F720 X-48.188 Y7.2 E396.02596
G0 F18000 X-48.188 Y6.8
G1 F720 X48.189 Y6.799 E400.83423
G0 F18000 X48.189 Y6.399
G1 F720 X-48.188 Y6.4 E405.6425
G0 F18000 X-48.188 Y6
G1 F720 X48.189 Y5.999 E410.45077
G0 F18000 X48.189 Y5.599
G1 F720 X-48.188 Y5.6 E415.25903
G0 F18000 X-48.188 Y5.2
G1 F720 X48.189 Y5.199 E420.0673
G0 F18000 X48.189 Y4.799
G1 F720 X-48.188 Y4.8 E424.87557
G0 F18000 X-48.188 Y4.4
G1 F720 X48.189 Y4.399 E429.68384
G0 F18000 X48.189 Y3.999
G1 F720 X-48.188 Y4 E434.49211
G0 F18000 X-48.188 Y3.6
G1 F720 X48.189 Y3.599 E439.30037
G0 F18000 X48.189 Y3.199
G1 F720 X-48.188 Y3.2 E444.10864
G0 F18000 X-48.188 Y2.8
G1 F720 X48.189 Y2.799 E448.91691
G0 F18000 X48.189 Y2.399
G1 F720 X-48.188 Y2.4 E453.72518
G0 F18000 X-48.188 Y2
G1 F720 X48.189 Y1.999 E458.53345
G0 F18000 X48.189 Y1.599
G1 F720 X-48.188 Y1.6 E463.34171
G0 F18000 X-48.188 Y1.2
G1 F720 X48.189 Y1.199 E468.14998
G0 F18000 X48.189 Y0.799
G1 F720 X-48.188 Y0.8 E472.95825
G0 F18000 X-48.188 Y0.4
G1 F720 X48.189 Y0.399 E477.76652
G0 F18000 X48.189 Y0
G1 F720 X-48.188 Y0 E482.57479
G0 F18000 X-48.188 Y-0.399
G1 F720 X48.189 Y-0.4 E487.38305
G0 F18000 X48.189 Y-0.8
G1 F720 X-48.188 Y-0.799 E492.19132
G0 F18000 X-48.188 Y-1.199
G1 F720 X48.189 Y-1.2 E496.99959
G0 F18000 X48.189 Y-1.6
G1 F720 X-48.188 Y-1.599 E501.80786
G0 F18000 X-48.188 Y-1.999
G1 F720 X48.189 Y-2 E506.61613
G0 F18000 X48.189 Y-2.4
G1 F720 X-48.188 Y-2.399 E511.4244
G0 F18000 X-48.188 Y-2.799
G1 F720 X48.189 Y-2.8 E516.23266
G0 F18000 X48.189 Y-3.2
G1 F720 X-48.188 Y-3.199 E521.04093
G0 F18000 X-48.188 Y-3.599
G1 F720 X48.189 Y-3.6 E525.8492
G0 F18000 X48.189 Y-4
G1 F720 X-48.188 Y-3.999 E530.65747
G0 F18000 X-48.188 Y-4.399
G1 F720 X48.189 Y-4.4 E535.46574
G0 F18000 X48.189 Y-4.8
G1 F720 X-48.188 Y-4.799 E540.274
G0 F18000 X-48.188 Y-5.199
G1 F720 X48.189 Y-5.2 E545.08227
G0 F18000 X48.189 Y-5.6
G1 F720 X-48.188 Y-5.599 E549.89054
G0 F18000 X-48.188 Y-5.999
G1 F720 X48.189 Y-6 E554.69881
G0 F18000 X48.189 Y-6.4
G1 F720 X-48.188 Y-6.399 E559.50708
G0 F18000 X-48.188 Y-6.799
G1 F720 X48.189 Y-6.8 E564.31534
G0 F18000 X48.189 Y-7.2
G1 F720 X-48.188 Y-7.199 E569.12361
G0 F18000 X-48.188 Y-7.599
G1 F720 X48.189 Y-7.6 E573.93188
G0 F18000 X48.189 Y-8
G1 F720 X-48.188 Y-7.999 E578.74015
G0 F18000 X-48.188 Y-8.399
G1 F720 X48.189 Y-8.4 E583.54842
G0 F18000 X48.189 Y-8.8
G1 F720 X-48.188 Y-8.799 E588.35668
G0 F18000 X-48.188 Y-9.199
G1 F720 X48.189 Y-9.2 E593.16495
G0 F18000 X48.189 Y-9.6
G1 F720 X-48.188 Y-9.599 E597.97322
G0 F18000 X-48.188 Y-9.999
G1 F720 X48.189 Y-10 E602.78149
G0 F18000 X48.189 Y-10.4
G1 F720 X-48.188 Y-10.399 E607.58976
G0 F18000 X-48.188 Y-10.799
G1 F720 X48.189 Y-10.8 E612.39802
G0 F18000 X48.189 Y-11.2
G1 F720 X-48.188 Y-11.199 E617.20629
G0 F18000 X-48.188 Y-11.599
G1 F720 X48.189 Y-11.6 E622.01456
G0 F18000 X48.189 Y-12
G1 F720 X-48.188 Y-11.999 E626.82283
G0 F18000 X-48.188 Y-12.399
G1 F720 X48.189 Y-12.4 E631.6311
G0 F18000 X48.189 Y-12.8
G1 F720 X-48.188 Y-12.799 E636.43936
G0 F18000 X-48.188 Y-13.199
G1 F720 X48.189 Y-13.2 E641.24763
G0 F18000 X48.189 Y-13.6
G1 F720 X-48.188 Y-13.599 E646.0559
G0 F18000 X-48.188 Y-13.999
G1 F720 X48.189 Y-14 E650.86417
G0 F18000 X48.189 Y-14.4
G1 F720 X-48.188 Y-14.399 E655.67244
G0 F18000 X-48.188 Y-14.799
G1 F720 X48.189 Y-14.8 E660.4807
G0 F18000 X48.189 Y-15.2
G1 F720 X-48.188 Y-15.199 E665.28897
G0 F18000 X-48.188 Y-15.599
G1 F720 X48.189 Y-15.6 E670.09724
G0 F18000 X48.189 Y-16
G1 F720 X-48.188 Y-15.999 E674.90551
G0 F18000 X-48.188 Y-16.399
G1 F720 X48.189 Y-16.4 E679.71378
G0 F18000 X48.189 Y-16.8
G1 F720 X-48.188 Y-16.799 E684.52205
G0 F18000 X-48.188 Y-17.199
G1 F720 X48.189 Y-17.2 E689.33031
G0 F18000 X48.189 Y-17.6
G1 F720 X-48.188 Y-17.599 E694.13858
G0 F18000 X-48.188 Y-17.999
G1 F720 X48.189 Y-18 E698.94685
G0 F18000 X48.189 Y-18.4
G1 F720 X-48.188 Y-18.399 E703.75512
G0 F18000 X-48.188 Y-18.799
G1 F720 X48.189 Y-18.8 E708.56339
G0 F18000 X48.189 Y-19.2
G1 F720 X-48.188 Y-19.199 E713.37165
G0 F18000 X-48.188 Y-19.599
G1 F720 X48.189 Y-19.6 E718.17992
G0 F18000 X48.189 Y-20
G1 F720 X-48.188 Y-19.999 E722.98819
G0 F18000 X-48.188 Y-20.399
G1 F720 X48.189 Y-20.4 E727.79646
G0 F18000 X48.189 Y-20.8
G1 F720 X-48.188 Y-20.799 E732.60473
G0 F18000 X-48.188 Y-21.199
G1 F720 X48.189 Y-21.2 E737.41299
G0 F18000 X48.189 Y-21.6
G1 F720 X-48.188 Y-21.599 E742.22126
G0 F18000 X-48.188 Y-21.999
G1 F720 X48.189 Y-22 E747.02953
G0 F18000 X48.189 Y-22.4
G1 F720 X-48.188 Y-22.399 E751.8378
G0 F18000 X-48.188 Y-22.799
G1 F720 X48.189 Y-22.8 E756.64607
G0 F18000 X48.189 Y-23.2
G1 F720 X-48.188 Y-23.199 E761.45433
G0 F18000 X-48.188 Y-23.599
G1 F720 X48.189 Y-23.6 E766.2626
G0 F18000 X48.189 Y-24
G1 F720 X-48.188 Y-23.999 E771.07087
G0 F18000 X-48.188 Y-24.399
G1 F720 X48.189 Y-24.4 E775.87914
G0 F18000 X48.189 Y-24.8
G1 F720 X-48.188 Y-24.799 E780.68741
G0 F18000 X-48.188 Y-25.199
G1 F720 X48.189 Y-25.2 E785.49567
G0 F18000 X48.189 Y-25.6
G1 F720 X-48.188 Y-25.599 E790.30394
G0 F18000 X-48.188 Y-25.999
G1 F720 X48.189 Y-26 E795.11221
G0 F18000 X48.189 Y-26.4
G1 F720 X-48.188 Y-26.399 E799.92048
G0 F18000 X-48.188 Y-26.799
G1 F720 X48.189 Y-26.8 E804.72875
G0 F18000 X48.189 Y-27.2
G1 F720 X-48.188 Y-27.199 E809.53701
G0 F18000 X-48.188 Y-27.599
G1 F720 X48.189 Y-27.6 E814.34528
G0 F18000 X48.189 Y-28
G1 F720 X-48.188 Y-27.999 E819.15355
G0 F18000 X-48.188 Y-28.399
G1 F720 X48.189 Y-28.4 E823.96182
G0 F18000 X48.189 Y-28.8
G1 F720 X-48.188 Y-28.799 E828.77009
G0 F18000 X-48.188 Y-29.199
G1 F720 X48.189 Y-29.2 E833.57835
G0 F18000 X48.189 Y-29.6
G1 F720 X-48.188 Y-29.599 E838.38662
G0 F18000 X-48.188 Y-29.999
G1 F720 X48.189 Y-30 E843.19489
G0 F18000 X48.189 Y-30.4
G1 F720 X-48.188 Y-30.399 E848.00316
G0 F18000 X-48.188 Y-30.799
G1 F720 X48.189 Y-30.8 E852.81143
G0 F18000 X48.189 Y-31.2
G1 F720 X-48.188 Y-31.199 E857.6197
G0 F18000 X-48.188 Y-31.599
G1 F720 X48.189 Y-31.6 E862.42796
G0 F18000 X48.189 Y-32
G1 F720 X-48.188 Y-31.999 E867.23623
G0 F18000 X-48.188 Y-32.399
G1 F720 X48.189 Y-32.4 E872.0445
G0 F18000 X48.189 Y-32.8
G1 F720 X-48.188 Y-32.8 E876.85277
G0 F18000 X-48.188 Y-33.2
G1 F720 X48.189 Y-33.2 E881.66104
G0 F18000 X48.189 Y-33.6
G1 F720 X-48.188 Y-33.6 E886.4693
G0 F18000 X-48.188 Y-34
G1 F720 X48.189 Y-34 E891.27757
G1 F6600 E884.47757
G1 Z0.6
G0 F18000 X50.05 Y-25.499
; TYPE:SUPPORT
G1 Z0.3
G1 F6600 E891.37757
G1 F720 X50.445 Y-25.499 E891.40713
G1 X50.411 Y25.5 E895.22366
G1 X50.047 Y25.5 E895.2509
G1 X50.05 Y-25.499 E899.06742
G0 F18000 X50.05 Y-25.499 Z0.6
; Layer Change GCode
; LAYER:1
G1 F6600 E892.26742
G1 Z0.9
G0 F18000 X48.91 Y-25.499 Z0.8
G0 X-48.449 Y34.911
G0 X-48.449 Y34.911
G0 X-48.481 Y35.26
G0 X-48.481 Y35.26
G0 X-48.438 Y34.76
; TYPE:WALL-INNER
G1 Z0.5
G1 F6600 E899.16742
G1 F2400 X-48.438 Y34.76 E899.16742
G1 X-48.549 Y34.741 E899.17211
G1 X-48.647 Y34.69 E899.1767
G1 X-48.724 Y34.581 E899.18225
G1 X-48.758 Y34.422 E899.18901
G1 X-48.758 Y-34.421 E902.05117
G1 X-48.724 Y-34.58 E902.05793
G1 X-48.648 Y-34.688 E902.06342
G1 X-48.549 Y-34.739 E902.06805
G1 X-48.438 Y-34.758 E902.07273
G1 X48.44 Y-34.758 E906.10045
G1 X48.551 Y-34.739 E906.10513
G1 X48.65 Y-34.688 E906.10976
G1 X48.726 Y-34.58 E906.11525
G1 X48.76 Y-34.421 E906.12201
G1 X48.76 Y34.422 E908.98417
G1 X48.726 Y34.58 E908.99089
G1 X48.649 Y34.69 E908.99647
G1 X48.551 Y34.741 E909.00106
G1 X48.44 Y34.76 E909.00575
G1 X-48.438 Y34.76 E913.03347
G0 F18000 X-48.481 Y35.26
; TYPE:WALL-OUTER
G1 F2100 X-48.481 Y35.26 E913.03347
G1 X-48.709 Y35.221 E913.04308
G1 X-48.987 Y35.076 E913.05612
G1 X-49.192 Y34.785 E913.07092
G1 X-49.258 Y34.476 E913.08405
G1 X-49.258 Y-34.475 E915.9507
G1 X-49.192 Y-34.784 E915.96384
G1 X-48.986 Y-35.076 E915.9787
G1 X-48.711 Y-35.219 E915.99158
G1 X-48.481 Y-35.258 E916.00128
G1 X48.482 Y-35.258 E920.03253
G1 X48.713 Y-35.219 E920.04227
G1 X48.988 Y-35.076 E920.05516
G1 X49.194 Y-34.784 E920.07002
G1 X49.26 Y-34.475 E920.08315
G1 X49.26 Y34.476 E922.9498
G1 X49.194 Y34.783 E922.96286
G1 X48.987 Y35.079 E922.97788
G1 X48.713 Y35.221 E922.99071
G1 X48.482 Y35.26 E923.00045
G1 X-48.481 Y35.26 E927.0317
G0 F18000 X-47.999 Y34.319
; TYPE:FILL
G1 F2400 X-48 Y-34.317 E929.88525
G0 F18000 X-47.5 Y-34.317
G1 F2400 X-47.499 Y34.319 E932.73881
G0 F18000 X-46.999 Y34.319
G1 F2400 X-47 Y-34.317 E935.59236
G0 F18000 X-46.5 Y-34.317
G1 F2400 X-46.499 Y34.319 E938.44591
G0 F18000 X-45.999 Y34.319
G1 F2400 X-46 Y-34.317 E941.29947
G0 F18000 X-45.5 Y-34.317
G1 F2400 X-45.499 Y34.319 E944.15302
G0 F18000 X-44.999 Y34.319
G1 F2400 X-45 Y-34.317 E947.00657
G0 F18000 X-44.5 Y-34.317
G1 F2400 X-44.499 Y34.319 E949.86013
G0 F18000 X-43.999 Y34.319
G1 F2400 X-44 Y-34.317 E952.71368
G0 F18000 X-43.5 Y-34.317
G1 F2400 X-43.499 Y34.319 E955.56723
G0 F18000 X-42.999 Y34.319
G1 F2400 X-43 Y-34.317 E958.42079
G0 F18000 X-42.5 Y-34.317
G1 F2400 X-42.499 Y34.319 E961.27434
G0 F18000 X-41.999 Y34.319
G1 F2400 X-42 Y-34.317 E964.12789
G0 F18000 X-41.5 Y-34.317
G1 F2400 X-41.499 Y34.319 E966.98145
G0 F18000 X-40.999 Y34.319
G1 F2400 X-41 Y-34.317 E969.835
G0 F18000 X-40.5 Y-34.317
G1 F2400 X-40.499 Y34.319 E972.68855
G0 F18000 X-39.999 Y34.319
G1 F2400 X-40 Y-34.317 E975.54211
G0 F18000 X-39.5 Y-34.317
G1 F2400 X-39.499 Y34.319 E978.39566
G0 F18000 X-38.999 Y34.319
G1 F2400 X-39 Y-34.317 E981.24921
G0 F18000 X-38.5 Y-34.317
G1 F2400 X-38.499 Y34.319 E984.10277
G0 F18000 X-37.999 Y34.319
G1 F2400 X-38 Y-34.317 E986.95632
G0 F18000 X-37.5 Y-34.317
G1 F2400 X-37.499 Y34.319 E989.80987
G0 F18000 X-36.999 Y34.319
G1 F2400 X-37 Y-34.317 E992.66342
G0 F18000 X-36.5 Y-34.317
G1 F2400 X-36.499 Y34.319 E995.51698
G0 F18000 X-35.999 Y34.319
G1 F2400 X-36 Y-34.317 E998.37053
G0 F18000 X-35.5 Y-34.317
G1 F2400 X-35.499 Y34.319 E1001.22408
G0 F18000 X-34.999 Y34.319
G1 F2400 X-35 Y-34.317 E1004.07764
G0 F18000 X-34.5 Y-34.317
G1 F2400 X-34.499 Y34.319 E1006.93119
G0 F18000 X-33.999 Y34.319
G1 F2400 X-34 Y-34.317 E1009.78474
G0 F18000 X-33.5 Y-34.317
G1 F2400 X-33.499 Y34.319 E1012.6383
G0 F18000 X-32.999 Y34.319
G1 F2400 X-33 Y-34.317 E1015.49185
G0 F18000 X-32.5 Y-34.317
G1 F2400 X-32.499 Y34.319 E1018.3454
G0 F18000 X-31.999 Y34.319
G1 F2400 X-32 Y-34.317 E1021.19896
G0 F18000 X-31.5 Y-34.317
G1 F2400 X-31.499 Y34.319 E1024.05251
G0 F18000 X-30.999 Y34.319
G1 F2400 X-31 Y-34.317 E1026.90606
G0 F18000 X-30.5 Y-34.317
G1 F2400 X-30.499 Y34.319 E1029.75962
G0 F18000 X-29.999 Y34.319
G1 F2400 X-30 Y-34.317 E1032.61317
G0 F18000 X-29.5 Y-34.318
G1 F2400 X-29.499 Y34.319 E1035.46677
G0 F18000 X-28.999 Y34.319
G1 F2400 X-29 Y-34.318 E1038.32036
G0 F18000 X-28.5 Y-34.318
G1 F2400 X-28.499 Y34.319 E1041.17396
G0 F18000 X-27.999 Y34.319
G1 F2400 X-28 Y-34.318 E1044.02755
G0 F18000 X-27.5 Y-34.318
G1 F2400 X-27.499 Y34.319 E1046.88115
G0 F18000 X-26.999 Y34.319
G1 F2400 X-27 Y-34.318 E1049.73474
G0 F18000 X-26.5 Y-34.318
G1 F2400 X-26.499 Y34.319 E1052.58833
G0 F18000 X-25.999 Y34.319
G1 F2400 X-26 Y-34.318 E1055.44193
G0 F18000 X-25.5 Y-34.318
G1 F2400 X-25.499 Y34.319 E1058.29552
G0 F18000 X-24.999 Y34.319
G1 F2400 X-25 Y-34.318 E1061.14912
G0 F18000 X-24.5 Y-34.318
G1 F2400 X-24.499 Y34.319 E1064.00271
G0 F18000 X-23.999 Y34.319
G1 F2400 X-24 Y-34.318 E1066.85631
G0 F18000 X-23.5 Y-34.318
G1 F2400 X-23.499 Y34.319 E1069.7099
G0 F18000 X-22.999 Y34.319
G1 F2400 X-23 Y-34.318 E1072.5635
G0 F18000 X-22.5 Y-34.318
G1 F2400 X-22.499 Y34.319 E1075.41709
G0 F18000 X-21.999 Y34.319
G1 F2400 X-22 Y-34.318 E1078.27069
G0 F18000 X-21.5 Y-34.318
G1 F2400 X-21.499 Y34.319 E1081.12428
G0 F18000 X-20.999 Y34.319
G1 F2400 X-21 Y-34.318 E1083.97788
G0 F18000 X-20.5 Y-34.318
G1 F2400 X-20.499 Y34.319 E1086.83147
G0 F18000 X-19.999 Y34.319
G1 F2400 X-20 Y-34.318 E1089.68507
G0 F18000 X-19.5 Y-34.318
G1 F2400 X-19.499 Y34.319 E1092.53866
G0 F18000 X-18.999 Y34.319
G1 F2400 X-19 Y-34.318 E1095.39226
G0 F18000 X-18.5 Y-34.318
G1 F2400 X-18.499 Y34.319 E1098.24585
G0 F18000 X-17.999 Y34.319
G1 F2400 X-18 Y-34.318 E1101.09945
G0 F18000 X-17.5 Y-34.318
G1 F2400 X-17.499 Y34.319 E1103.95304
G0 F18000 X-16.999 Y34.319
G1 F2400 X-17 Y-34.318 E1106.80664
G0 F18000 X-16.5 Y-34.318
G1 F2400 X-16.499 Y34.319 E1109.66023
G0 F18000 X-15.999 Y34.319
G1 F2400 X-16 Y-34.318 E1112.51383
G0 F18000 X-15.5 Y-34.318
G1 F2400 X-15.499 Y34.319 E1115.36742
G0 F18000 X-14.999 Y34.319
G1 F2400 X-15 Y-34.318 E1118.22102
G0 F18000 X-14.5 Y-34.318
G1 F2400 X-14.499 Y34.319 E1121.07461
G0 F18000 X-13.999 Y34.319
G1 F2400 X-14 Y-34.318 E1123.92821
G0 F18000 X-13.5 Y-34.318
G1 F2400 X-13.499 Y34.319 E1126.7818
G0 F18000 X-12.999 Y34.319
G1 F2400 X-13 Y-34.318 E1129.6354
G0 F18000 X-12.5 Y-34.318
G1 F2400 X-12.499 Y34.319 E1132.48899
G0 F18000 X-11.999 Y34.319
G1 F2400 X-12 Y-34.318 E1135.34259
G0 F18000 X-11.5 Y-34.318
G1 F2400 X-11.499 Y34.319 E1138.19618
G0 F18000 X-10.999 Y34.319
G1 F2400 X-11 Y-34.318 E1141.04978
G0 F18000 X-10.5 Y-34.318
G1 F2400 X-10.499 Y34.319 E1143.90337
G0 F18000 X-9.999 Y34.319
G1 F2400 X-10 Y-34.318 E1146.75697
G0 F18000 X-9.5 Y-34.318
G1 F2400 X-9.499 Y34.319 E1149.61056
G0 F18000 X-8.999 Y34.319
G1 F2400 X-9 Y-34.318 E1152.46416
G0 F18000 X-8.5 Y-34.318
G1 F2400 X-8.499 Y34.319 E1155.31775
G0 F18000 X-7.999 Y34.319
G1 F2400 X-8 Y-34.318 E1158.17134
G0 F18000 X-7.5 Y-34.318
G1 F2400 X-7.499 Y34.319 E1161.02494
G0 F18000 X-6.999 Y34.319
G1 F2400 X-7 Y-34.318 E1163.87853
G0 F18000 X-6.5 Y-34.318
G1 F2400 X-6.499 Y34.319 E1166.73213
G0 F18000 X-5.999 Y34.319
G1 F2400 X-6 Y-34.318 E1169.58572
G0 F18000 X-5.5 Y-34.318
G1 F2400 X-5.499 Y34.319 E1172.43932
G0 F18000 X-4.999 Y34.319
G1 F2400 X-5 Y-34.318 E1175.29291
G0 F18000 X-4.5 Y-34.318
G1 F2400 X-4.499 Y34.319 E1178.14651
G0 F18000 X-3.999 Y34.319
G1 F2400 X-4 Y-34.318 E1181.0001
G0 F18000 X-3.5 Y-34.318
G1 F2400 X-3.499 Y34.319 E1183.8537
G0 F18000 X-2.999 Y34.319
G1 F2400 X-3 Y-34.318 E1186.70729
G0 F18000 X-2.5 Y-34.318
G1 F2400 X-2.499 Y34.319 E1189.56089
G0 F18000 X-1.999 Y34.319
G1 F2400 X-2 Y-34.318 E1192.41448
G0 F18000 X-1.5 Y-34.318
G1 F2400 X-1.499 Y34.319 E1195.26808
G0 F18000 X-0.999 Y34.319
G1 F2400 X-1 Y-34.318 E1198.12167
G0 F18000 X-0.5 Y-34.318
G1 F2400 X-0.499 Y34.319 E1200.97527
G0 F18000 X0 Y34.319
G1 F2400 X0 Y-34.318 E1203.82886
G0 F18000 X0.499 Y-34.317
G1 F2400 X0.5 Y34.32 E1206.68246
G0 F18000 X1 Y34.32
G1 F2400 X0.999 Y-34.317 E1209.53605
G0 F18000 X1.499 Y-34.317
G1 F2400 X1.5 Y34.32 E1212.38965
G0 F18000 X2 Y34.32
G1 F2400 X1.999 Y-34.317 E1215.24324
G0 F18000 X2.499 Y-34.317
G1 F2400 X2.5 Y34.32 E1218.09684
G0 F18000 X3 Y34.32
G1 F2400 X2.999 Y-34.317 E1220.95043
G0 F18000 X3.499 Y-34.317
G1 F2400 X3.5 Y34.32 E1223.80403
G0 F18000 X4 Y34.32
G1 F2400 X3.999 Y-34.317 E1226.65762
G0 F18000 X4.499 Y-34.317
G1 F2400 X4.5 Y34.32 E1229.51122
G0 F18000 X5 Y34.32
G1 F2400 X4.999 Y-34.317 E1232.36481
G0 F18000 X5.499 Y-34.317
G1 F2400 X5.5 Y34.32 E1235.21841
G0 F18000 X6 Y34.32
G1 F2400 X5.999 Y-34.317 E1238.072
G0 F18000 X6.499 Y-34.317
G1 F2400 X6.5 Y34.32 E1240.9256
G0 F18000 X7 Y34.32
G1 F2400 X6.999 Y-34.317 E1243.77919
G0 F18000 X7.499 Y-34.317
G1 F2400 X7.5 Y34.32 E1246.63279
G0 F18000 X8 Y34.32
G1 F2400 X7.999 Y-34.317 E1249.48638
G0 F18000 X8.499 Y-34.317
G1 F2400 X8.5 Y34.32 E1252.33998
G0 F18000 X9 Y34.32
G1 F2400 X8.999 Y-34.317 E1255.19357
G0 F18000 X9.499 Y-34.317
G1 F2400 X9.5 Y34.32 E1258.04716
G0 F18000 X10 Y34.32
G1 F2400 X9.999 Y-34.317 E1260.90076
G0 F18000 X10.499 Y-34.317
G1 F2400 X10.5 Y34.32 E1263.75435
G0 F18000 X11 Y34.32
G1 F2400 X10.999 Y-34.317 E1266.60795
G0 F18000 X11.499 Y-34.317
G1 F2400 X11.5 Y34.32 E1269.46154
G0 F18000 X12 Y34.32
G1 F2400 X11.999 Y-34.317 E1272.31514
G0 F18000 X12.499 Y-34.317
G1 F2400 X12.5 Y34.32 E1275.16873
G0 F18000 X13 Y34.32
G1 F2400 X12.999 Y-34.317 E1278.02233
G0 F18000 X13.499 Y-34.317
G1 F2400 X13.5 Y34.32 E1280.87592
G0 F18000 X14 Y34.32
G1 F2400 X13.999 Y-34.317 E1283.72952
G0 F18000 X14.499 Y-34.317
G1 F2400 X14.5 Y34.32 E1286.58311
G0 F18000 X15 Y34.32
G1 F2400 X14.999 Y-34.317 E1289.43671
G0 F18000 X15.499 Y-34.317
G1 F2400 X15.5 Y34.32 E1292.2903
G0 F18000 X16 Y34.32
G1 F2400 X15.999 Y-34.317 E1295.1439
G0 F18000 X16.499 Y-34.317
G1 F2400 X16.5 Y34.32 E1297.99749
G0 F18000 X17 Y34.32
G1 F2400 X16.999 Y-34.317 E1300.85109
G0 F18000 X17.499 Y-34.317
G1 F2400 X17.5 Y34.32 E1303.70468
G0 F18000 X18 Y34.32
G1 F2400 X17.999 Y-34.317 E1306.55828
G0 F18000 X18.499 Y-34.317
G1 F2400 X18.5 Y34.32 E1309.41187
G0 F18000 X19 Y34.32
G1 F2400 X18.999 Y-34.317 E1312.26547
G0 F18000 X19.499 Y-34.317
G1 F2400 X19.5 Y34.32 E1315.11906
G0 F18000 X20 Y34.32
G1 F2400 X19.999 Y-34.317 E1317.97266
G0 F18000 X20.499 Y-34.317
G1 F2400 X20.5 Y34.32 E1320.82625
G0 F18000 X21 Y34.32
G1 F2400 X20.999 Y-34.317 E1323.67985
G0 F18000 X21.499 Y-34.317
G1 F2400 X21.5 Y34.32 E1326.53344
G0 F18000 X22 Y34.32
G1 F2400 X21.999 Y-34.317 E1329.38704
G0 F18000 X22.499 Y-34.317
G1 F2400 X22.5 Y34.32 E1332.24063
G0 F18000 X23 Y34.32
G1 F2400 X22.999 Y-34.317 E1335.09423
G0 F18000 X23.499 Y-34.317
G1 F2400 X23.5 Y34.32 E1337.94782
G0 F18000 X24 Y34.32
G1 F2400 X23.999 Y-34.317 E1340.80142
G0 F18000 X24.499 Y-34.317
G1 F2400 X24.5 Y34.32 E1343.65501
G0 F18000 X25 Y34.32
G1 F2400 X24.999 Y-34.317 E1346.50861
G0 F18000 X25.499 Y-34.317
G1 F2400 X25.5 Y34.32 E1349.3622
G0 F18000 X26 Y34.32
G1 F2400 X25.999 Y-34.317 E1352.2158
G0 F18000 X26.499 Y-34.317
G1 F2400 X26.5 Y34.32 E1355.06939
G0 F18000 X27 Y34.32
G1 F2400 X26.999 Y-34.317 E1357.92299
G0 F18000 X27.499 Y-34.317
G1 F2400 X27.5 Y34.32 E1360.77658
G0 F18000 X28 Y34.32
G1 F2400 X27.999 Y-34.317 E1363.63017
G0 F18000 X28.499 Y-34.317
G1 F2400 X28.5 Y34.32 E1366.48377
G0 F18000 X29 Y34.32
G1 F2400 X28.999 Y-34.317 E1369.33736
G0 F18000 X29.499 Y-34.317
G1 F2400 X29.5 Y34.32 E1372.19096
G0 F18000 X30 Y34.319
G1 F2400 X29.999 Y-34.317 E1375.04451
G0 F18000 X30.499 Y-34.317
G1 F2400 X30.5 Y34.319 E1377.89807
G0 F18000 X31 Y34.319
G1 F2400 X30.999 Y-34.317 E1380.75162
G0 F18000 X31.499 Y-34.317
G1 F2400 X31.5 Y34.319 E1383.60517
G0 F18000 X32 Y34.319
G1 F2400 X31.999 Y-34.317 E1386.45873
G0 F18000 X32.499 Y-34.317
G1 F2400 X32.5 Y34.319 E1389.31228
G0 F18000 X33 Y34.319
G1 F2400 X32.999 Y-34.317 E1392.16583
G0 F18000 X33.499 Y-34.317
G1 F2400 X33.5 Y34.319 E1395.01939
G0 F18000 X34 Y34.319
G1 F2400 X33.999 Y-34.317 E1397.87294
G0 F18000 X34.499 Y-34.317
G1 F2400 X34.5 Y34.319 E1400.72649
G0 F18000 X35 Y34.319
G1 F2400 X34.999 Y-34.317 E1403.58005
G0 F18000 X35.499 Y-34.317
G1 F2400 X35.5 Y34.319 E1406.4336
G0 F18000 X36 Y34.319
G1 F2400 X35.999 Y-34.317 E1409.28715
G0 F18000 X36.499 Y-34.317
G1 F2400 X36.5 Y34.319 E1412.14071
G0 F18000 X37 Y34.319
G1 F2400 X36.999 Y-34.317 E1414.99426
G0 F18000 X37.499 Y-34.317
G1 F2400 X37.5 Y34.319 E1417.84781
G0 F18000 X38 Y34.319
G1 F2400 X37.999 Y-34.317 E1420.70137
G0 F18000 X38.499 Y-34.317
G1 F2400 X38.5 Y34.319 E1423.55492
G0 F18000 X39 Y34.319
G1 F2400 X38.999 Y-34.317 E1426.40847
G0 F18000 X39.499 Y-34.317
G1 F2400 X39.5 Y34.319 E1429.26203
G0 F18000 X40 Y34.319
G1 F2400 X39.999 Y-34.317 E1432.11558
G0 F18000 X40.499 Y-34.317
G1 F2400 X40.5 Y34.319 E1434.96913
G0 F18000 X41 Y34.319
G1 F2400 X40.999 Y-34.317 E1437.82269
G0 F18000 X41.499 Y-34.317
G1 F2400 X41.5 Y34.319 E1440.67624
G0 F18000 X42 Y34.319
G1 F2400 X41.999 Y-34.317 E1443.52979
G0 F18000 X42.499 Y-34.317
G1 F2400 X42.5 Y34.319 E1446.38334
G0 F18000 X43 Y34.319
G1 F2400 X42.999 Y-34.317 E1449.2369
G0 F18000 X43.499 Y-34.317
G1 F2400 X43.5 Y34.319 E1452.09045
G0 F18000 X44 Y34.319
G1 F2400 X43.999 Y-34.317 E1454.944
G0 F18000 X44.499 Y-34.317
G1 F2400 X44.5 Y34.319 E1457.79756
G0 F18000 X45 Y34.319
G1 F2400 X44.999 Y-34.317 E1460.65111
G0 F18000 X45.499 Y-34.317
G1 F2400 X45.5 Y34.319 E1463.50466
G0 F18000 X46 Y34.319
G1 F2400 X45.999 Y-34.317 E1466.35822
G0 F18000 X46.499 Y-34.317
G1 F2400 X46.5 Y34.319 E1469.21177
G0 F18000 X47 Y34.319
G1 F2400 X46.999 Y-34.317 E1472.06532
G0 F18000 X47.499 Y-34.317
G1 F2400 X47.5 Y34.319 E1474.91888
G0 F18000 X48 Y34.319
G1 F2400 X47.999 Y-34.317 E1477.77243
G1 F6600 E1470.97243
G1 Z0.8
G0 F18000 X50.26 Y-25.499
; TYPE:SUPPORT
G1 Z0.5
G1 F6600 E1477.87243
G1 F2400 X50.445 Y-25.499 E1477.88166
G1 X50.411 Y25.5 E1480.42601
G1 X50.26 Y25.5 E1480.43355
G1 X50.26 Y-25.499 E1482.9779
G0 F18000 X50.26 Y-25.499 Z0.8
G0 X48.91 Y-25.499
G0 X48.01 Y-25.499
G0 X48.01 Y-25.499
; Layer Change GCode
; LAYER:2
G4 P0
M106 S255
G0 X-48.466 Y35.085 Z0.7
G0 X-48.466 Y35.085
G0 X-48.483 Y35.435
G0 X-48.483 Y35.435
G0 X-48.461 Y34.935
; TYPE:WALL-INNER
G1 F2400 X-48.461 Y34.935 E1482.9779
G1 X-48.587 Y34.922 E1482.98316
G1 X-48.689 Y34.89 E1482.98761
G1 X-48.837 Y34.768 E1482.99558
G1 X-48.898 Y34.65 E1483.0011
G1 X-48.933 Y34.439 E1483.01
G1 X-48.933 Y-34.438 E1485.87357
G1 X-48.898 Y-34.649 E1485.88246
G1 X-48.841 Y-34.759 E1485.88761
G1 X-48.666 Y-34.898 E1485.8969
G1 X-48.465 Y-34.933 E1485.90539
G1 X48.466 Y-34.933 E1489.93531
G1 X48.586 Y-34.921 E1489.94032
G1 X48.691 Y-34.888 E1489.9449
G1 X48.84 Y-34.766 E1489.9529
G1 X48.9 Y-34.649 E1489.95837
G1 X48.935 Y-34.438 E1489.96726
G1 X48.935 Y34.439 E1492.83084
G1 X48.9 Y34.65 E1492.83973
G1 X48.843 Y34.761 E1492.84492
G1 X48.668 Y34.899 E1492.85418
G1 X48.462 Y34.935 E1492.86288
G1 X-48.461 Y34.935 E1496.89247
G0 F18000 X-48.483 Y35.435
; TYPE:WALL-OUTER
G1 F2100 X-48.483 Y35.435 E1496.89247
G1 X-48.693 Y35.413 E1496.90124
G1 X-48.931 Y35.338 E1496.91162
G1 X-49.234 Y35.089 E1496.92792
G1 X-49.378 Y34.809 E1496.94101
G1 X-49.433 Y34.477 E1496.95501
G1 X-49.433 Y-34.476 E1499.82174
G1 X-49.378 Y-34.808 E1499.83573
G1 X-49.235 Y-35.087 E1499.84876
G1 X-48.902 Y-35.349 E1499.86638
G1 X-48.69 Y-35.413 E1499.87559
G1 X-48.484 Y-35.433 E1499.88419
G1 X48.485 Y-35.433 E1503.91569
G1 X48.692 Y-35.412 E1503.92434
G1 X48.934 Y-35.336 E1503.93489
G1 X49.236 Y-35.088 E1503.95114
G1 X49.38 Y-34.808 E1503.96423
G1 X49.435 Y-34.476 E1503.97822
G1 X49.435 Y34.477 E1506.84495
G1 X49.38 Y34.809 E1506.85894
G1 X49.236 Y35.088 E1506.87199
G1 X48.903 Y35.352 E1506.88966
G1 X48.694 Y35.413 E1506.89871
G1 X48.484 Y35.435 E1506.90749
G1 X-48.483 Y35.435 E1510.93891
G0 F18000 X-48.587 Y34.642
; TYPE:FILL
G1 F2400 X-48.581 Y34.623 E1510.94061
G1 X-48.609 Y34.546 E1510.94148
G0 F18000 X-48.487 Y34
G1 F2400 X48.489 Y34 E1514.97327
G0 F18000 X48.489 Y33.5
G1 F2400 X-48.487 Y33.5 E1519.00506
G0 F18000 X-48.487 Y33
G1 F2400 X48.489 Y33 E1523.03686
G0 F18000 X48.489 Y32.499
G1 F2400 X-48.487 Y32.5 E1527.06865
G0 F18000 X-48.487 Y32
G1 F2400 X48.489 Y31.999 E1531.10044
G0 F18000 X48.489 Y31.499
G1 F2400 X-48.487 Y31.5 E1535.13224
G0 F18000 X-48.487 Y31
G1 F2400 X48.489 Y30.999 E1539.16403
G0 F18000 X48.489 Y30.499
G1 F2400 X-48.487 Y30.5 E1543.19583
G0 F18000 X-48.487 Y30
G1 F2400 X48.489 Y29.999 E1547.22762
G0 F18000 X48.489 Y29.499
G1 F2400 X-48.487 Y29.5 E1551.25941
G0 F18000 X-48.487 Y29
G1 F2400 X48.489 Y28.999 E1555.29121
G0 F18000 X48.489 Y28.499
G1 F2400 X-48.487 Y28.5 E1559.323
G0 F18000 X-48.487 Y28
G1 F2400 X48.489 Y27.999 E1563.35479
G0 F18000 X48.489 Y27.499
G1 F2400 X-48.487 Y27.5 E1567.38659
G0 F18000 X-48.487 Y27
G1 F2400 X48.489 Y26.999 E1571.41838
G0 F18000 X48.489 Y26.499
G1 F2400 X-48.487 Y26.5 E1575.45017
G0 F18000 X-48.487 Y26
G1 F2400 X48.489 Y25.999 E1579.48197
G0 F18000 X48.489 Y25.499
G1 F2400 X-48.487 Y25.5 E1583.51376
G0 F18000 X-48.487 Y25
G1 F2400 X48.489 Y24.999 E1587.54555
G0 F18000 X48.489 Y24.499
G1 F2400 X-48.487 Y24.5 E1591.57735
G0 F18000 X-48.487 Y24
G1 F2400 X48.489 Y23.999 E1595.60914
G0 F18000 X48.489 Y23.499
G1 F2400 X-48.487 Y23.5 E1599.64094
G0 F18000 X-48.487 Y23
G1 F2400 X48.489 Y22.999 E1603.67273
G0 F18000 X48.489 Y22.499
G1 F2400 X-48.487 Y22.5 E1607.70452
G0 F18000 X-48.487 Y22
G1 F2400 X48.489 Y21.999 E1611.73632
G0 F18000 X48.489 Y21.499
G1 F2400 X-48.487 Y21.5 E1615.76811
G0 F18000 X-48.487 Y21
G1 F2400 X48.489 Y20.999 E1619.7999
G0 F18000 X48.489 Y20.499
G1 F2400 X-48.487 Y20.5 E1623.8317
G0 F18000 X-48.487 Y20
G1 F2400 X48.489 Y19.999 E1627.86349
G0 F18000 X48.489 Y19.499
G1 F2400 X-48.487 Y19.5 E1631.89528
G0 F18000 X-48.487 Y19
G1 F2400 X48.489 Y18.999 E1635.92708
G0 F18000 X48.489 Y18.499
G1 F2400 X-48.487 Y18.5 E1639.95887
G0 F18000 X-48.487 Y18
G1 F2400 X48.489 Y17.999 E1643.99066
G0 F18000 X48.489 Y17.499
G1 F2400 X-48.487 Y17.5 E1648.02246
G0 F18000 X-48.487 Y17
G1 F2400 X48.489 Y16.999 E1652.05425
G0 F18000 X48.489 Y16.499
G1 F2400 X-48.487 Y16.5 E1656.08605
G0 F18000 X-48.487 Y16
G1 F2400 X48.489 Y15.999 E1660.11784
G0 F18000 X48.489 Y15.499
G1 F2400 X-48.487 Y15.5 E1664.14963
G0 F18000 X-48.487 Y15
G1 F2400 X48.489 Y14.999 E1668.18143
G0 F18000 X48.489 Y14.499
G1 F2400 X-48.487 Y14.5 E1672.21322
G0 F18000 X-48.487 Y14
G1 F2400 X48.489 Y13.999 E1676.24501
G0 F18000 X48.489 Y13.499
G1 F2400 X-48.487 Y13.5 E1680.27681
G0 F18000 X-48.487 Y13
G1 F2400 X48.489 Y12.999 E1684.3086
G0 F18000 X48.489 Y12.499
G1 F2400 X-48.487 Y12.5 E1688.34039
G0 F18000 X-48.487 Y12
G1 F2400 X48.489 Y11.999 E1692.37219
G0 F18000 X48.489 Y11.499
G1 F2400 X-48.487 Y11.5 E1696.40398
G0 F18000 X-48.487 Y11
G1 F2400 X48.489 Y10.999 E1700.43577
G0 F18000 X48.489 Y10.499
G1 F2400 X-48.487 Y10.5 E1704.46757
G0 F18000 X-48.487 Y10
G1 F2400 X48.489 Y9.999 E1708.49936
G0 F18000 X48.489 Y9.499
G1 F2400 X-48.487 Y9.5 E1712.53116
G0 F18000 X-48.487 Y9
G1 F2400 X48.489 Y8.999 E1716.56295
G0 F18000 X48.489 Y8.499
G1 F2400 X-48.487 Y8.5 E1720.59474
G0 F18000 X-48.487 Y8
G1 F2400 X48.489 Y7.999 E1724.62654
G0 F18000 X48.489 Y7.499
G1 F2400 X-48.487 Y7.5 E1728.65833
G0 F18000 X-48.487 Y7
G1 F2400 X48.489 Y6.999 E1732.69012
G0 F18000 X48.489 Y6.499
G1 F2400 X-48.487 Y6.5 E1736.72192
G0 F18000 X-48.487 Y6
G1 F2400 X48.489 Y5.999 E1740.75371
G0 F18000 X48.489 Y5.499
G1 F2400 X-48.487 Y5.5 E1744.7855
G0 F18000 X-48.487 Y5
G1 F2400 X48.489 Y4.999 E1748.8173
G0 F18000 X48.489 Y4.499
G1 F2400 X-48.487 Y4.5 E1752.84909
G0 F18000 X-48.487 Y4
G1 F2400 X48.489 Y3.999 E1756.88088
G0 F18000 X48.489 Y3.499
G1 F2400 X-48.487 Y3.5 E1760.91268
G0 F18000 X-48.487 Y3
G1 F2400 X48.489 Y2.999 E1764.94447
G0 F18000 X48.489 Y2.499
G1 F2400 X-48.487 Y2.5 E1768.97627
G0 F18000 X-48.487 Y2
G1 F2400 X48.489 Y1.999 E1773.00806
G0 F18000 X48.489 Y1.499
G1 F2400 X-48.487 Y1.5 E1777.03985
G0 F18000 X-48.487 Y1
G1 F2400 X48.489 Y0.999 E1781.07165
G0 F18000 X48.489 Y0.499
G1 F2400 X-48.487 Y0.5 E1785.10344
G0 F18000 X-48.487 Y0
G1 F2400 X48.489 Y0 E1789.13523
G0 F18000 X48.489 Y-0.5
G1 F2400 X-48.487 Y-0.499 E1793.16703
G0 F18000 X-48.487 Y-0.999
G1 F2400 X48.489 Y-1 E1797.19882
G0 F18000 X48.489 Y-1.5
G1 F2400 X-48.487 Y-1.499 E1801.23061
G0 F18000 X-48.487 Y-1.999
G1 F2400 X48.489 Y-2 E1805.26241
G0 F18000 X48.489 Y-2.5
G1 F2400 X-48.487 Y-2.499 E1809.2942
G0 F18000 X-48.487 Y-2.999
G1 F2400 X48.489 Y-3 E1813.32599
G0 F18000 X48.489 Y-3.5
G1 F2400 X-48.487 Y-3.499 E1817.35779
G0 F18000 X-48.487 Y-3.999
G1 F2400 X48.489 Y-4 E1821.38958
G0 F18000 X48.489 Y-4.5
G1 F2400 X-48.487 Y-4.499 E1825.42138
G0 F18000 X-48.487 Y-4.999
G1 F2400 X48.489 Y-5 E1829.45317
G0 F18000 X48.489 Y-5.5
G1 F2400 X-48.487 Y-5.499 E1833.48496
G0 F18000 X-48.487 Y-5.999
G1 F2400 X48.489 Y-6 E1837.51676
G0 F18000 X48.489 Y-6.5
G1 F2400 X-48.487 Y-6.499 E1841.54855
G0 F18000 X-48.487 Y-6.999
G1 F2400 X48.489 Y-7 E1845.58034
G0 F18000 X48.489 Y-7.5
G1 F2400 X-48.487 Y-7.499 E1849.61214
G0 F18000 X-48.487 Y-7.999
G1 F2400 X48.489 Y-8 E1853.64393
G0 F18000 X48.489 Y-8.5
G1 F2400 X-48.487 Y-8.499 E1857.67572
G0 F18000 X-48.487 Y-8.999
G1 F2400 X48.489 Y-9 E1861.70752
G0 F18000 X48.489 Y-9.5
G1 F2400 X-48.487 Y-9.499 E1865.73931
G0 F18000 X-48.487 Y-9.999
G1 F2400 X48.489 Y-10 E1869.7711
G0 F18000 X48.489 Y-10.5
G1 F2400 X-48.487 Y-10.499 E1873.8029
G0 F18000 X-48.487 Y-10.999
G1 F2400 X48.489 Y-11 E1877.83469
G0 F18000 X48.489 Y-11.5
G1 F2400 X-48.487 Y-11.499 E1881.86649
G0 F18000 X-48.487 Y-11.999
G1 F2400 X48.489 Y-12 E1885.89828
G0 F18000 X48.489 Y-12.5
G1 F2400 X-48.487 Y-12.499 E1889.93007
G0 F18000 X-48.487 Y-12.999
G1 F2400 X48.489 Y-13 E1893.96187
G0 F18000 X48.489 Y-13.5
G1 F2400 X-48.487 Y-13.499 E1897.99366
G0 F18000 X-48.487 Y-13.999
G1 F2400 X48.489 Y-14 E1902.02545
G0 F18000 X48.489 Y-14.5
G1 F2400 X-48.487 Y-14.499 E1906.05725
G0 F18000 X-48.487 Y-14.999
G1 F2400 X48.489 Y-15 E1910.08904
G0 F18000 X48.489 Y-15.5
G1 F2400 X-48.487 Y-15.499 E1914.12083
G0 F18000 X-48.487 Y-15.999
G1 F2400 X48.489 Y-16 E1918.15263
G0 F18000 X48.489 Y-16.5
G1 F2400 X-48.487 Y-16.499 E1922.18442
G0 F18000 X-48.487 Y-16.999
G1 F2400 X48.489 Y-17 E1926.21621
G0 F18000 X48.489 Y-17.5
G1 F2400 X-48.487 Y-17.499 E1930.24801
G0 F18000 X-48.487 Y-17.999
G1 F2400 X48.489 Y-18 E1934.2798
G0 F18000 X48.489 Y-18.5
G1 F2400 X-48.487 Y-18.499 E1938.3116
G0 F18000 X-48.487 Y-18.999
G1 F2400 X48.489 Y-19 E1942.34339
G0 F18000 X48.489 Y-19.5
G1 F2400 X-48.487 Y-19.499 E1946.37518
G0 F18000 X-48.487 Y-19.999
G1 F2400 X48.489 Y-20 E1950.40698
G0 F18000 X48.489 Y-20.5
G1 F2400 X-48.487 Y-20.499 E1954.43877
G0 F18000 X-48.487 Y-20.999
G1 F2400 X48.489 Y-21 E1958.47056
G0 F18000 X48.489 Y-21.5
G1 F2400 X-48.487 Y-21.499 E1962.50236
G0 F18000 X-48.487 Y-21.999
G1 F2400 X48.489 Y-22 E1966.53415
G0 F18000 X48.489 Y-22.5
G1 F2400 X-48.487 Y-22.499 E1970.56594
G0 F18000 X-48.487 Y-22.999
G1 F2400 X48.489 Y-23 E1974.59774
G0 F18000 X48.489 Y-23.5
G1 F2400 X-48.487 Y-23.499 E1978.62953
G0 F18000 X-48.487 Y-23.999
G1 F2400 X48.489 Y-24 E1982.66132
G0 F18000 X48.489 Y-24.5
G1 F2400 X-48.487 Y-24.499 E1986.69312
G0 F18000 X-48.487 Y-24.999
G1 F2400 X48.489 Y-25 E1990.72491
G0 F18000 X48.489 Y-25.5
G1 F2400 X-48.487 Y-25.499 E1994.75671
G0 F18000 X-48.487 Y-25.999
G1 F2400 X48.489 Y-26 E1998.7885
G0 F18000 X48.489 Y-26.5
G1 F2400 X-48.487 Y-26.499 E2002.82029
G0 F18000 X-48.487 Y-26.999
G1 F2400 X48.489 Y-27 E2006.85209
G0 F18000 X48.489 Y-27.5
G1 F2400 X-48.487 Y-27.499 E2010.88388
G0 F18000 X-48.487 Y-27.999
G1 F2400 X48.489 Y-28 E2014.91567
G0 F18000 X48.489 Y-28.5
G1 F2400 X-48.487 Y-28.499 E2018.94747
G0 F18000 X-48.487 Y-28.999
G1 F2400 X48.489 Y-29 E2022.97926
G0 F18000 X48.489 Y-29.5
G1 F2400 X-48.487 Y-29.499 E2027.01105
G0 F18000 X-48.487 Y-29.999
G1 F2400 X48.489 Y-30 E2031.04285
G0 F18000 X48.489 Y-30.5
G1 F2400 X-48.487 Y-30.499 E2035.07464
G0 F18000 X-48.487 Y-30.999
G1 F2400 X48.489 Y-31 E2039.10643
G0 F18000 X48.489 Y-31.5
G1 F2400 X-48.487 Y-31.499 E2043.13823
G0 F18000 X-48.487 Y-31.999
G1 F2400 X48.489 Y-32 E2047.17002
G0 F18000 X48.489 Y-32.5
G1 F2400 X-48.487 Y-32.499 E2051.20182
G0 F18000 X-48.487 Y-33
G1 F2400 X48.489 Y-33 E2055.23361
G0 F18000 X48.489 Y-33.5
G1 F2400 X-48.487 Y-33.5 E2059.2654
G0 F18000 X-48.487 Y-34
G1 F2400 X48.489 Y-34 E2063.2972
G0 F18000 X48.568 Y-34.549
G1 F2400 X48.606 Y-34.619 E2063.30046
G1 X48.6 Y-34.592 E2063.30357
G1 X48.555 Y-34.627 E2063.30415
G0 F18000 X48.565 Y34.55
G0 X48.565 Y34.55
G1 F2400 X48.6 Y34.629 E2063.30757
G1 X48.552 Y34.628 E2063.30805
G0 F18000 X-48.566 Y-34.549
G0 X-48.566 Y-34.549
G1 F2400 X-48.598 Y-34.628 E2063.31142
G1 X-48.553 Y-34.627 E2063.31188
G1 F6600 E2056.51188
G1 Z1
G0 F18000 X-48.553 Y-34.627 Z1.3
; Layer Change GCode
; LAYER:3
G0 X-48.483 Y35.119 Z1.2
G0 X-48.482 Y35.519
G0 X-48.484 Y35.22
G0 X-48.484 Y35.22
G0 X-48.49 Y35.57
G0 X-48.49 Y35.57
G0 X-48.473 Y35.07
; TYPE:WALL-INNER
G1 Z0.9
G1 F6600 E2063.41188
G1 F2400 X-48.473 Y35.07 E2063.41188
G1 X-48.63 Y35.053 E2063.41845
G1 X-48.833 Y34.951 E2063.42789
G1 X-48.964 Y34.814 E2063.43577
G1 X-49.038 Y34.663 E2063.44277
G1 X-49.069 Y34.448 E2063.4518
G1 X-49.069 Y-34.447 E2066.31612
G1 X-49.038 Y-34.662 E2066.32515
G1 X-48.965 Y-34.812 E2066.33208
G1 X-48.835 Y-34.947 E2066.33988
G1 X-48.636 Y-35.048 E2066.34915
G1 X-48.478 Y-35.069 E2066.35578
G1 X48.591 Y-35.059 E2070.39144
G1 X48.835 Y-34.948 E2070.40259
G1 X48.966 Y-34.812 E2070.41044
G1 X49.039 Y-34.664 E2070.4173
G1 X49.07 Y-34.443 E2070.42658
G1 X49.07 Y34.444 E2073.29056
G1 X49.039 Y34.665 E2073.29984
G1 X48.966 Y34.814 E2073.30674
G1 X48.835 Y34.95 E2073.31459
G1 X48.594 Y35.06 E2073.32561
G1 X-48.473 Y35.07 E2077.36118
G0 F18000 X-48.49 Y35.57
; TYPE:WALL-OUTER
G1 F2100 X-48.49 Y35.57 E2077.36118
G1 X-48.706 Y35.552 E2077.37019
G1 X-48.811 Y35.522 E2077.37473
G1 X-49.137 Y35.357 E2077.38992
G1 X-49.377 Y35.107 E2077.40433
G1 X-49.522 Y34.811 E2077.41804
G1 X-49.569 Y34.485 E2077.43173
G1 X-49.569 Y-34.484 E2080.29913
G1 X-49.522 Y-34.81 E2080.31282
G1 X-49.378 Y-35.104 E2080.32643
G1 X-49.135 Y-35.356 E2080.34099
G1 X-48.813 Y-35.519 E2080.35599
G1 X-48.652 Y-35.56 E2080.3629
G1 X-48.486 Y-35.569 E2080.36981
G1 X48.648 Y-35.559 E2084.40817
G1 X48.818 Y-35.517 E2084.41545
G1 X49.139 Y-35.355 E2084.4304
G1 X49.38 Y-35.104 E2084.44487
G1 X49.522 Y-34.815 E2084.45826
G1 X49.57 Y-34.478 E2084.47241
G1 X49.57 Y34.479 E2087.33931
G1 X49.522 Y34.816 E2087.35346
G1 X49.381 Y35.103 E2087.36675
G1 X49.136 Y35.359 E2087.38149
G1 X48.816 Y35.52 E2087.39638
G1 X48.658 Y35.56 E2087.40315
G1 X-48.49 Y35.57 E2091.4421
G0 F18000 X-48.618 Y34.778
; TYPE:FILL
G1 F2400 X-48.639 Y34.723 E2091.44362
G1 X-48.721 Y34.706 E2091.44435
G0 F18000 X-48.499 Y34.625
G1 F2400 X-48.5 Y-34.621 E2094.32326
G0 F18000 X-48.682 Y-34.619
G1 F2400 X-48.73 Y-34.686 E2094.32639
G1 X-48.659 Y-34.721 E2094.32851
G1 X-48.615 Y-34.778 E2094.32944
G0 F18000 X-48 Y-34.628
G1 F2400 X-47.999 Y34.625 E2097.20865
G0 F18000 X-47.499 Y34.625
G1 F2400 X-47.5 Y-34.628 E2100.08785
G0 F18000 X-47 Y-34.628
G1 F2400 X-46.999 Y34.625 E2102.96706
G0 F18000 X-46.499 Y34.625
G1 F2400 X-46.5 Y-34.628 E2105.84626
G0 F18000 X-46 Y-34.628
G1 F2400 X-45.999 Y34.625 E2108.72547
G0 F18000 X-45.499 Y34.625
G1 F2400 X-45.5 Y-34.628 E2111.60467
G0 F18000 X-45 Y-34.628
G1 F2400 X-44.999 Y34.625 E2114.48388
G0 F18000 X-44.499 Y34.625
G1 F2400 X-44.5 Y-34.628 E2117.36308
G0 F18000 X-44 Y-34.627
G1 F2400 X-43.999 Y34.625 E2120.24225
G0 F18000 X-43.499 Y34.625
G1 F2400 X-43.5 Y-34.627 E2123.12141
G0 F18000 X-43 Y-34.627
G1 F2400 X-42.999 Y34.625 E2126.00057
G0 F18000 X-42.499 Y34.625
G1 F2400 X-42.5 Y-34.627 E2128.87974
G0 F18000 X-42 Y-34.627
G1 F2400 X-41.999 Y34.625 E2131.7589
G0 F18000 X-41.499 Y34.625
G1 F2400 X-41.5 Y-34.627 E2134.63806
G0 F18000 X-41 Y-34.627
G1 F2400 X-40.999 Y34.625 E2137.51723
G0 F18000 X-40.499 Y34.625
G1 F2400 X-40.5 Y-34.627 E2140.39639
G0 F18000 X-40 Y-34.627
G1 F2400 X-39.999 Y34.625 E2143.27555
G0 F18000 X-39.499 Y34.625
G1 F2400 X-39.5 Y-34.627 E2146.15472
G0 F18000 X-39 Y-34.627
G1 F2400 X-38.999 Y34.625 E2149.03388
G0 F18000 X-38.499 Y34.624
G1 F2400 X-38.5 Y-34.627 E2151.913
G0 F18000 X-38 Y-34.627
G1 F2400 X-37.999 Y34.624 E2154.79213
G0 F18000 X-37.499 Y34.624
G1 F2400 X-37.5 Y-34.627 E2157.67125
G0 F18000 X-37 Y-34.627
G1 F2400 X-36.999 Y34.624 E2160.55037
G0 F18000 X-36.499 Y34.624
G1 F2400 X-36.5 Y-34.627 E2163.42949
G0 F18000 X-36 Y-34.627
G1 F2400 X-35.999 Y34.624 E2166.30861
G0 F18000 X-35.499 Y34.624
G1 F2400 X-35.5 Y-34.627 E2169.18774
G0 F18000 X-35 Y-34.626
G1 F2400 X-34.999 Y34.624 E2172.06682
G0 F18000 X-34.499 Y34.624
G1 F2400 X-34.5 Y-34.626 E2174.9459
G0 F18000 X-34 Y-34.626
G1 F2400 X-33.999 Y34.624 E2177.82498
G0 F18000 X-33.499 Y34.624
G1 F2400 X-33.5 Y-34.626 E2180.70406
G0 F18000 X-33 Y-34.626
G1 F2400 X-32.999 Y34.624 E2183.58314
G0 F18000 X-32.499 Y34.624
G1 F2400 X-32.5 Y-34.626 E2186.46222
G0 F18000 X-32 Y-34.626
G1 F2400 X-31.999 Y34.624 E2189.3413
G0 F18000 X-31.499 Y34.624
G1 F2400 X-31.5 Y-34.626 E2192.22038
G0 F18000 X-31 Y-34.626
G1 F2400 X-30.999 Y34.624 E2195.09946
G0 F18000 X-30.499 Y34.624
G1 F2400 X-30.5 Y-34.626 E2197.97854
G0 F18000 X-30 Y-34.626
G1 F2400 X-29.999 Y34.624 E2200.85762
G0 F18000 X-29.499 Y34.624
G1 F2400 X-29.5 Y-34.627 E2203.73674
G0 F18000 X-29 Y-34.627
G1 F2400 X-28.999 Y34.624 E2206.61586
G0 F18000 X-28.499 Y34.624
G1 F2400 X-28.5 Y-34.627 E2209.49499
G0 F18000 X-28 Y-34.627
G1 F2400 X-27.999 Y34.624 E2212.37411
G0 F18000 X-27.499 Y34.624
G1 F2400 X-27.5 Y-34.627 E2215.25323
G0 F18000 X-27 Y-34.627
G1 F2400 X-26.999 Y34.624 E2218.13235
G0 F18000 X-26.499 Y34.624
G1 F2400 X-26.5 Y-34.627 E2221.01147
G0 F18000 X-26 Y-34.626
G1 F2400 X-25.999 Y34.624 E2223.89056
G0 F18000 X-25.499 Y34.624
G1 F2400 X-25.5 Y-34.626 E2226.76964
G0 F18000 X-25 Y-34.626
G1 F2400 X-24.999 Y34.624 E2229.64872
G0 F18000 X-24.499 Y34.624
G1 F2400 X-24.5 Y-34.626 E2232.5278
G0 F18000 X-24 Y-34.626
G1 F2400 X-23.999 Y34.624 E2235.40688
G0 F18000 X-23.499 Y34.624
G1 F2400 X-23.5 Y-34.626 E2238.28596
G0 F18000 X-23 Y-34.626
G1 F2400 X-22.999 Y34.624 E2241.16504
G0 F18000 X-22.499 Y34.624
G1 F2400 X-22.5 Y-34.626 E2244.04412
G0 F18000 X-22 Y-34.626
G1 F2400 X-21.999 Y34.624 E2246.9232
G0 F18000 X-21.499 Y34.624
G1 F2400 X-21.5 Y-34.626 E2249.80228
G0 F18000 X-21 Y-34.626
G1 F2400 X-20.999 Y34.624 E2252.68136
G0 F18000 X-20.499 Y34.624
G1 F2400 X-20.5 Y-34.626 E2255.56044
G0 F18000 X-20 Y-34.626
G1 F2400 X-19.999 Y34.624 E2258.43952
G0 F18000 X-19.499 Y34.624
G1 F2400 X-19.5 Y-34.626 E2261.3186
G0 F18000 X-19 Y-34.626
G1 F2400 X-18.999 Y34.623 E2264.19764
G0 F18000 X-18.499 Y34.623
G1 F2400 X-18.5 Y-34.626 E2267.07668
G0 F18000 X-18 Y-34.626
G1 F2400 X-17.999 Y34.623 E2269.95572
G0 F18000 X-17.499 Y34.623
G1 F2400 X-17.5 Y-34.625 E2272.83471
G0 F18000 X-17 Y-34.625
G1 F2400 X-16.999 Y34.623 E2275.71371
G0 F18000 X-16.499 Y34.623
G1 F2400 X-16.5 Y-34.625 E2278.59271
G0 F18000 X-16 Y-34.625
G1 F2400 X-15.999 Y34.623 E2281.47171
G0 F18000 X-15.499 Y34.623
G1 F2400 X-15.5 Y-34.625 E2284.3507
G0 F18000 X-15 Y-34.625
G1 F2400 X-14.999 Y34.623 E2287.2297
G0 F18000 X-14.499 Y34.623
G1 F2400 X-14.5 Y-34.625 E2290.1087
G0 F18000 X-14 Y-34.625
G1 F2400 X-13.999 Y34.623 E2292.9877
G0 F18000 X-13.499 Y34.623
G1 F2400 X-13.5 Y-34.625 E2295.86669
G0 F18000 X-13 Y-34.625
G1 F2400 X-12.999 Y34.623 E2298.74569
G0 F18000 X-12.499 Y34.623
G1 F2400 X-12.5 Y-34.625 E2301.62469
G0 F18000 X-12 Y-34.625
G1 F2400 X-11.999 Y34.623 E2304.50369
G0 F18000 X-11.499 Y34.623
G1 F2400 X-11.5 Y-34.625 E2307.38268
G0 F18000 X-11 Y-34.625
G1 F2400 X-10.999 Y34.623 E2310.26168
G0 F18000 X-10.499 Y34.623
G1 F2400 X-10.5 Y-34.625 E2313.14068
G0 F18000 X-10 Y-34.625
G1 F2400 X-9.999 Y34.623 E2316.01967
G0 F18000 X-9.499 Y34.623
G1 F2400 X-9.5 Y-34.625 E2318.89867
G0 F18000 X-9 Y-34.625
G1 F2400 X-8.999 Y34.623 E2321.77767
G0 F18000 X-8.499 Y34.623
G1 F2400 X-8.5 Y-34.624 E2324.65662
G0 F18000 X-8 Y-34.624
G1 F2400 X-7.999 Y34.623 E2327.53558
G0 F18000 X-7.499 Y34.623
G1 F2400 X-7.5 Y-34.624 E2330.41454
G0 F18000 X-7 Y-34.624
G1 F2400 X-6.999 Y34.623 E2333.29349
G0 F18000 X-6.499 Y34.623
G1 F2400 X-6.5 Y-34.624 E2336.17245
G0 F18000 X-6 Y-34.624
G1 F2400 X-5.999 Y34.623 E2339.0514
G0 F18000 X-5.499 Y34.623
G1 F2400 X-5.5 Y-34.624 E2341.93036
G0 F18000 X-5 Y-34.624
G1 F2400 X-4.999 Y34.623 E2344.80931
G0 F18000 X-4.499 Y34.623
G1 F2400 X-4.5 Y-34.624 E2347.68827
G0 F18000 X-4 Y-34.624
G1 F2400 X-3.999 Y34.623 E2350.56723
G0 F18000 X-3.499 Y34.623
G1 F2400 X-3.5 Y-34.624 E2353.44618
G0 F18000 X-3 Y-34.624
G1 F2400 X-2.999 Y34.623 E2356.32514
G0 F18000 X-2.499 Y34.623
G1 F2400 X-2.5 Y-34.624 E2359.20409
G0 F18000 X-2 Y-34.624
G1 F2400 X-1.999 Y34.623 E2362.08305
G0 F18000 X-1.499 Y34.623
G1 F2400 X-1.5 Y-34.624 E2364.962
G0 F18000 X-1 Y-34.624
G1 F2400 X-0.999 Y34.623 E2367.84096
G0 F18000 X-0.499 Y34.623
G1 F2400 X-0.5 Y-34.624 E2370.71992
G0 F18000 X0 Y-34.624
G1 F2400 X0 Y34.622 E2373.59883
G0 F18000 X0.5 Y34.622
G1 F2400 X0.499 Y-34.623 E2376.4777
G0 F18000 X0.999 Y-34.623
G1 F2400 X1 Y34.622 E2379.35658
G0 F18000 X1.5 Y34.622
G1 F2400 X1.499 Y-34.623 E2382.23545
G0 F18000 X1.999 Y-34.623
G1 F2400 X2 Y34.622 E2385.11432
G0 F18000 X2.5 Y34.622
G1 F2400 X2.499 Y-34.623 E2387.99319
G0 F18000 X2.999 Y-34.623
G1 F2400 X3 Y34.622 E2390.87207
G0 F18000 X3.5 Y34.622
G1 F2400 X3.499 Y-34.623 E2393.75094
G0 F18000 X3.999 Y-34.623
G1 F2400 X4 Y34.622 E2396.62981
G0 F18000 X4.5 Y34.622
G1 F2400 X4.499 Y-34.623 E2399.50868
G0 F18000 X4.999 Y-34.623
G1 F2400 X5 Y34.622 E2402.38756
G0 F18000 X5.5 Y34.622
G1 F2400 X5.499 Y-34.623 E2405.26643
G0 F18000 X5.999 Y-34.623
G1 F2400 X6 Y34.622 E2408.1453
G0 F18000 X6.5 Y34.622
G1 F2400 X6.499 Y-34.623 E2411.02417
G0 F18000 X6.999 Y-34.623
G1 F2400 X7 Y34.622 E2413.90305
G0 F18000 X7.5 Y34.622
G1 F2400 X7.499 Y-34.623 E2416.78192
G0 F18000 X7.999 Y-34.623
G1 F2400 X8 Y34.622 E2419.66079
G0 F18000 X8.5 Y34.622
G1 F2400 X8.499 Y-34.623 E2422.53966
G0 F18000 X8.999 Y-34.622
G1 F2400 X9 Y34.622 E2425.41849
G0 F18000 X9.5 Y34.622
G1 F2400 X9.499 Y-34.622 E2428.29733
G0 F18000 X9.999 Y-34.622
G1 F2400 X10 Y34.622 E2431.17616
G0 F18000 X10.5 Y34.622
G1 F2400 X10.499 Y-34.622 E2434.05499
G0 F18000 X10.999 Y-34.622
G1 F2400 X11 Y34.622 E2436.93382
G0 F18000 X11.5 Y34.622
G1 F2400 X11.499 Y-34.622 E2439.81265
G0 F18000 X11.999 Y-34.622
G1 F2400 X12 Y34.622 E2442.69148
G0 F18000 X12.5 Y34.622
G1 F2400 X12.499 Y-34.622 E2445.57031
G0 F18000 X12.999 Y-34.622
G1 F2400 X13 Y34.622 E2448.44914
G0 F18000 X13.5 Y34.622
G1 F2400 X13.499 Y-34.622 E2451.32797
G0 F18000 X13.999 Y-34.622
G1 F2400 X14 Y34.622 E2454.2068
G0 F18000 X14.5 Y34.622
G1 F2400 X14.499 Y-34.622 E2457.08564
G0 F18000 X14.999 Y-34.622
G1 F2400 X15 Y34.622 E2459.96447
G0 F18000 X15.5 Y34.622
G1 F2400 X15.499 Y-34.622 E2462.8433
G0 F18000 X15.999 Y-34.622
G1 F2400 X16 Y34.622 E2465.72213
G0 F18000 X16.5 Y34.622
G1 F2400 X16.499 Y-34.622 E2468.60096
G0 F18000 X16.999 Y-34.622
G1 F2400 X17 Y34.622 E2471.47979
G0 F18000 X17.5 Y34.622
G1 F2400 X17.499 Y-34.622 E2474.35862
G0 F18000 X17.999 Y-34.621
G1 F2400 X18 Y34.622 E2477.23741
G0 F18000 X18.5 Y34.622
G1 F2400 X18.499 Y-34.621 E2480.1162
G0 F18000 X18.999 Y-34.621
G1 F2400 X19 Y34.622 E2482.99499
G0 F18000 X19.5 Y34.621
G1 F2400 X19.499 Y-34.621 E2485.87374
G0 F18000 X19.999 Y-34.621
G1 F2400 X20 Y34.621 E2488.75249
G0 F18000 X20.5 Y34.621
G1 F2400 X20.499 Y-34.621 E2491.63123
G0 F18000 X20.999 Y-34.621
G1 F2400 X21 Y34.621 E2494.50998
G0 F18000 X21.5 Y34.621
G1 F2400 X21.499 Y-34.621 E2497.38873
G0 F18000 X21.999 Y-34.621
G1 F2400 X22 Y34.621 E2500.26748
G0 F18000 X22.5 Y34.621
G1 F2400 X22.499 Y-34.621 E2503.14622
G0 F18000 X22.999 Y-34.621
G1 F2400 X23 Y34.621 E2506.02497
G0 F18000 X23.5 Y34.621
G1 F2400 X23.499 Y-34.621 E2508.90372
G0 F18000 X23.999 Y-34.621
G1 F2400 X24 Y34.621 E2511.78247
G0 F18000 X24.5 Y34.621
G1 F2400 X24.499 Y-34.621 E2514.66122
G0 F18000 X24.999 Y-34.621
G1 F2400 X25 Y34.621 E2517.53996
G0 F18000 X25.5 Y34.621
G1 F2400 X25.499 Y-34.621 E2520.41871
G0 F18000 X25.999 Y-34.621
G1 F2400 X26 Y34.621 E2523.29746
G0 F18000 X26.5 Y34.621
G1 F2400 X26.499 Y-34.62 E2526.17617
G0 F18000 X26.999 Y-34.62
G1 F2400 X27 Y34.621 E2529.05487
G0 F18000 X27.5 Y34.621
G1 F2400 X27.499 Y-34.62 E2531.93358
G0 F18000 X27.999 Y-34.62
G1 F2400 X28 Y34.621 E2534.81228
G0 F18000 X28.5 Y34.621
G1 F2400 X28.499 Y-34.62 E2537.69099
G0 F18000 X28.999 Y-34.62
G1 F2400 X29 Y34.621 E2540.5697
G0 F18000 X29.5 Y34.621
G1 F2400 X29.499 Y-34.62 E2543.4484
G0 F18000 X29.999 Y-34.62
G1 F2400 X30 Y34.62 E2546.32707
G0 F18000 X30.5 Y34.62
G1 F2400 X30.499 Y-34.62 E2549.20573
G0 F18000 X30.999 Y-34.62
G1 F2400 X31 Y34.62 E2552.0844
G0 F18000 X31.5 Y34.62
G1 F2400 X31.499 Y-34.62 E2554.96306
G0 F18000 X31.999 Y-34.62
G1 F2400 X32 Y34.62 E2557.84173
G0 F18000 X32.5 Y34.62
G1 F2400 X32.499 Y-34.62 E2560.72039
G0 F18000 X32.999 Y-34.62
G1 F2400 X33 Y34.62 E2563.59906
G0 F18000 X33.5 Y34.62
G1 F2400 X33.499 Y-34.62 E2566.47772
G0 F18000 X33.999 Y-34.62
G1 F2400 X34 Y34.62 E2569.35639
G0 F18000 X34.5 Y34.62
G1 F2400 X34.499 Y-34.62 E2572.23505
G0 F18000 X34.999 Y-34.62
G1 F2400 X35 Y34.62 E2575.11371
G0 F18000 X35.5 Y34.62
G1 F2400 X35.499 Y-34.619 E2577.99234
G0 F18000 X35.999 Y-34.619
G1 F2400 X36 Y34.62 E2580.87096
G0 F18000 X36.5 Y34.62
G1 F2400 X36.499 Y-34.619 E2583.74958
G0 F18000 X36.999 Y-34.619
G1 F2400 X37 Y34.62 E2586.62821
G0 F18000 X37.5 Y34.62
G1 F2400 X37.499 Y-34.619 E2589.50683
G0 F18000 X37.999 Y-34.619
G1 F2400 X38 Y34.62 E2592.38545
G0 F18000 X38.5 Y34.62
G1 F2400 X38.499 Y-34.619 E2595.26408
G0 F18000 X38.999 Y-34.619
G1 F2400 X39 Y34.619 E2598.14266
G0 F18000 X39.5 Y34.619
G1 F2400 X39.499 Y-34.619 E2601.02124
G0 F18000 X39.999 Y-34.619
G1 F2400 X40 Y34.619 E2603.89982
G0 F18000 X40.5 Y34.619
G1 F2400 X40.499 Y-34.619 E2606.7784
G0 F18000 X40.999 Y-34.619
G1 F2400 X41 Y34.619 E2609.65698
G0 F18000 X41.5 Y34.619
G1 F2400 X41.499 Y-34.619 E2612.53557
G0 F18000 X41.999 Y-34.619
G1 F2400 X42 Y34.619 E2615.41415
G0 F18000 X42.5 Y34.619
G1 F2400 X42.499 Y-34.619 E2618.29273
G0 F18000 X42.999 Y-34.619
G1 F2400 X43 Y34.619 E2621.17131
G0 F18000 X43.5 Y34.619
G1 F2400 X43.499 Y-34.619 E2624.04989
G0 F18000 X43.999 Y-34.619
G1 F2400 X44 Y34.619 E2626.92847
G0 F18000 X44.5 Y34.619
G1 F2400 X44.499 Y-34.618 E2629.80701
G0 F18000 X44.999 Y-34.618
G1 F2400 X45 Y34.619 E2632.68555
G0 F18000 X45.5 Y34.619
G1 F2400 X45.499 Y-34.618 E2635.56409
G0 F18000 X45.999 Y-34.618
G1 F2400 X46 Y34.619 E2638.44263
G0 F18000 X46.5 Y34.619
G1 F2400 X46.499 Y-34.618 E2641.32117
G0 F18000 X46.999 Y-34.618
G1 F2400 X47 Y34.619 E2644.19971
G0 F18000 X47.5 Y34.619
G1 F2400 X47.499 Y-34.618 E2647.07825
G0 F18000 X47.999 Y-34.618
G1 F2400 X48 Y34.619 E2649.95679
G0 F18000 X48.5 Y34.618
G1 F2400 X48.499 Y-34.617 E2652.83525
G0 F18000 X48.677 Y-34.699
G1 F2400 X48.722 Y-34.705 E2652.83565
G0 F18000 X48.688 Y34.62
G0 X48.688 Y34.62
G1 F2400 X48.731 Y34.687 E2652.83862
G1 X48.677 Y34.7 E2652.83911
G0 F18000 X48.677 Y34.7 Z1.2
; Layer Change GCode
; LAYER:4
G0 X48.486 Y35.653 Z1.1
G0 X48.486 Y35.653
G0 X48.468 Y35.153
; TYPE:WALL-INNER
G1 F2400 X48.468 Y35.153 E2652.83911
G1 X-48.553 Y35.146 E2656.87278
G1 X-48.751 Y35.103 E2656.8812
G1 X-48.926 Y34.992 E2656.88982
G1 X-49.042 Y34.852 E2656.89737
G1 X-49.119 Y34.678 E2656.90529
G1 X-49.152 Y34.448 E2656.91495
G1 X-49.152 Y-34.447 E2659.77927
G1 X-49.119 Y-34.677 E2659.78893
G1 X-49.042 Y-34.851 E2659.79684
G1 X-48.927 Y-34.99 E2659.80434
G1 X-48.755 Y-35.099 E2659.8128
G1 X-48.591 Y-35.14 E2659.81983
G1 X-48.467 Y-35.152 E2659.82501
G1 X48.555 Y-35.145 E2663.85872
G1 X48.752 Y-35.103 E2663.86709
G1 X48.93 Y-34.989 E2663.87588
G1 X49.043 Y-34.852 E2663.88326
G1 X49.119 Y-34.68 E2663.89108
G1 X49.153 Y-34.443 E2663.90104
G1 X49.153 Y34.444 E2666.76502
G1 X49.119 Y34.681 E2666.77498
G1 X49.044 Y34.851 E2666.7827
G1 X48.927 Y34.993 E2666.79035
G1 X48.758 Y35.1 E2666.79867
G1 X48.593 Y35.141 E2666.80574
G1 X48.468 Y35.153 E2666.81096
G0 F18000 X48.486 Y35.653
; TYPE:WALL-OUTER
G1 F2100 X48.486 Y35.653 E2666.81096
G1 X-48.607 Y35.646 E2670.84762
G1 X-48.95 Y35.569 E2670.86223
G1 X-49.261 Y35.373 E2670.87752
G1 X-49.471 Y35.118 E2670.89125
G1 X-49.604 Y34.816 E2670.90497
G1 X-49.652 Y34.485 E2670.91887
G1 X-49.652 Y-34.484 E2673.78627
G1 X-49.604 Y-34.815 E2673.80018
G1 X-49.471 Y-35.117 E2673.8139
G1 X-49.262 Y-35.369 E2673.82751
G1 X-48.954 Y-35.565 E2673.84269
G1 X-48.679 Y-35.633 E2673.85446
G1 X-48.485 Y-35.652 E2673.86257
G1 X48.609 Y-35.645 E2677.89927
G1 X48.949 Y-35.569 E2677.91375
G1 X49.264 Y-35.369 E2677.92926
G1 X49.473 Y-35.116 E2677.94291
G1 X49.605 Y-34.82 E2677.95638
G1 X49.653 Y-34.478 E2677.97074
G1 X49.653 Y34.479 E2680.83764
G1 X49.605 Y34.821 E2680.852
G1 X49.473 Y35.117 E2680.86547
G1 X49.263 Y35.373 E2680.87924
G1 X48.958 Y35.565 E2680.89422
G1 X48.681 Y35.634 E2680.90609
G1 X48.486 Y35.653 E2680.91424
G0 F18000 X48.605 Y34.881
; TYPE:FILL
G1 F2400 X48.608 Y34.851 E2680.91449
G0 F18000 X48.691 Y34.807
G1 F2400 X48.709 Y34.834 E2680.91483
G0 F18000 X48.741 Y34.795
G1 F2400 X48.717 Y34.75 E2680.91579
G0 F18000 X48.852 Y34.665
G1 F2400 X48.833 Y34.615 E2680.91634
G0 F18000 X48.695 Y34.5
G1 F2400 X-48.7 Y34.5 E2684.96556
G0 F18000 X-48.831 Y34.613
G1 F2400 X-48.851 Y34.664 E2684.96611
G0 F18000 X-48.793 Y34.76
G1 F2400 X-48.764 Y34.739 E2684.96642
G0 F18000 X-48.677 Y34.808
G1 F2400 X-48.706 Y34.835 E2684.96684
G0 F18000 X-48.712 Y34
G1 F2400 X48.713 Y34 E2689.0173
G0 F18000 X48.713 Y33.5
G1 F2400 X-48.712 Y33.5 E2693.06776
G0 F18000 X-48.712 Y33
G1 F2400 X48.713 Y33 E2697.11822
G0 F18000 X48.713 Y32.499
G1 F2400 X-48.712 Y32.5 E2701.16868
G0 F18000 X-48.712 Y32
G1 F2400 X48.713 Y31.999 E2705.21914
G0 F18000 X48.713 Y31.499
G1 F2400 X-48.712 Y31.5 E2709.2696
G0 F18000 X-48.712 Y31
G1 F2400 X48.713 Y30.999 E2713.32007
G0 F18000 X48.713 Y30.499
G1 F2400 X-48.712 Y30.5 E2717.37053
G0 F18000 X-48.712 Y30
G1 F2400 X48.713 Y29.999 E2721.42099
G0 F18000 X48.713 Y29.499
G1 F2400 X-48.712 Y29.5 E2725.47145
G0 F18000 X-48.712 Y29
G1 F2400 X48.713 Y28.999 E2729.52191
G0 F18000 X48.713 Y28.499
G1 F2400 X-48.712 Y28.5 E2733.57237
G0 F18000 X-48.712 Y28
G1 F2400 X48.713 Y27.999 E2737.62283
G0 F18000 X48.713 Y27.499
G1 F2400 X-48.712 Y27.5 E2741.67329
G0 F18000 X-48.712 Y27
G1 F2400 X48.713 Y26.999 E2745.72375
G0 F18000 X48.713 Y26.499
G1 F2400 X-48.712 Y26.5 E2749.77421
G0 F18000 X-48.712 Y26
G1 F2400 X48.713 Y25.999 E2753.82467
G0 F18000 X48.713 Y25.499
G1 F2400 X-48.712 Y25.5 E2757.87513
G0 F18000 X-48.712 Y25
G1 F2400 X48.713 Y24.999 E2761.92559
G0 F18000 X48.713 Y24.499
G1 F2400 X-48.712 Y24.5 E2765.97606
G0 F18000 X-48.712 Y24
G1 F2400 X48.713 Y23.999 E2770.02652
G0 F18000 X48.713 Y23.499
G1 F2400 X-48.712 Y23.5 E2774.07698
G0 F18000 X-48.712 Y23
G1 F2400 X48.713 Y22.999 E2778.12744
G0 F18000 X48.713 Y22.499
G1 F2400 X-48.712 Y22.5 E2782.1779
G0 F18000 X-48.712 Y22
G1 F2400 X48.713 Y21.999 E2786.22836
G0 F18000 X48.713 Y21.499
G1 F2400 X-48.712 Y21.5 E2790.27882
G0 F18000 X-48.712 Y21
G1 F2400 X48.713 Y20.999 E2794.32928
G0 F18000 X48.713 Y20.499
G1 F2400 X-48.712 Y20.5 E2798.37974
G0 F18000 X-48.712 Y20
G1 F2400 X48.713 Y19.999 E2802.4302
G0 F18000 X48.713 Y19.499
G1 F2400 X-48.712 Y19.5 E2806.48066
G0 F18000 X-48.712 Y19
G1 F2400 X48.713 Y18.999 E2810.53112
G0 F18000 X48.713 Y18.499
G1 F2400 X-48.712 Y18.5 E2814.58159
G0 F18000 X-48.712 Y18
G1 F2400 X48.713 Y17.999 E2818.63205
G0 F18000 X48.713 Y17.499
G1 F2400 X-48.712 Y17.5 E2822.68251
G0 F18000 X-48.712 Y17
G1 F2400 X48.713 Y16.999 E2826.73297
G0 F18000 X48.713 Y16.499
G1 F2400 X-48.712 Y16.5 E2830.78343
G0 F18000 X-48.712 Y16
G1 F2400 X48.713 Y15.999 E2834.83389
G0 F18000 X48.713 Y15.499
G1 F2400 X-48.712 Y15.5 E2838.88435
G0 F18000 X-48.712 Y15
G1 F2400 X48.713 Y14.999 E2842.93481
G0 F18000 X48.713 Y14.499
G1 F2400 X-48.712 Y14.5 E2846.98527
G0 F18000 X-48.712 Y14
G1 F2400 X48.713 Y13.999 E2851.03573
G0 F18000 X48.713 Y13.499
G1 F2400 X-48.712 Y13.5 E2855.08619
G0 F18000 X-48.712 Y13
G1 F2400 X48.713 Y12.999 E2859.13665
G0 F18000 X48.713 Y12.499
G1 F2400 X-48.712 Y12.5 E2863.18712
G0 F18000 X-48.712 Y12
G1 F2400 X48.713 Y11.999 E2867.23758
G0 F18000 X48.713 Y11.499
G1 F2400 X-48.712 Y11.5 E2871.28804
G0 F18000 X-48.712 Y11
G1 F2400 X48.713 Y10.999 E2875.3385
G0 F18000 X48.713 Y10.499
G1 F2400 X-48.712 Y10.5 E2879.38896
G0 F18000 X-48.712 Y10
G1 F2400 X48.713 Y9.999 E2883.43942
G0 F18000 X48.713 Y9.499
G1 F2400 X-48.712 Y9.5 E2887.48988
G0 F18000 X-48.712 Y9
G1 F2400 X48.713 Y8.999 E2891.54034
G0 F18000 X48.713 Y8.499
G1 F2400 X-48.712 Y8.5 E2895.5908
G0 F18000 X-48.712 Y8
G1 F2400 X48.713 Y7.999 E2899.64126
G0 F18000 X48.713 Y7.499
G1 F2400 X-48.712 Y7.5 E2903.69172
G0 F18000 X-48.712 Y7
G1 F2400 X48.713 Y6.999 E2907.74218
G0 F18000 X48.713 Y6.499
G1 F2400 X-48.712 Y6.5 E2911.79265
G0 F18000 X-48.712 Y6
G1 F2400 X48.713 Y5.999 E2915.84311
G0 F18000 X48.713 Y5.499
G1 F2400 X-48.712 Y5.5 E2919.89357
G0 F18000 X-48.712 Y5
G1 F2400 X48.713 Y4.999 E2923.94403
G0 F18000 X48.713 Y4.499
G1 F2400 X-48.712 Y4.5 E2927.99449
G0 F18000 X-48.712 Y4
G1 F2400 X48.713 Y3.999 E2932.04495
G0 F18000 X48.713 Y3.499
G1 F2400 X-48.712 Y3.5 E2936.09541
G0 F18000 X-48.712 Y3
G1 F2400 X48.713 Y2.999 E2940.14587
G0 F18000 X48.713 Y2.499
G1 F2400 X-48.712 Y2.5 E2944.19633
G0 F18000 X-48.712 Y2
G1 F2400 X48.713 Y1.999 E2948.24679
G0 F18000 X48.713 Y1.499
G1 F2400 X-48.712 Y1.5 E2952.29725
G0 F18000 X-48.712 Y1
G1 F2400 X48.713 Y0.999 E2956.34771
G0 F18000 X48.713 Y0.499
G1 F2400 X-48.712 Y0.5 E2960.39818
G0 F18000 X-48.712 Y0
G1 F2400 X48.713 Y0 E2964.44864
G0 F18000 X48.713 Y-0.5
G1 F2400 X-48.712 Y-0.499 E2968.4991
G0 F18000 X-48.712 Y-0.999
G1 F2400 X48.713 Y-1 E2972.54956
G0 F18000 X48.713 Y-1.5
G1 F2400 X-48.712 Y-1.499 E2976.60002
G0 F18000 X-48.712 Y-1.999
G1 F2400 X48.713 Y-2 E2980.65048
G0 F18000 X48.713 Y-2.5
G1 F2400 X-48.712 Y-2.499 E2984.70094
G0 F18000 X-48.712 Y-2.999
G1 F2400 X48.713 Y-3 E2988.7514
G0 F18000 X48.713 Y-3.5
G1 F2400 X-48.712 Y-3.499 E2992.80186
G0 F18000 X-48.712 Y-3.999
G1 F2400 X48.713 Y-4 E2996.85232
G0 F18000 X48.713 Y-4.5
G1 F2400 X-48.712 Y-4.499 E3000.90278
G0 F18000 X-48.712 Y-4.999
G1 F2400 X48.713 Y-5 E3004.95324
G0 F18000 X48.713 Y-5.5
G1 F2400 X-48.712 Y-5.499 E3009.00371
G0 F18000 X-48.712 Y-5.999
G1 F2400 X48.713 Y-6 E3013.05417
G0 F18000 X48.713 Y-6.5
G1 F2400 X-48.712 Y-6.499 E3017.10463
G0 F18000 X-48.712 Y-6.999
G1 F2400 X48.713 Y-7 E3021.15509
G0 F18000 X48.713 Y-7.5
G1 F2400 X-48.712 Y-7.499 E3025.20555
G0 F18000 X-48.712 Y-7.999
G1 F2400 X48.713 Y-8 E3029.25601
G0 F18000 X48.713 Y-8.5
G1 F2400 X-48.712 Y-8.499 E3033.30647
G0 F18000 X-48.712 Y-8.999
G1 F2400 X48.713 Y-9 E3037.35693
G0 F18000 X48.713 Y-9.5
G1 F2400 X-48.712 Y-9.499 E3041.40739
G0 F18000 X-48.712 Y-9.999
G1 F2400 X48.713 Y-10 E3045.45785
G0 F18000 X48.713 Y-10.5
G1 F2400 X-48.712 Y-10.499 E3049.50831
G0 F18000 X-48.712 Y-10.999
G1 F2400 X48.713 Y-11 E3053.55877
G0 F18000 X48.713 Y-11.5
G1 F2400 X-48.712 Y-11.499 E3057.60923
G0 F18000 X-48.712 Y-11.999
G1 F2400 X48.713 Y-12 E3061.6597
G0 F18000 X48.713 Y-12.5
G1 F2400 X-48.712 Y-12.499 E3065.71016
G0 F18000 X-48.712 Y-12.999
G1 F2400 X48.713 Y-13 E3069.76062
G0 F18000 X48.713 Y-13.5
G1 F2400 X-48.712 Y-13.499 E3073.81108
G0 F18000 X-48.712 Y-13.999
G1 F2400 X48.713 Y-14 E3077.86154
G0 F18000 X48.713 Y-14.5
G1 F2400 X-48.712 Y-14.499 E3081.912
G0 F18000 X-48.712 Y-14.999
G1 F2400 X48.713 Y-15 E3085.96246
G0 F18000 X48.713 Y-15.5
G1 F2400 X-48.712 Y-15.499 E3090.01292
G0 F18000 X-48.712 Y-15.999
G1 F2400 X48.713 Y-16 E3094.06338
G0 F18000 X48.713 Y-16.5
G1 F2400 X-48.712 Y-16.499 E3098.11384
G0 F18000 X-48.712 Y-16.999
G1 F2400 X48.713 Y-17 E3102.1643
G0 F18000 X48.713 Y-17.5
G1 F2400 X-48.712 Y-17.499 E3106.21476
G0 F18000 X-48.712 Y-17.999
G1 F2400 X48.713 Y-18 E3110.26523
G0 F18000 X48.713 Y-18.5
G1 F2400 X-48.712 Y-18.499 E3114.31569
G0 F18000 X-48.712 Y-18.999
G1 F2400 X48.713 Y-19 E3118.36615
G0 F18000 X48.713 Y-19.5
G1 F2400 X-48.712 Y-19.499 E3122.41661
G0 F18000 X-48.712 Y-19.999
G1 F2400 X48.713 Y-20 E3126.46707
G0 F18000 X48.713 Y-20.5
G1 F2400 X-48.712 Y-20.499 E3130.51753
G0 F18000 X-48.712 Y-20.999
G1 F2400 X48.713 Y-21 E3134.56799
G0 F18000 X48.713 Y-21.5
G1 F2400 X-48.712 Y-21.499 E3138.61845
G0 F18000 X-48.712 Y-21.999
G1 F2400 X48.713 Y-22 E3142.66891
G0 F18000 X48.713 Y-22.5
G1 F2400 X-48.712 Y-22.499 E3146.71937
G0 F18000 X-48.712 Y-22.999
G1 F2400 X48.713 Y-23 E3150.76983
G0 F18000 X48.713 Y-23.5
G1 F2400 X-48.712 Y-23.499 E3154.82029
G0 F18000 X-48.712 Y-23.999
G1 F2400 X48.713 Y-24 E3158.87076
G0 F18000 X48.713 Y-24.5
G1 F2400 X-48.712 Y-24.499 E3162.92122
G0 F18000 X-48.712 Y-24.999
G1 F2400 X48.713 Y-25 E3166.97168
G0 F18000 X48.713 Y-25.5
G1 F2400 X-48.712 Y-25.499 E3171.02214
G0 F18000 X-48.712 Y-25.999
G1 F2400 X48.713 Y-26 E3175.0726
G0 F18000 X48.713 Y-26.5
G1 F2400 X-48.712 Y-26.499 E3179.12306
G0 F18000 X-48.712 Y-26.999
G1 F2400 X48.713 Y-27 E3183.17352
G0 F18000 X48.713 Y-27.5
G1 F2400 X-48.712 Y-27.499 E3187.22398
G0 F18000 X-48.712 Y-27.999
G1 F2400 X48.713 Y-28 E3191.27444
G0 F18000 X48.713 Y-28.5
G1 F2400 X-48.712 Y-28.499 E3195.3249
G0 F18000 X-48.712 Y-28.999
G1 F2400 X48.713 Y-29 E3199.37536
G0 F18000 X48.713 Y-29.5
G1 F2400 X-48.712 Y-29.499 E3203.42582
G0 F18000 X-48.712 Y-29.999
G1 F2400 X48.713 Y-30 E3207.47629
G0 F18000 X48.713 Y-30.5
G1 F2400 X-48.712 Y-30.499 E3211.52675
G0 F18000 X-48.712 Y-30.999
G1 F2400 X48.713 Y-31 E3215.57721
G0 F18000 X48.713 Y-31.5
G1 F2400 X-48.712 Y-31.499 E3219.62767
G0 F18000 X-48.712 Y-31.999
G1 F2400 X48.713 Y-32 E3223.67813
G0 F18000 X48.713 Y-32.5
G1 F2400 X-48.712 Y-32.499 E3227.72859
G0 F18000 X-48.712 Y-33
G1 F2400 X48.713 Y-33 E3231.77905
G0 F18000 X48.713 Y-33.5
G1 F2400 X-48.712 Y-33.5 E3235.82951
G0 F18000 X-48.712 Y-34
G1 F2400 X48.713 Y-34 E3239.87997
G0 F18000 X48.701 Y-34.5
G1 F2400 X-48.694 Y-34.5 E3243.92919
G0 F18000 X-48.831 Y-34.612
G1 F2400 X-48.851 Y-34.663 E3243.92974
G0 F18000 X-48.793 Y-34.759
G1 F2400 X-48.764 Y-34.738 E3243.93005
G0 F18000 X-48.691 Y-34.805
G1 F2400 X-48.706 Y-34.833 E3243.93038
G0 F18000 X48.679 Y-34.807
G0 X48.679 Y-34.807
G1 F2400 X48.708 Y-34.833 E3243.9308
G0 F18000 X48.766 Y-34.737
G1 F2400 X48.795 Y-34.759 E3243.93111
G0 F18000 X48.853 Y-34.663
G1 F2400 X48.833 Y-34.614 E3243.93165
G0 F18000 X48.833 Y-34.614 Z1.4
; Layer Change GCode
; LAYER:5
G0 X-48.608 Y35.356 Z1.3
G0 X-48.608 Y35.356
G0 X-48.645 Y35.705
G0 X-48.645 Y35.705
G0 X-48.592 Y35.205
; TYPE:WALL-INNER
G1 F2400 X-48.592 Y35.205 E3243.93165
G1 X-48.822 Y35.131 E3243.94169
G1 X-49 Y35 E3243.95088
G1 X-49.105 Y34.866 E3243.95796
G1 X-49.178 Y34.69 E3243.96588
G1 X-49.21 Y34.452 E3243.97587
G1 X-49.21 Y-34.451 E3246.84052
G1 X-49.178 Y-34.689 E3246.8505
G1 X-49.104 Y-34.867 E3246.85852
G1 X-48.991 Y-35.011 E3246.86613
G1 X-48.834 Y-35.123 E3246.87415
G1 X-48.597 Y-35.204 E3246.88456
G1 X-48.487 Y-35.209 E3246.88914
G1 X48.594 Y-35.203 E3250.9253
G1 X48.822 Y-35.131 E3250.93524
G1 X49.004 Y-34.996 E3250.94466
G1 X49.107 Y-34.865 E3250.95159
G1 X49.179 Y-34.692 E3250.95938
G1 X49.211 Y-34.447 E3250.96965
G1 X49.211 Y34.448 E3253.83397
G1 X49.179 Y34.693 E3253.84424
G1 X49.106 Y34.868 E3253.85213
G1 X48.993 Y35.012 E3253.85974
G1 X48.835 Y35.124 E3253.86779
G1 X48.599 Y35.205 E3253.87816
G1 X-48.592 Y35.205 E3257.91889
G0 F18000 X-48.645 Y35.705
; TYPE:WALL-OUTER
G1 F2100 X-48.645 Y35.705 E3257.91889
G1 X-48.797 Y35.671 E3257.92537
G1 X-49.061 Y35.576 E3257.93703
G1 X-49.351 Y35.362 E3257.95202
G1 X-49.541 Y35.121 E3257.96478
G1 X-49.664 Y34.823 E3257.97818
G1 X-49.71 Y34.482 E3257.99249
G1 X-49.71 Y-34.481 E3260.85963
G1 X-49.664 Y-34.822 E3260.87394
G1 X-49.54 Y-35.122 E3260.88744
G1 X-49.338 Y-35.378 E3260.90099
G1 X-49.066 Y-35.572 E3260.91488
G1 X-48.693 Y-35.7 E3260.93128
G1 X-48.488 Y-35.709 E3260.93981
G1 X48.648 Y-35.703 E3264.97826
G1 X48.797 Y-35.671 E3264.98459
G1 X49.061 Y-35.576 E3264.99626
G1 X49.357 Y-35.356 E3265.01159
G1 X49.542 Y-35.122 E3265.02399
G1 X49.666 Y-34.822 E3265.03749
G1 X49.711 Y-34.481 E3265.05179
G1 X49.711 Y34.482 E3267.91894
G1 X49.666 Y34.823 E3267.93324
G1 X49.542 Y35.123 E3267.94673
G1 X49.342 Y35.377 E3267.96017
G1 X49.066 Y35.574 E3267.97427
G1 X48.694 Y35.701 E3267.99061
G1 X-48.645 Y35.705 E3272.0375
G0 F18000 X-48.645 Y34.928
; TYPE:FILL
G1 F2400 X-48.695 Y34.884 E3272.03814
G0 F18000 X-48.738 Y34.844
G1 F2400 X-48.764 Y34.861 E3272.03855
G0 F18000 X-48.91 Y34.682
G1 F2400 X-48.894 Y34.624 E3272.03918
G0 F18000 X-48.499 Y34.764
G1 F2400 X-48.5 Y-34.767 E3274.92994
G0 F18000 X-48.645 Y-34.894
G1 F2400 X-48.635 Y-34.927 E3274.93044
G0 F18000 X-48.72 Y-34.847
G1 F2400 X-48.766 Y-34.864 E3274.93093
G0 F18000 X-48.851 Y-34.783
G1 F2400 X-48.825 Y-34.761 E3274.93126
G0 F18000 X-48.91 Y-34.68
G1 F2400 X-48.887 Y-34.631 E3274.93181
G0 F18000 X-48 Y-34.768
G1 F2400 X-47.999 Y34.764 E3277.82262
G0 F18000 X-47.499 Y34.764
G1 F2400 X-47.5 Y-34.768 E3280.71342
G0 F18000 X-47 Y-34.768
G1 F2400 X-46.999 Y34.764 E3283.60423
G0 F18000 X-46.499 Y34.764
G1 F2400 X-46.5 Y-34.768 E3286.49503
G0 F18000 X-46 Y-34.768
G1 F2400 X-45.999 Y34.764 E3289.38584
G0 F18000 X-45.499 Y34.764
G1 F2400 X-45.5 Y-34.768 E3292.27664
G0 F18000 X-45 Y-34.768
G1 F2400 X-44.999 Y34.764 E3295.16745
G0 F18000 X-44.499 Y34.764
G1 F2400 X-44.5 Y-34.768 E3298.05825
G0 F18000 X-44 Y-34.768
G1 F2400 X-43.999 Y34.764 E3300.94906
G0 F18000 X-43.499 Y34.764
G1 F2400 X-43.5 Y-34.768 E3303.83986
G0 F18000 X-43 Y-34.768
G1 F2400 X-42.999 Y34.764 E3306.73066
G0 F18000 X-42.499 Y34.764
G1 F2400 X-42.5 Y-34.768 E3309.62147
G0 F18000 X-42 Y-34.768
G1 F2400 X-41.999 Y34.764 E3312.51227
G0 F18000 X-41.499 Y34.764
G1 F2400 X-41.5 Y-34.767 E3315.40304
G0 F18000 X-41 Y-34.767
G1 F2400 X-40.999 Y34.764 E3318.2938
G0 F18000 X-40.499 Y34.764
G1 F2400 X-40.5 Y-34.767 E3321.18456
G0 F18000 X-40 Y-34.767
G1 F2400 X-39.999 Y34.764 E3324.07533
G0 F18000 X-39.499 Y34.764
G1 F2400 X-39.5 Y-34.767 E3326.96609
G0 F18000 X-39 Y-34.767
G1 F2400 X-38.999 Y34.764 E3329.85685
G0 F18000 X-38.499 Y34.764
G1 F2400 X-38.5 Y-34.767 E3332.74762
G0 F18000 X-38 Y-34.767
G1 F2400 X-37.999 Y34.764 E3335.63838
G0 F18000 X-37.499 Y34.764
G1 F2400 X-37.5 Y-34.767 E3338.52914
G0 F18000 X-37 Y-34.767
G1 F2400 X-36.999 Y34.764 E3341.4199
G0 F18000 X-36.499 Y34.764
G1 F2400 X-36.5 Y-34.767 E3344.31067
G0 F18000 X-36 Y-34.767
G1 F2400 X-35.999 Y34.764 E3347.20143
G0 F18000 X-35.499 Y34.764
G1 F2400 X-35.5 Y-34.767 E3350.09219
G0 F18000 X-35 Y-34.767
G1 F2400 X-34.999 Y34.764 E3352.98296
G0 F18000 X-34.499 Y34.764
G1 F2400 X-34.5 Y-34.767 E3355.87372
G0 F18000 X-34 Y-34.767
G1 F2400 X-33.999 Y34.764 E3358.76448
G0 F18000 X-33.499 Y34.764
G1 F2400 X-33.5 Y-34.767 E3361.65525
G0 F18000 X-33 Y-34.767
G1 F2400 X-32.999 Y34.764 E3364.54601
G0 F18000 X-32.499 Y34.764
G1 F2400 X-32.5 Y-34.767 E3367.43677
G0 F18000 X-32 Y-34.767
G1 F2400 X-31.999 Y34.764 E3370.32754
G0 F18000 X-31.499 Y34.764
G1 F2400 X-31.5 Y-34.767 E3373.2183
G0 F18000 X-31 Y-34.767
G1 F2400 X-30.999 Y34.764 E3376.10906
G0 F18000 X-30.499 Y34.764
G1 F2400 X-30.5 Y-34.767 E3378.99982
G0 F18000 X-30 Y-34.767
G1 F2400 X-29.999 Y34.764 E3381.89059
G0 F18000 X-29.499 Y34.764
G1 F2400 X-29.5 Y-34.768 E3384.78139
G0 F18000 X-29 Y-34.768
G1 F2400 X-28.999 Y34.764 E3387.6722
G0 F18000 X-28.499 Y34.764
G1 F2400 X-28.5 Y-34.768 E3390.563
G0 F18000 X-28 Y-34.768
G1 F2400 X-27.999 Y34.764 E3393.45381
G0 F18000 X-27.499 Y34.764
G1 F2400 X-27.5 Y-34.767 E3396.34457
G0 F18000 X-27 Y-34.767
G1 F2400 X-26.999 Y34.764 E3399.23533
G0 F18000 X-26.499 Y34.764
G1 F2400 X-26.5 Y-34.767 E3402.1261
G0 F18000 X-26 Y-34.767
G1 F2400 X-25.999 Y34.764 E3405.01686
G0 F18000 X-25.499 Y34.764
G1 F2400 X-25.5 Y-34.767 E3407.90762
G0 F18000 X-25 Y-34.767
G1 F2400 X-24.999 Y34.764 E3410.79838
G0 F18000 X-24.499 Y34.764
G1 F2400 X-24.5 Y-34.767 E3413.68915
G0 F18000 X-24 Y-34.767
G1 F2400 X-23.999 Y34.764 E3416.57991
G0 F18000 X-23.499 Y34.764
G1 F2400 X-23.5 Y-34.767 E3419.47067
G0 F18000 X-23 Y-34.767
G1 F2400 X-22.999 Y34.764 E3422.36144
G0 F18000 X-22.499 Y34.764
G1 F2400 X-22.5 Y-34.767 E3425.2522
G0 F18000 X-22 Y-34.767
G1 F2400 X-21.999 Y34.764 E3428.14296
G0 F18000 X-21.499 Y34.764
G1 F2400 X-21.5 Y-34.767 E3431.03373
G0 F18000 X-21 Y-34.767
G1 F2400 X-20.999 Y34.764 E3433.92449
G0 F18000 X-20.499 Y34.764
G1 F2400 X-20.5 Y-34.767 E3436.81525
G0 F18000 X-20 Y-34.767
G1 F2400 X-19.999 Y34.764 E3439.70602
G0 F18000 X-19.499 Y34.764
G1 F2400 X-19.5 Y-34.767 E3442.59678
G0 F18000 X-19 Y-34.767
G1 F2400 X-18.999 Y34.764 E3445.48754
G0 F18000 X-18.499 Y34.764
G1 F2400 X-18.5 Y-34.767 E3448.3783
G0 F18000 X-18 Y-34.767
G1 F2400 X-17.999 Y34.764 E3451.26907
G0 F18000 X-17.499 Y34.764
G1 F2400 X-17.5 Y-34.767 E3454.15983
G0 F18000 X-17 Y-34.767
G1 F2400 X-16.999 Y34.764 E3457.05059
G0 F18000 X-16.499 Y34.764
G1 F2400 X-16.5 Y-34.767 E3459.94136
G0 F18000 X-16 Y-34.767
G1 F2400 X-15.999 Y34.764 E3462.83212
G0 F18000 X-15.499 Y34.764
G1 F2400 X-15.5 Y-34.767 E3465.72288
G0 F18000 X-15 Y-34.767
G1 F2400 X-14.999 Y34.764 E3468.61365
G0 F18000 X-14.499 Y34.764
G1 F2400 X-14.5 Y-34.767 E3471.50441
G0 F18000 X-14 Y-34.767
G1 F2400 X-13.999 Y34.764 E3474.39517
G0 F18000 X-13.499 Y34.764
G1 F2400 X-13.5 Y-34.766 E3477.28589
G0 F18000 X-13 Y-34.766
G1 F2400 X-12.999 Y34.764 E3480.17662
G0 F18000 X-12.499 Y34.764
G1 F2400 X-12.5 Y-34.766 E3483.06734
G0 F18000 X-12 Y-34.766
G1 F2400 X-11.999 Y34.764 E3485.95806
G0 F18000 X-11.499 Y34.764
G1 F2400 X-11.5 Y-34.766 E3488.84878
G0 F18000 X-11 Y-34.766
G1 F2400 X-10.999 Y34.764 E3491.7395
G0 F18000 X-10.499 Y34.764
G1 F2400 X-10.5 Y-34.766 E3494.63022
G0 F18000 X-10 Y-34.766
G1 F2400 X-9.999 Y34.764 E3497.52094
G0 F18000 X-9.499 Y34.764
G1 F2400 X-9.5 Y-34.766 E3500.41167
G0 F18000 X-9 Y-34.766
G1 F2400 X-8.999 Y34.764 E3503.30239
G0 F18000 X-8.499 Y34.764
G1 F2400 X-8.5 Y-34.766 E3506.19311
G0 F18000 X-8 Y-34.766
G1 F2400 X-7.999 Y34.764 E3509.08383
G0 F18000 X-7.499 Y34.764
G1 F2400 X-7.5 Y-34.766 E3511.97455
G0 F18000 X-7 Y-34.766
G1 F2400 X-6.999 Y34.764 E3514.86527
G0 F18000 X-6.499 Y34.764
G1 F2400 X-6.5 Y-34.766 E3517.75599
G0 F18000 X-6 Y-34.766
G1 F2400 X-5.999 Y34.764 E3520.64672
G0 F18000 X-5.499 Y34.764
G1 F2400 X-5.5 Y-34.766 E3523.53744
G0 F18000 X-5 Y-34.766
G1 F2400 X-4.999 Y34.764 E3526.42816
G0 F18000 X-4.499 Y34.764
G1 F2400 X-4.5 Y-34.766 E3529.31888
G0 F18000 X-4 Y-34.766
G1 F2400 X-3.999 Y34.764 E3532.2096
G0 F18000 X-3.499 Y34.764
G1 F2400 X-3.5 Y-34.766 E3535.10032
G0 F18000 X-3 Y-34.766
G1 F2400 X-2.999 Y34.764 E3537.99104
G0 F18000 X-2.499 Y34.764
G1 F2400 X-2.5 Y-34.766 E3540.88177
G0 F18000 X-2 Y-34.766
G1 F2400 X-1.999 Y34.764 E3543.77249
G0 F18000 X-1.499 Y34.764
G1 F2400 X-1.5 Y-34.766 E3546.66321
G0 F18000 X-1 Y-34.766
G1 F2400 X-0.999 Y34.764 E3549.55393
G0 F18000 X-0.499 Y34.764
G1 F2400 X-0.5 Y-34.766 E3552.44465
G0 F18000 X0 Y-34.766
G1 F2400 X0 Y34.764 E3555.33537
G0 F18000 X0.5 Y34.765
G1 F2400 X0.499 Y-34.765 E3558.2261
G0 F18000 X0.999 Y-34.765
G1 F2400 X1 Y34.765 E3561.11682
G0 F18000 X1.5 Y34.765
G1 F2400 X1.499 Y-34.765 E3564.00754
G0 F18000 X1.999 Y-34.765
G1 F2400 X2 Y34.765 E3566.89826
G0 F18000 X2.5 Y34.765
G1 F2400 X2.499 Y-34.765 E3569.78898
G0 F18000 X2.999 Y-34.765
G1 F2400 X3 Y34.765 E3572.6797
G0 F18000 X3.5 Y34.765
G1 F2400 X3.499 Y-34.765 E3575.57042
G0 F18000 X3.999 Y-34.765
G1 F2400 X4 Y34.765 E3578.46115
G0 F18000 X4.5 Y34.765
G1 F2400 X4.499 Y-34.765 E3581.35187
G0 F18000 X4.999 Y-34.765
G1 F2400 X5 Y34.765 E3584.24259
G0 F18000 X5.5 Y34.765
G1 F2400 X5.499 Y-34.765 E3587.13331
G0 F18000 X5.999 Y-34.765
G1 F2400 X6 Y34.765 E3590.02403
G0 F18000 X6.5 Y34.765
G1 F2400 X6.499 Y-34.765 E3592.91475
G0 F18000 X6.999 Y-34.765
G1 F2400 X7 Y34.765 E3595.80547
G0 F18000 X7.5 Y34.765
G1 F2400 X7.499 Y-34.765 E3598.6962
G0 F18000 X7.999 Y-34.765
G1 F2400 X8 Y34.765 E3601.58692
G0 F18000 X8.5 Y34.765
G1 F2400 X8.499 Y-34.765 E3604.47764
G0 F18000 X8.999 Y-34.765
G1 F2400 X9 Y34.765 E3607.36836
G0 F18000 X9.5 Y34.765
G1 F2400 X9.499 Y-34.765 E3610.25908
G0 F18000 X9.999 Y-34.765
G1 F2400 X10 Y34.765 E3613.1498
G0 F18000 X10.5 Y34.765
G1 F2400 X10.499 Y-34.765 E3616.04052
G0 F18000 X10.999 Y-34.765
G1 F2400 X11 Y34.765 E3618.93125
G0 F18000 X11.5 Y34.765
G1 F2400 X11.499 Y-34.765 E3621.82197
G0 F18000 X11.999 Y-34.765
G1 F2400 X12 Y34.765 E3624.71269
G0 F18000 X12.5 Y34.765
G1 F2400 X12.499 Y-34.765 E3627.60341
G0 F18000 X12.999 Y-34.765
G1 F2400 X13 Y34.765 E3630.49413
G0 F18000 X13.5 Y34.765
G1 F2400 X13.499 Y-34.765 E3633.38485
G0 F18000 X13.999 Y-34.764
G1 F2400 X14 Y34.765 E3636.27553
G0 F18000 X14.5 Y34.765
G1 F2400 X14.499 Y-34.764 E3639.16621
G0 F18000 X14.999 Y-34.764
G1 F2400 X15 Y34.765 E3642.05689
G0 F18000 X15.5 Y34.765
G1 F2400 X15.499 Y-34.764 E3644.94757
G0 F18000 X15.999 Y-34.764
G1 F2400 X16 Y34.765 E3647.83825
G0 F18000 X16.5 Y34.765
G1 F2400 X16.499 Y-34.764 E3650.72893
G0 F18000 X16.999 Y-34.764
G1 F2400 X17 Y34.765 E3653.61961
G0 F18000 X17.5 Y34.765
G1 F2400 X17.499 Y-34.764 E3656.51029
G0 F18000 X17.999 Y-34.764
G1 F2400 X18 Y34.765 E3659.40097
G0 F18000 X18.5 Y34.765
G1 F2400 X18.499 Y-34.764 E3662.29165
G0 F18000 X18.999 Y-34.764
G1 F2400 X19 Y34.765 E3665.18233
G0 F18000 X19.5 Y34.765
G1 F2400 X19.499 Y-34.764 E3668.07301
G0 F18000 X19.999 Y-34.764
G1 F2400 X20 Y34.765 E3670.96369
G0 F18000 X20.5 Y34.765
G1 F2400 X20.499 Y-34.764 E3673.85437
G0 F18000 X20.999 Y-34.764
G1 F2400 X21 Y34.765 E3676.74505
G0 F18000 X21.5 Y34.765
G1 F2400 X21.499 Y-34.764 E3679.63573
G0 F18000 X21.999 Y-34.764
G1 F2400 X22 Y34.765 E3682.52641
G0 F18000 X22.5 Y34.765
G1 F2400 X22.499 Y-34.764 E3685.41709
G0 F18000 X22.999 Y-34.764
G1 F2400 X23 Y34.765 E3688.30777
G0 F18000 X23.5 Y34.765
G1 F2400 X23.499 Y-34.764 E3691.19845
G0 F18000 X23.999 Y-34.764
G1 F2400 X24 Y34.765 E3694.08913
G0 F18000 X24.5 Y34.765
G1 F2400 X24.499 Y-34.764 E3696.97981
G0 F18000 X24.999 Y-34.764
G1 F2400 X25 Y34.765 E3699.87049
G0 F18000 X25.5 Y34.765
G1 F2400 X25.499 Y-34.764 E3702.76117
G0 F18000 X25.999 Y-34.764
G1 F2400 X26 Y34.765 E3705.65185
G0 F18000 X26.5 Y34.765
G1 F2400 X26.499 Y-34.764 E3708.54253
G0 F18000 X26.999 Y-34.764
G1 F2400 X27 Y34.765 E3711.43321
G0 F18000 X27.5 Y34.765
G1 F2400 X27.499 Y-34.764 E3714.32389
G0 F18000 X27.999 Y-34.763
G1 F2400 X28 Y34.765 E3717.21453
G0 F18000 X28.5 Y34.765
G1 F2400 X28.499 Y-34.763 E3720.10517
G0 F18000 X28.999 Y-34.763
G1 F2400 X29 Y34.765 E3722.99581
G0 F18000 X29.5 Y34.765
G1 F2400 X29.499 Y-34.763 E3725.88644
G0 F18000 X29.999 Y-34.763
G1 F2400 X30 Y34.764 E3728.77704
G0 F18000 X30.5 Y34.764
G1 F2400 X30.499 Y-34.763 E3731.66764
G0 F18000 X30.999 Y-34.763
G1 F2400 X31 Y34.764 E3734.55824
G0 F18000 X31.5 Y34.764
G1 F2400 X31.499 Y-34.763 E3737.44883
G0 F18000 X31.999 Y-34.763
G1 F2400 X32 Y34.764 E3740.33943
G0 F18000 X32.5 Y34.764
G1 F2400 X32.499 Y-34.763 E3743.23003
G0 F18000 X32.999 Y-34.763
G1 F2400 X33 Y34.764 E3746.12062
G0 F18000 X33.5 Y34.764
G1 F2400 X33.499 Y-34.763 E3749.01122
G0 F18000 X33.999 Y-34.763
G1 F2400 X34 Y34.764 E3751.90182
G0 F18000 X34.5 Y34.764
G1 F2400 X34.499 Y-34.763 E3754.79241
G0 F18000 X34.999 Y-34.763
G1 F2400 X35 Y34.764 E3757.68301
G0 F18000 X35.5 Y34.764
G1 F2400 X35.499 Y-34.763 E3760.57361
G0 F18000 X35.999 Y-34.763
G1 F2400 X36 Y34.764 E3763.4642
G0 F18000 X36.5 Y34.764
G1 F2400 X36.499 Y-34.763 E3766.3548
G0 F18000 X36.999 Y-34.763
G1 F2400 X37 Y34.764 E3769.2454
G0 F18000 X37.5 Y34.764
G1 F2400 X37.499 Y-34.763 E3772.13599
G0 F18000 X37.999 Y-34.763
G1 F2400 X38 Y34.764 E3775.02659
G0 F18000 X38.5 Y34.764
G1 F2400 X38.499 Y-34.763 E3777.91719
G0 F18000 X38.999 Y-34.763
G1 F2400 X39 Y34.764 E3780.80778
G0 F18000 X39.5 Y34.764
G1 F2400 X39.5 Y26.189 E3781.16429
G0 F18000 X40 Y26.189
G1 F2400 X40 Y34.764 E3781.5208
G0 F18000 X40.5 Y34.764
G1 F2400 X40.5 Y26.189 E3781.8773
G0 F18000 X41 Y26.189
G1 F2400 X41 Y34.764 E3782.23381
G0 F18000 X41.5 Y34.764
G1 F2400 X41.5 Y26.189 E3782.59032
G0 F18000 X41.107 Y26.309
G1 F2400 X41.107 Y-26.303 E3784.77767
G0 F18000 X41 Y-26.183
G1 F2400 X40.999 Y-34.763 E3785.13439
G0 F18000 X40.499 Y-34.763
G1 F2400 X40.5 Y-26.183 E3785.4911
G0 F18000 X40 Y-26.183
G1 F2400 X39.999 Y-34.763 E3785.84782
G0 F18000 X39.499 Y-34.763
G1 F2400 X39.5 Y-26.182 E3786.20457
G0 F18000 X39.996 Y-26.303
G1 F2400 X39.996 Y26.309 E3788.39193
G0 F18000 X38.89 Y25.552
G1 F2400 X48.589 Y25.552 E3788.79516
G0 F18000 X48 Y26.189
G1 F2400 X48 Y34.764 E3789.15167
G0 F18000 X47.5 Y34.764
G1 F2400 X47.5 Y26.189 E3789.50818
G0 F18000 X47.773 Y26.309
G1 F2400 X47.773 Y-26.307 E3791.6957
G0 F18000 X48 Y-26.188
G1 F2400 X47.999 Y-34.762 E3792.05216
G0 F18000 X47.499 Y-34.762
G1 F2400 X47.5 Y-26.187 E3792.40867
G0 F18000 X47 Y-26.187
G1 F2400 X46.999 Y-34.762 E3792.76518
G0 F18000 X46.499 Y-34.762
G1 F2400 X46.5 Y-26.187 E3793.12168
G0 F18000 X46.662 Y-26.307
G1 F2400 X46.662 Y26.309 E3795.3092
G0 F18000 X46.5 Y26.189
G1 F2400 X46.5 Y34.764 E3795.66571
G0 F18000 X46 Y34.764
G1 F2400 X46 Y26.189 E3796.02222
G0 F18000 X45.551 Y26.309
G1 F2400 X45.551 Y-26.306 E3798.20969
G0 F18000 X45.5 Y-26.186
G1 F2400 X45.499 Y-34.762 E3798.56624
G0 F18000 X44.999 Y-34.762
G1 F2400 X45 Y-26.186 E3798.92279
G0 F18000 X44.5 Y-26.185
G1 F2400 X44.499 Y-34.762 E3799.27938
G0 F18000 X43.999 Y-34.762
G1 F2400 X44 Y-26.185 E3799.63597
G0 F18000 X44.44 Y-26.305
G1 F2400 X44.44 Y26.309 E3801.82341
G0 F18000 X44.5 Y26.189
G1 F2400 X44.5 Y34.764 E3802.17991
G0 F18000 X44 Y34.764
G1 F2400 X44 Y26.189 E3802.53642
G0 F18000 X43.5 Y26.189
G1 F2400 X43.5 Y34.764 E3802.89293
G0 F18000 X43 Y34.764
G1 F2400 X43 Y26.189 E3803.24944
G0 F18000 X43.329 Y26.309
G1 F2400 X43.329 Y-26.305 E3805.43687
G0 F18000 X43.5 Y-26.185
G1 F2400 X43.499 Y-34.762 E3805.79346
G0 F18000 X42.999 Y-34.762
G1 F2400 X43 Y-26.185 E3806.15005
G0 F18000 X42.5 Y-26.184
G1 F2400 X42.499 Y-34.762 E3806.50668
G0 F18000 X41.999 Y-34.762
G1 F2400 X42 Y-26.184 E3806.86332
G0 F18000 X42.218 Y-26.304
G1 F2400 X42.218 Y26.309 E3809.05071
G0 F18000 X42 Y26.189
G1 F2400 X42 Y34.764 E3809.40722
G0 F18000 X42.5 Y34.764
G1 F2400 X42.5 Y26.189 E3809.76372
G0 F18000 X45 Y26.189
G1 F2400 X45 Y34.764 E3810.12023
G0 F18000 X45.5 Y34.764
G1 F2400 X45.5 Y26.189 E3810.47674
G0 F18000 X47 Y26.189
G1 F2400 X47 Y34.764 E3810.83325
G0 F18000 X48.5 Y34.764
G1 F2400 X48.499 Y-34.762 E3813.7238
G0 F18000 X48.647 Y-34.926
G1 F2400 X48.697 Y-34.883 E3813.72446
G0 F18000 X48.739 Y-34.843
G1 F2400 X48.767 Y-34.859 E3813.72488
G0 F18000 X48.912 Y-34.681
G1 F2400 X48.896 Y-34.625 E3813.72549
G0 F18000 X45.999 Y-34.762
G1 F2400 X46 Y-26.186 E3814.08204
G0 F18000 X48.589 Y-25.553
G0 X48.589 Y-25.553
G1 F2400 X38.89 Y-25.553 E3814.48528
G0 F18000 X38.89 Y-24.442
G1 F2400 X48.589 Y-24.442 E3814.88851
G0 F18000 X48.589 Y-23.331
G1 F2400 X38.89 Y-23.331 E3815.29175
G0 F18000 X38.89 Y-22.22
G1 F2400 X48.589 Y-22.22 E3815.69499
G0 F18000 X48.589 Y-21.109
G1 F2400 X38.89 Y-21.109 E3816.09823
G0 F18000 X38.89 Y-19.998
G1 F2400 X48.589 Y-19.998 E3816.50146
G0 F18000 X48.589 Y-18.887
G1 F2400 X38.89 Y-18.887 E3816.9047
G0 F18000 X38.89 Y-17.776
G1 F2400 X48.589 Y-17.776 E3817.30794
G0 F18000 X48.589 Y-16.665
G1 F2400 X38.89 Y-16.665 E3817.71118
G0 F18000 X38.89 Y-15.554
G1 F2400 X48.589 Y-15.554 E3818.11441
G0 F18000 X48.589 Y-14.443
G1 F2400 X38.89 Y-14.443 E3818.51765
G0 F18000 X38.89 Y-13.332
G1 F2400 X48.589 Y-13.332 E3818.92089
G0 F18000 X48.589 Y-12.221
G1 F2400 X38.89 Y-12.221 E3819.32413
G0 F18000 X38.89 Y-11.11
G1 F2400 X48.589 Y-11.11 E3819.72736
G0 F18000 X48.589 Y-9.999
G1 F2400 X38.89 Y-9.999 E3820.1306
G0 F18000 X38.89 Y-8.888
G1 F2400 X48.589 Y-8.888 E3820.53384
G0 F18000 X48.589 Y-7.777
G1 F2400 X38.89 Y-7.777 E3820.93708
G0 F18000 X38.89 Y-6.666
G1 F2400 X48.589 Y-6.666 E3821.34031
G0 F18000 X48.589 Y-5.555
G1 F2400 X38.89 Y-5.555 E3821.74355
G0 F18000 X38.89 Y-4.444
G1 F2400 X48.589 Y-4.444 E3822.14679
G0 F18000 X48.589 Y-3.333
G1 F2400 X38.89 Y-3.333 E3822.55003
G0 F18000 X38.89 Y-2.222
G1 F2400 X48.589 Y-2.222 E3822.95326
G0 F18000 X48.589 Y-1.111
G1 F2400 X38.89 Y-1.111 E3823.3565
G0 F18000 X38.89 Y0
G1 F2400 X48.589 Y0 E3823.75974
G0 F18000 X48.589 Y1.11
G1 F2400 X38.89 Y1.11 E3824.16298
G0 F18000 X38.89 Y2.221
G1 F2400 X48.589 Y2.221 E3824.56622
G0 F18000 X48.589 Y3.332
G1 F2400 X38.89 Y3.332 E3824.96945
G0 F18000 X38.89 Y4.443
G1 F2400 X48.589 Y4.443 E3825.37269
G0 F18000 X48.589 Y5.554
G1 F2400 X38.89 Y5.554 E3825.77593
G0 F18000 X38.89 Y6.665
G1 F2400 X48.589 Y6.665 E3826.17917
G0 F18000 X48.589 Y7.776
G1 F2400 X38.89 Y7.776 E3826.5824
G0 F18000 X38.89 Y8.887
G1 F2400 X48.589 Y8.887 E3826.98564
G0 F18000 X48.589 Y9.998
G1 F2400 X38.89 Y9.998 E3827.38888
G0 F18000 X38.89 Y11.109
G1 F2400 X48.589 Y11.109 E3827.79212
G0 F18000 X48.589 Y12.22
G1 F2400 X38.89 Y12.22 E3828.19535
G0 F18000 X38.89 Y13.331
G1 F2400 X48.589 Y13.331 E3828.59859
G0 F18000 X48.589 Y14.442
G1 F2400 X38.89 Y14.442 E3829.00183
G0 F18000 X38.89 Y15.553
G1 F2400 X48.589 Y15.553 E3829.40507
G0 F18000 X48.589 Y16.664
G1 F2400 X38.89 Y16.664 E3829.8083
G0 F18000 X38.89 Y17.775
G1 F2400 X48.589 Y17.775 E3830.21154
G0 F18000 X48.589 Y18.886
G1 F2400 X38.89 Y18.886 E3830.61478
G0 F18000 X38.89 Y19.997
G1 F2400 X48.589 Y19.997 E3831.01802
G0 F18000 X48.589 Y21.108
G1 F2400 X38.89 Y21.108 E3831.42125
G0 F18000 X38.89 Y22.219
G1 F2400 X48.589 Y22.219 E3831.82449
G0 F18000 X48.589 Y23.33
G1 F2400 X38.89 Y23.33 E3832.22773
G0 F18000 X38.89 Y24.441
G1 F2400 X48.589 Y24.441 E3832.63097
G0 F18000 X48.888 Y34.635
G0 X48.888 Y34.635
G1 F2400 X48.913 Y34.681 E3832.63151
G0 F18000 X48.828 Y34.762
G1 F2400 X48.852 Y34.785 E3832.63183
G0 F18000 X48.768 Y34.866
G1 F2400 X48.721 Y34.848 E3832.63232
G0 F18000 X48.643 Y34.896
G1 F2400 X48.637 Y34.928 E3832.6328
G0 F18000 X41.5 Y-26.184
G0 X41.5 Y-26.184
G1 F2400 X41.499 Y-34.763 E3832.98947
G0 F18000 X41.499 Y-34.763 Z1.6
; Layer Change GCode
; LAYER:6
G0 X48.457 Y35.287 Z1.5
G0 X48.497 Y35.685
G0 X48.468 Y35.387
G0 X48.468 Y35.387
G0 X48.484 Y35.737
G0 X48.484 Y35.737
G0 X48.462 Y35.237
; TYPE:WALL-INNER
G1 F2400 X48.462 Y35.237 E3832.98947
G1 X-48.558 Y35.231 E3837.02309
G1 X-48.681 Y35.217 E3837.02824
G1 X-48.856 Y35.145 E3837.03611
G1 X-49.011 Y35.026 E3837.04423
G1 X-49.13 Y34.871 E3837.05235
G1 X-49.204 Y34.693 E3837.06037
G1 X-49.236 Y34.448 E3837.07064
G1 X-49.236 Y-34.447 E3839.93496
G1 X-49.204 Y-34.692 E3839.94524
G1 X-49.13 Y-34.87 E3839.95325
G1 X-49.011 Y-35.024 E3839.96134
G1 X-48.855 Y-35.145 E3839.96955
G1 X-48.693 Y-35.212 E3839.97684
G1 X-48.464 Y-35.235 E3839.98641
G1 X48.554 Y-35.23 E3844.01995
G1 X48.682 Y-35.215 E3844.0253
G1 X48.858 Y-35.143 E3844.03321
G1 X49.013 Y-35.024 E3844.04133
G1 X49.131 Y-34.87 E3844.0494
G1 X49.205 Y-34.692 E3844.05741
G1 X49.237 Y-34.447 E3844.06769
G1 X49.237 Y34.448 E3846.93201
G1 X49.205 Y34.693 E3846.94228
G1 X49.131 Y34.871 E3846.9503
G1 X49.013 Y35.026 E3846.95839
G1 X48.856 Y35.146 E3846.96661
G1 X48.694 Y35.213 E3846.9739
G1 X48.462 Y35.237 E3846.9836
G0 F18000 X48.484 Y35.737
; TYPE:WALL-OUTER
G1 F2100 X48.484 Y35.737 E3846.9836
G1 X-48.588 Y35.731 E3851.01938
G1 X-48.806 Y35.706 E3851.0285
G1 X-49.111 Y35.581 E3851.04221
G1 X-49.368 Y35.383 E3851.05569
G1 X-49.566 Y35.126 E3851.06918
G1 X-49.691 Y34.823 E3851.08281
G1 X-49.736 Y34.482 E3851.09711
G1 X-49.736 Y-34.481 E3853.96426
G1 X-49.691 Y-34.822 E3853.97856
G1 X-49.567 Y-35.122 E3853.99205
G1 X-49.368 Y-35.381 E3854.00563
G1 X-49.109 Y-35.58 E3854.01921
G1 X-48.816 Y-35.702 E3854.03241
G1 X-48.484 Y-35.735 E3854.04628
G1 X48.588 Y-35.73 E3858.08206
G1 X48.808 Y-35.704 E3858.09127
G1 X49.112 Y-35.579 E3858.10494
G1 X49.37 Y-35.381 E3858.11846
G1 X49.567 Y-35.125 E3858.13189
G1 X49.692 Y-34.822 E3858.14552
G1 X49.737 Y-34.481 E3858.15982
G1 X49.737 Y34.482 E3861.02697
G1 X49.692 Y34.823 E3861.04127
G1 X49.568 Y35.123 E3861.05476
G1 X49.369 Y35.382 E3861.06834
G1 X49.11 Y35.581 E3861.08192
G1 X48.817 Y35.703 E3861.09512
G1 X48.484 Y35.737 E3861.10903
G0 F18000 X48.681 Y34.947
; TYPE:FILL
G1 F2400 X48.641 Y34.917 E3861.10948
G0 F18000 X48.772 Y34.857
G1 F2400 X48.783 Y34.887 E3861.10982
G0 F18000 X48.873 Y34.797
G1 F2400 X48.847 Y34.775 E3861.11018
G0 F18000 X48.937 Y34.685
G1 F2400 X48.911 Y34.643 E3861.11073
G0 F18000 X48.787 Y34.5
G1 F2400 X-48.786 Y34.5 E3865.16734
G0 F18000 X-48.909 Y34.643
G1 F2400 X-48.936 Y34.685 E3865.16789
G0 F18000 X-48.846 Y34.775
G1 F2400 X-48.872 Y34.797 E3865.16825
G0 F18000 X-48.766 Y34.858
G1 F2400 X-48.782 Y34.887 E3865.16861
G0 F18000 X-48.685 Y34.914
G1 F2400 X-48.676 Y34.948 E3865.16895
G0 F18000 X-48.796 Y34
G1 F2400 X48.797 Y34 E3869.2264
G0 F18000 X48.797 Y33.5
G1 F2400 X-48.796 Y33.5 E3873.28384
G0 F18000 X-48.796 Y33
G1 F2400 X48.797 Y33 E3877.34129
G0 F18000 X48.797 Y32.499
G1 F2400 X-48.796 Y32.5 E3881.39873
G0 F18000 X-48.796 Y32
G1 F2400 X48.797 Y31.999 E3885.45618
G0 F18000 X48.797 Y31.499
G1 F2400 X-48.796 Y31.5 E3889.51362
G0 F18000 X-48.796 Y31
G1 F2400 X48.797 Y30.999 E3893.57107
G0 F18000 X48.797 Y30.499
G1 F2400 X-48.796 Y30.5 E3897.62851
G0 F18000 X-48.796 Y30
G1 F2400 X48.797 Y29.999 E3901.68596
G0 F18000 X48.797 Y29.499
G1 F2400 X-48.796 Y29.5 E3905.74341
G0 F18000 X-48.796 Y29
G1 F2400 X48.797 Y28.999 E3909.80085
G0 F18000 X48.797 Y28.499
G1 F2400 X-48.796 Y28.5 E3913.8583
G0 F18000 X-48.796 Y28
G1 F2400 X48.797 Y27.999 E3917.91574
G0 F18000 X48.797 Y27.499
G1 F2400 X-48.796 Y27.5 E3921.97319
G0 F18000 X-48.796 Y27
G1 F2400 X48.797 Y26.999 E3926.03063
G0 F18000 X48.797 Y26.499
G1 F2400 X-48.796 Y26.5 E3930.08808
G0 F18000 X-48.796 Y26
G1 F2400 X39.01 Y25.999 E3933.73863
G0 F18000 X38.89 Y25.552
G1 F2400 X48.797 Y25.552 E3934.15051
G0 F18000 X48.797 Y24.441
G1 F2400 X38.89 Y24.441 E3934.5624
G0 F18000 X39.01 Y24.499
G1 F2400 X-48.796 Y24.5 E3938.21295
G0 F18000 X-48.796 Y24
G1 F2400 X39.01 Y23.999 E3941.8635
G0 F18000 X39.01 Y23.499
G1 F2400 X-48.796 Y23.5 E3945.51405
G0 F18000 X-48.796 Y23
G1 F2400 X39.01 Y22.999 E3949.1646
G0 F18000 X38.89 Y23.33
G1 F2400 X48.797 Y23.33 E3949.57648
G0 F18000 X48.797 Y22.219
G1 F2400 X38.89 Y22.219 E3949.98837
G0 F18000 X39.01 Y21.999
G1 F2400 X-48.796 Y22 E3953.63892
G0 F18000 X-48.796 Y21.5
G1 F2400 X39.01 Y21.499 E3957.28946
G0 F18000 X38.89 Y21.108
G1 F2400 X48.797 Y21.108 E3957.70135
G0 F18000 X48.797 Y19.997
G1 F2400 X38.89 Y19.997 E3958.11323
G0 F18000 X39.01 Y19.999
G1 F2400 X-48.796 Y20 E3961.76378
G0 F18000 X-48.796 Y19.5
G1 F2400 X39.01 Y19.499 E3965.41433
G0 F18000 X39.01 Y18.999
G1 F2400 X-48.796 Y19 E3969.06488
G0 F18000 X-48.796 Y18.5
G1 F2400 X39.01 Y18.499 E3972.71543
G0 F18000 X38.89 Y18.886
G1 F2400 X48.797 Y18.886 E3973.12732
G0 F18000 X48.797 Y17.775
G1 F2400 X38.89 Y17.775 E3973.5392
G0 F18000 X39.01 Y17.999
G1 F2400 X-48.796 Y18 E3977.18975
G0 F18000 X-48.796 Y17.5
G1 F2400 X39.01 Y17.499 E3980.8403
G0 F18000 X39.01 Y16.999
G1 F2400 X-48.796 Y17 E3984.49085
G0 F18000 X-48.796 Y16.5
G1 F2400 X39.01 Y16.499 E3988.1414
G0 F18000 X38.89 Y16.664
G1 F2400 X48.797 Y16.664 E3988.55328
G0 F18000 X48.797 Y15.553
G1 F2400 X38.89 Y15.553 E3988.96517
G0 F18000 X39.01 Y15.499
G1 F2400 X-48.796 Y15.5 E3992.61572
G0 F18000 X-48.796 Y15
G1 F2400 X39.01 Y14.999 E3996.26627
G0 F18000 X39.01 Y14.499
G1 F2400 X-48.796 Y14.5 E3999.91682
G0 F18000 X-48.796 Y14
G1 F2400 X39.01 Y13.999 E4003.56737
G0 F18000 X38.89 Y14.442
G1 F2400 X48.797 Y14.442 E4003.97925
G0 F18000 X48.797 Y13.331
G1 F2400 X38.89 Y13.331 E4004.39114
G0 F18000 X39.01 Y13.499
G1 F2400 X-48.796 Y13.5 E4008.04169
G0 F18000 X-48.796 Y13
G1 F2400 X39.01 Y12.999 E4011.69224
G0 F18000 X39.01 Y12.499
G1 F2400 X-48.796 Y12.5 E4015.34278
G0 F18000 X-48.796 Y12
G1 F2400 X39.01 Y11.999 E4018.99333
G0 F18000 X38.89 Y12.22
G1 F2400 X48.797 Y12.22 E4019.40522
G0 F18000 X48.797 Y11.109
G1 F2400 X38.89 Y11.109 E4019.8171
G0 F18000 X39.01 Y10.999
G1 F2400 X-48.796 Y11 E4023.46765
G0 F18000 X-48.796 Y10.5
G1 F2400 X39.01 Y10.499 E4027.1182
G0 F18000 X39.01 Y9.999
G1 F2400 X-48.796 Y10 E4030.76875
G0 F18000 X-48.796 Y9.5
G1 F2400 X39.01 Y9.499 E4034.4193
G0 F18000 X39.01 Y8.999
G1 F2400 X-48.796 Y9 E4038.06985
G0 F18000 X-48.796 Y8.5
G1 F2400 X39.01 Y8.499 E4041.7204
G0 F18000 X38.89 Y8.887
G1 F2400 X48.797 Y8.887 E4042.13229
G0 F18000 X48.797 Y9.998
G1 F2400 X38.89 Y9.998 E4042.54417
G0 F18000 X39.01 Y11.499
G1 F2400 X-48.796 Y11.5 E4046.19472
G0 F18000 X-48.796 Y8
G1 F2400 X39.01 Y7.999 E4049.84527
G0 F18000 X38.89 Y7.776
G1 F2400 X48.797 Y7.776 E4050.25715
G0 F18000 X48.797 Y6.665
G1 F2400 X38.89 Y6.665 E4050.66904
G0 F18000 X39.01 Y6.499
G1 F2400 X-48.796 Y6.5 E4054.31959
G0 F18000 X-48.796 Y6
G1 F2400 X39.01 Y5.999 E4057.97014
G0 F18000 X38.89 Y5.554
G1 F2400 X48.797 Y5.554 E4058.38202
G0 F18000 X48.797 Y4.443
G1 F2400 X38.89 Y4.443 E4058.79391
G0 F18000 X39.01 Y4.499
G1 F2400 X-48.796 Y4.5 E4062.44446
G0 F18000 X-48.796 Y4
G1 F2400 X39.01 Y3.999 E4066.09501
G0 F18000 X39.01 Y3.499
G1 F2400 X-48.796 Y3.5 E4069.74556
G0 F18000 X-48.796 Y3
G1 F2400 X39.01 Y2.999 E4073.39611
G0 F18000 X38.89 Y3.332
G1 F2400 X48.797 Y3.332 E4073.80799
G0 F18000 X48.797 Y2.221
G1 F2400 X38.89 Y2.221 E4074.21988
G0 F18000 X39.01 Y1.999
G1 F2400 X-48.796 Y2 E4077.87043
G0 F18000 X-48.796 Y1.5
G1 F2400 X39.01 Y1.499 E4081.52097
G0 F18000 X38.89 Y1.11
G1 F2400 X48.797 Y1.11 E4081.93286
G0 F18000 X48.797 Y0
G1 F2400 X38.89 Y0 E4082.34474
G0 F18000 X39.01 Y0
G1 F2400 X-48.796 Y0 E4085.99529
G0 F18000 X-48.796 Y-0.499
G1 F2400 X39.01 Y-0.5 E4089.64584
G0 F18000 X39.01 Y-1
G1 F2400 X-48.796 Y-0.999 E4093.29639
G0 F18000 X-48.796 Y-1.499
G1 F2400 X39.01 Y-1.5 E4096.94694
G0 F18000 X38.89 Y-1.111
G1 F2400 X48.797 Y-1.111 E4097.35883
G0 F18000 X48.797 Y-2.222
G1 F2400 X38.89 Y-2.222 E4097.77071
G0 F18000 X39.01 Y-2
G1 F2400 X-48.796 Y-1.999 E4101.42126
G0 F18000 X-48.796 Y-2.499
G1 F2400 X39.01 Y-2.5 E4105.07181
G0 F18000 X39.01 Y-3
G1 F2400 X-48.796 Y-2.999 E4108.72236
G0 F18000 X-48.796 Y-3.499
G1 F2400 X39.01 Y-3.5 E4112.37291
G0 F18000 X38.89 Y-3.333
G1 F2400 X48.797 Y-3.333 E4112.78479
G0 F18000 X48.797 Y-4.444
G1 F2400 X38.89 Y-4.444 E4113.19668
G0 F18000 X39.01 Y-4.5
G1 F2400 X-48.796 Y-4.499 E4116.84723
G0 F18000 X-48.796 Y-4.999
G1 F2400 X39.01 Y-5 E4120.49778
G0 F18000 X39.01 Y-5.5
G1 F2400 X-48.796 Y-5.499 E4124.14833
G0 F18000 X-48.796 Y-5.999
G1 F2400 X39.01 Y-6 E4127.79888
G0 F18000 X38.89 Y-5.555
G1 F2400 X48.797 Y-5.555 E4128.21076
G0 F18000 X48.797 Y-6.666
G1 F2400 X38.89 Y-6.666 E4128.62265
G0 F18000 X39.01 Y-6.5
G1 F2400 X-48.796 Y-6.499 E4132.2732
G0 F18000 X-48.796 Y-6.999
G1 F2400 X39.01 Y-7 E4135.92375
G0 F18000 X39.01 Y-7.5
G1 F2400 X-48.796 Y-7.499 E4139.5743
G0 F18000 X-48.796 Y-7.999
G1 F2400 X39.01 Y-8 E4143.22484
G0 F18000 X38.89 Y-7.777
G1 F2400 X48.797 Y-7.777 E4143.63673
G0 F18000 X48.797 Y-8.888
G1 F2400 X38.89 Y-8.888 E4144.04861
G0 F18000 X39.01 Y-9
G1 F2400 X-48.796 Y-8.999 E4147.69916
G0 F18000 X-48.796 Y-9.499
G1 F2400 X39.01 Y-9.5 E4151.34971
G0 F18000 X39.01 Y-10
G1 F2400 X-48.796 Y-9.999 E4155.00026
G0 F18000 X-48.796 Y-10.499
G1 F2400 X39.01 Y-10.5 E4158.65081
G0 F18000 X39.01 Y-11
G1 F2400 X-48.796 Y-10.999 E4162.30136
G0 F18000 X-48.796 Y-11.499
G1 F2400 X39.01 Y-11.5 E4165.95191
G0 F18000 X38.89 Y-11.11
G1 F2400 X48.797 Y-11.11 E4166.3638
G0 F18000 X48.797 Y-9.999
G1 F2400 X38.89 Y-9.999 E4166.77568
G0 F18000 X39.01 Y-8.5
G1 F2400 X-48.796 Y-8.499 E4170.42623
G0 F18000 X-48.796 Y-11.999
G1 F2400 X39.01 Y-12 E4174.07678
G0 F18000 X38.89 Y-12.221
G1 F2400 X48.797 Y-12.221 E4174.48866
G0 F18000 X48.797 Y-13.332
G1 F2400 X38.89 Y-13.332 E4174.90055
G0 F18000 X39.01 Y-13.5
G1 F2400 X-48.796 Y-13.499 E4178.5511
G0 F18000 X-48.796 Y-13.999
G1 F2400 X39.01 Y-14 E4182.20165
G0 F18000 X38.89 Y-14.443
G1 F2400 X48.797 Y-14.443 E4182.61353
G0 F18000 X48.797 Y-15.554
G1 F2400 X38.89 Y-15.554 E4183.02542
G0 F18000 X39.01 Y-15.5
G1 F2400 X-48.796 Y-15.499 E4186.67597
G0 F18000 X-48.796 Y-15.999
G1 F2400 X39.01 Y-16 E4190.32652
G0 F18000 X39.01 Y-16.5
G1 F2400 X-48.796 Y-16.499 E4193.97707
G0 F18000 X-48.796 Y-16.999
G1 F2400 X39.01 Y-17 E4197.62762
G0 F18000 X38.89 Y-16.665
G1 F2400 X48.797 Y-16.665 E4198.0395
G0 F18000 X48.797 Y-17.776
G1 F2400 X38.89 Y-17.776 E4198.45139
G0 F18000 X39.01 Y-18
G1 F2400 X-48.796 Y-17.999 E4202.10194
G0 F18000 X-48.796 Y-18.499
G1 F2400 X39.01 Y-18.5 E4205.75248
G0 F18000 X38.89 Y-18.887
G1 F2400 X48.797 Y-18.887 E4206.16437
G0 F18000 X48.797 Y-19.998
G1 F2400 X38.89 Y-19.998 E4206.57626
G0 F18000 X39.01 Y-20
G1 F2400 X-48.796 Y-19.999 E4210.2268
G0 F18000 X-48.796 Y-20.499
G1 F2400 X39.01 Y-20.5 E4213.87735
G0 F18000 X39.01 Y-21
G1 F2400 X-48.796 Y-20.999 E4217.5279
G0 F18000 X-48.796 Y-21.499
G1 F2400 X39.01 Y-21.5 E4221.17845
G0 F18000 X38.89 Y-21.109
G1 F2400 X48.797 Y-21.109 E4221.59034
G0 F18000 X48.797 Y-22.22
G1 F2400 X38.89 Y-22.22 E4222.00222
G0 F18000 X39.01 Y-22
G1 F2400 X-48.796 Y-21.999 E4225.65277
G0 F18000 X-48.796 Y-22.499
G1 F2400 X39.01 Y-22.5 E4229.30332
G0 F18000 X39.01 Y-23
G1 F2400 X-48.796 Y-22.999 E4232.95387
G0 F18000 X-48.796 Y-23.499
G1 F2400 X39.01 Y-23.5 E4236.60442
G0 F18000 X38.89 Y-23.331
G1 F2400 X48.797 Y-23.331 E4237.01631
G0 F18000 X48.797 Y-24.442
G1 F2400 X38.89 Y-24.442 E4237.42819
G0 F18000 X39.01 Y-24.5
G1 F2400 X-48.796 Y-24.499 E4241.07874
G0 F18000 X-48.796 Y-24.999
G1 F2400 X39.01 Y-25 E4244.72929
G0 F18000 X39.01 Y-25.5
G1 F2400 X-48.796 Y-25.499 E4248.37984
G0 F18000 X-48.796 Y-25.999
G1 F2400 X39.01 Y-26 E4252.03039
G0 F18000 X38.89 Y-25.553
G1 F2400 X48.797 Y-25.553 E4252.44227
G0 F18000 X48.797 Y-26.5
G1 F2400 X-48.796 Y-26.499 E4256.49972
G0 F18000 X-48.796 Y-26.999
G1 F2400 X48.797 Y-27 E4260.55716
G0 F18000 X48.797 Y-27.5
G1 F2400 X-48.796 Y-27.499 E4264.61461
G0 F18000 X-48.796 Y-27.999
G1 F2400 X48.797 Y-28 E4268.67205
G0 F18000 X48.797 Y-28.5
G1 F2400 X-48.796 Y-28.499 E4272.7295
G0 F18000 X-48.796 Y-28.999
G1 F2400 X48.797 Y-29 E4276.78695
G0 F18000 X48.797 Y-29.5
G1 F2400 X-48.796 Y-29.499 E4280.84439
G0 F18000 X-48.796 Y-29.999
G1 F2400 X48.797 Y-30 E4284.90184
G0 F18000 X48.797 Y-30.5
G1 F2400 X-48.796 Y-30.499 E4288.95928
G0 F18000 X-48.796 Y-30.999
G1 F2400 X48.797 Y-31 E4293.01673
G0 F18000 X48.797 Y-31.5
G1 F2400 X-48.796 Y-31.499 E4297.07417
G0 F18000 X-48.796 Y-31.999
G1 F2400 X48.797 Y-32 E4301.13162
G0 F18000 X48.797 Y-32.5
G1 F2400 X-48.796 Y-32.499 E4305.18906
G0 F18000 X-48.796 Y-33
G1 F2400 X48.797 Y-33 E4309.24651
G0 F18000 X48.797 Y-33.5
G1 F2400 X-48.796 Y-33.5 E4313.30395
G0 F18000 X-48.796 Y-34
G1 F2400 X48.797 Y-34 E4317.3614
G0 F18000 X48.786 Y-34.5
G1 F2400 X-48.785 Y-34.5 E4321.41793
G0 F18000 X-48.909 Y-34.641
G1 F2400 X-48.937 Y-34.683 E4321.41848
G0 F18000 X-48.872 Y-34.794
G1 F2400 X-48.845 Y-34.775 E4321.41883
G0 F18000 X-48.772 Y-34.855
G1 F2400 X-48.78 Y-34.886 E4321.41918
G0 F18000 X-48.68 Y-34.947
G1 F2400 X-48.641 Y-34.915 E4321.41962
G0 F18000 X-48.796 Y-23.999
G0 X-48.796 Y-23.999
G1 F2400 X39.01 Y-24 E4325.07017
G0 F18000 X39.996 Y-26.303
G1 F2400 X39.996 Y26.309 E4327.25752
G0 F18000 X41.107 Y26.309
G1 F2400 X41.107 Y-26.303 E4329.44487
G0 F18000 X42.218 Y-26.304
G1 F2400 X42.218 Y26.309 E4331.63227
G0 F18000 X43.329 Y26.309
G1 F2400 X43.329 Y-26.305 E4333.8197
G0 F18000 X44.44 Y-26.305
G1 F2400 X44.44 Y26.309 E4336.00714
G0 F18000 X45.551 Y26.309
G1 F2400 X45.551 Y-26.306 E4338.19462
G0 F18000 X46.662 Y-26.307
G1 F2400 X46.662 Y26.309 E4340.38214
G0 F18000 X47.773 Y26.309
G1 F2400 X47.773 Y-26.307 E4342.56965
G0 F18000 X48.911 Y-34.641
G0 X48.911 Y-34.641
G1 F2400 X48.937 Y-34.684 E4342.57021
G0 F18000 X48.848 Y-34.773
G1 F2400 X48.873 Y-34.796 E4342.57057
G0 F18000 X48.765 Y-34.858
G1 F2400 X48.784 Y-34.885 E4342.57092
G0 F18000 X48.688 Y-34.913
G1 F2400 X48.676 Y-34.947 E4342.57129
G0 F18000 X39.01 Y-19.5
G1 F2400 X-48.796 Y-19.499 E4346.22184
G0 F18000 X-48.796 Y-18.999
G1 F2400 X39.01 Y-19 E4349.87238
G0 F18000 X39.01 Y-17.5
G1 F2400 X-48.796 Y-17.499 E4353.52293
G0 F18000 X-48.796 Y-14.999
G1 F2400 X39.01 Y-15 E4357.17348
G0 F18000 X39.01 Y-14.5
G1 F2400 X-48.796 Y-14.499 E4360.82403
G0 F18000 X-48.796 Y-12.999
G1 F2400 X39.01 Y-13 E4364.47458
G0 F18000 X39.01 Y-12.5
G1 F2400 X-48.796 Y-12.499 E4368.12513
G0 F18000 X-48.796 Y-3.999
G1 F2400 X39.01 Y-4 E4371.77568
G0 F18000 X39.01 Y0.499
G1 F2400 X-48.796 Y0.5 E4375.42623
G0 F18000 X-48.796 Y1
G1 F2400 X39.01 Y0.999 E4379.07678
G0 F18000 X39.01 Y2.499
G1 F2400 X-48.796 Y2.5 E4382.72733
G0 F18000 X-48.796 Y5
G1 F2400 X39.01 Y4.999 E4386.37788
G0 F18000 X39.01 Y5.499
G1 F2400 X-48.796 Y5.5 E4390.02843
G0 F18000 X-48.796 Y7
G1 F2400 X39.01 Y6.999 E4393.67898
G0 F18000 X39.01 Y7.499
G1 F2400 X-48.796 Y7.5 E4397.32953
G0 F18000 X-48.796 Y16
G1 F2400 X39.01 Y15.999 E4400.98007
G0 F18000 X39.01 Y20.499
G1 F2400 X-48.796 Y20.5 E4404.63062
G0 F18000 X-48.796 Y21
G1 F2400 X39.01 Y20.999 E4408.28117
G0 F18000 X39.01 Y22.499
G1 F2400 X-48.796 Y22.5 E4411.93172
G0 F18000 X-48.796 Y25
G1 F2400 X39.01 Y24.999 E4415.58227
G0 F18000 X39.01 Y25.499
G1 F2400 X-48.796 Y25.5 E4419.23282
G0 F18000 X-48.796 Y25.5 Z1.8
; Layer Change GCode
; LAYER:7
G0 X-48.46 Y35.4 Z1.7
G0 X-48.46 Y35.4
G0 X-48.481 Y35.75
G0 X-48.481 Y35.75
G0 X-48.447 Y35.25
; TYPE:WALL-INNER
G1 F2400 X-48.447 Y35.25 E4419.23282
G1 X-48.692 Y35.218 E4419.24309
G1 X-48.87 Y35.144 E4419.25111
G1 X-49.024 Y35.026 E4419.25917
G1 X-49.143 Y34.871 E4419.2673
G1 X-49.217 Y34.694 E4419.27527
G1 X-49.249 Y34.449 E4419.28555
G1 X-49.249 Y-34.447 E4422.14991
G1 X-49.217 Y-34.691 E4422.16014
G1 X-49.143 Y-34.869 E4422.16816
G1 X-49.024 Y-35.024 E4422.17628
G1 X-48.87 Y-35.143 E4422.18437
G1 X-48.692 Y-35.217 E4422.19239
G1 X-48.45 Y-35.248 E4422.20253
G1 X48.451 Y-35.248 E4426.2312
G1 X48.693 Y-35.217 E4426.24135
G1 X48.872 Y-35.143 E4426.2494
G1 X49.026 Y-35.024 E4426.25749
G1 X49.144 Y-34.87 E4426.26556
G1 X49.216 Y-34.696 E4426.27339
G1 X49.25 Y-34.415 E4426.28515
G1 X49.25 Y34.448 E4429.14815
G1 X49.218 Y34.692 E4429.15838
G1 X49.144 Y34.87 E4429.16639
G1 X49.024 Y35.028 E4429.17464
G1 X48.874 Y35.142 E4429.18247
G1 X48.693 Y35.218 E4429.19063
G1 X48.449 Y35.25 E4429.20087
G1 X-48.447 Y35.25 E4433.22933
G0 F18000 X-48.481 Y35.75
; TYPE:WALL-OUTER
G1 F2100 X-48.481 Y35.75 E4433.22933
G1 X-48.822 Y35.705 E4433.24363
G1 X-49.125 Y35.58 E4433.25726
G1 X-49.381 Y35.383 E4433.27069
G1 X-49.578 Y35.126 E4433.28415
G1 X-49.704 Y34.824 E4433.29776
G1 X-49.749 Y34.483 E4433.31206
G1 X-49.749 Y-34.481 E4436.17925
G1 X-49.704 Y-34.821 E4436.19351
G1 X-49.579 Y-35.124 E4436.20713
G1 X-49.383 Y-35.378 E4436.22047
G1 X-49.122 Y-35.58 E4436.23419
G1 X-48.822 Y-35.704 E4436.24769
G1 X-48.483 Y-35.748 E4436.2619
G1 X48.484 Y-35.748 E4440.29332
G1 X48.824 Y-35.704 E4440.30757
G1 X49.126 Y-35.579 E4440.32116
G1 X49.383 Y-35.381 E4440.33465
G1 X49.58 Y-35.125 E4440.34808
G1 X49.705 Y-34.822 E4440.36171
G1 X49.75 Y-34.449 E4440.37733
G1 X49.75 Y34.482 E4443.24315
G1 X49.705 Y34.822 E4443.2574
G1 X49.581 Y35.122 E4443.2709
G1 X49.381 Y35.384 E4443.2846
G1 X49.126 Y35.58 E4443.29798
G1 X48.824 Y35.705 E4443.31156
G1 X48.483 Y35.75 E4443.32586
G1 X-48.481 Y35.75 E4447.35716
G0 F18000 X-48.684 Y34.95
; TYPE:FILL
G1 F2400 X-48.641 Y34.924 E4447.35772
G0 F18000 X-48.773 Y34.861
G1 F2400 X-48.796 Y34.886 E4447.35807
G0 F18000 X-48.885 Y34.797
G1 F2400 X-48.86 Y34.775 E4447.35843
G0 F18000 X-48.949 Y34.685
G1 F2400 X-48.922 Y34.643 E4447.35897
G0 F18000 X-48.499 Y34.798
G1 F2400 X-48.5 Y-34.797 E4450.25239
G0 F18000 X-48.64 Y-34.921
G1 F2400 X-48.685 Y-34.949 E4450.25294
G0 F18000 X-48.795 Y-34.885
G1 F2400 X-48.775 Y-34.859 E4450.2533
G0 F18000 X-48.858 Y-34.774
