; Generated with MatterSlice 1.0
; filamentDiameter = 1.75
; extrusionWidth = 0.5
; firstLayerExtrusionWidth = 0.4
; layerThickness = 0.2
; firstLayerThickness = 0.3
; automatic settings before start_gcode
G21 ; set units to millimeters
M107 ; fan off
T0 ; set the active extruder to 0
; settings from start_gcode
M104 S218
M190 S50
M109 S218
G28
; automatic settings after start_gcode
T0 ; set the active extruder to 0
G90 ; use absolute coordinates
G92 E0 ; reset the expected extruder position
M82 ; use absolute distance for extrusion
; Layer count: 75
; Layer Change GCode
; LAYER:0
G4 P0
M107
G0 F18000 X54.35 Y-13.312 Z0.6
; TYPE:SKIRT
G1 Z0.3
G1 F6600 E0
G1 F720 X54.35 Y12.931 E1.30927
G1 X53.485 Y39.6 E2.64049
G1 X-53.484 Y39.6 E7.9772
G1 X-54.349 Y12.931 E9.30842
G1 X-54.349 Y-13.312 E10.61769
G1 X-53.482 Y-39.599 E11.92986
G1 X53.483 Y-39.599 E17.26637
G1 X54.35 Y-13.312 E18.57854
G0 F18000 X53.95 Y-13.306
G1 F720 X53.95 Y12.925 E19.88721
G1 X53.098 Y39.2 E21.19877
G1 X-53.097 Y39.2 E26.49686
G1 X-53.949 Y12.925 E27.80841
G1 X-53.949 Y-13.306 E29.11708
G1 X-53.095 Y-39.199 E30.40959
G1 X53.096 Y-39.199 E35.70748
G1 X53.95 Y-13.306 E36.99999
G1 F6600 E30.19999
G1 Z0.6
G0 F18000 X-49.799 Y35.8
; TYPE:WALL-OUTER
G1 Z0.3
G1 F6600 E37.09999
G1 F720 X-49.799 Y35.8 E37.09999
G1 X-49.799 Y12.073 E38.28374
G1 X49.8 Y12.073 E43.25275
G1 X49.8 Y35.8 E44.4365
G1 X-49.799 Y35.8 E49.40551
G0 F18000 X-49.399 Y35.4
; TYPE:WALL-INNER
G1 F720 X-49.399 Y35.4 E49.40551
G1 X-49.399 Y12.473 E50.54934
G1 X49.4 Y12.473 E55.47844
G1 X49.4 Y35.4 E56.62228
G1 X-49.399 Y35.4 E61.55138
G0 F18000 X-49.059 Y34.8
; TYPE:BOTTOM-FILL
G1 F720 X49.06 Y34.8 E66.44656
G0 F18000 X49.06 Y34.4
G1 F720 X-49.059 Y34.4 E71.34173
G0 F18000 X-49.059 Y34
G1 F720 X49.06 Y34 E76.23691
G0 F18000 X49.06 Y33.6
G1 F720 X-49.059 Y33.6 E81.13209
G0 F18000 X-49.059 Y33.2
G1 F720 X49.06 Y33.2 E86.02726
G0 F18000 X49.06 Y32.8
G1 F720 X-49.059 Y32.8 E90.92244
G0 F18000 X-49.059 Y32.4
G1 F720 X49.06 Y32.399 E95.81762
G0 F18000 X49.06 Y31.999
G1 F720 X-49.059 Y32 E100.71279
G0 F18000 X-49.059 Y31.6
G1 F720 X49.06 Y31.599 E105.60797
G0 F18000 X49.06 Y31.199
G1 F720 X-49.059 Y31.2 E110.50315
G0 F18000 X-49.059 Y30.8
G1 F720 X49.06 Y30.799 E115.39832
G0 F18000 X49.06 Y30.399
G1 F720 X-49.059 Y30.4 E120.2935
G0 F18000 X-49.059 Y30
G1 F720 X49.06 Y29.999 E125.18868
G0 F18000 X49.06 Y29.599
G1 F720 X-49.059 Y29.6 E130.08385
G0 F18000 X-49.059 Y29.2
G1 F720 X49.06 Y29.199 E134.97903
G0 F18000 X49.06 Y28.799
G1 F720 X-49.059 Y28.8 E139.87421
G0 F18000 X-49.059 Y28.4
G1 F720 X49.06 Y28.399 E144.76939
G0 F18000 X49.06 Y27.999
G1 F720 X-49.059 Y28 E149.66456
G0 F18000 X-49.059 Y27.6
G1 F720 X49.06 Y27.599 E154.55974
G0 F18000 X49.06 Y27.199
G1 F720 X-49.059 Y27.2 E159.45492
G0 F18000 X-49.059 Y26.8
G1 F720 X49.06 Y26.799 E164.35009
G0 F18000 X49.06 Y26.399
G1 F720 X-49.059 Y26.4 E169.24527
G0 F18000 X-49.059 Y26
G1 F720 X49.06 Y25.999 E174.14045
G0 F18000 X49.06 Y25.599
G1 F720 X-49.059 Y25.6 E179.03562
G0 F18000 X-49.059 Y25.2
G1 F720 X49.06 Y25.199 E183.9308
G0 F18000 X49.06 Y24.799
G1 F720 X-49.059 Y24.8 E188.82598
G0 F18000 X-49.059 Y24.4
G1 F720 X49.06 Y24.399 E193.72115
G0 F18000 X49.06 Y23.999
G1 F720 X-49.059 Y24 E198.61633
G0 F18000 X-49.059 Y23.6
G1 F720 X49.06 Y23.599 E203.51151
G0 F18000 X49.06 Y23.199
G1 F720 X-49.059 Y23.2 E208.40668
G0 F18000 X-49.059 Y22.8
G1 F720 X49.06 Y22.799 E213.30186
G0 F18000 X49.06 Y22.399
G1 F720 X-49.059 Y22.4 E218.19704
G0 F18000 X-49.059 Y22
G1 F720 X49.06 Y21.999 E223.09221
G0 F18000 X49.06 Y21.599
G1 F720 X-49.059 Y21.6 E227.98739
G0 F18000 X-49.059 Y21.2
G1 F720 X49.06 Y21.199 E232.88257
G0 F18000 X49.06 Y20.799
G1 F720 X-49.059 Y20.8 E237.77774
G0 F18000 X-49.059 Y20.4
G1 F720 X49.06 Y20.399 E242.67292
G0 F18000 X49.06 Y19.999
G1 F720 X-49.059 Y20 E247.5681
G0 F18000 X-49.059 Y19.6
G1 F720 X49.06 Y19.599 E252.46327
G0 F18000 X49.06 Y19.199
G1 F720 X-49.059 Y19.2 E257.35845
G0 F18000 X-49.059 Y18.8
G1 F720 X49.06 Y18.799 E262.25363
G0 F18000 X49.06 Y18.399
G1 F720 X-49.059 Y18.4 E267.1488
G0 F18000 X-49.059 Y18
G1 F720 X49.06 Y17.999 E272.04398
G0 F18000 X49.06 Y17.599
G1 F720 X-49.059 Y17.6 E276.93916
G0 F18000 X-49.059 Y17.2
G1 F720 X49.06 Y17.199 E281.83434
G0 F18000 X49.06 Y16.799
G1 F720 X-49.059 Y16.8 E286.72951
G0 F18000 X-49.059 Y16.4
G1 F720 X49.06 Y16.399 E291.62469
G0 F18000 X49.06 Y15.999
G1 F720 X-49.059 Y16 E296.51987
G0 F18000 X-49.059 Y15.6
G1 F720 X49.06 Y15.599 E301.41504
G0 F18000 X49.06 Y15.199
G1 F720 X-49.059 Y15.2 E306.31022
G0 F18000 X-49.059 Y14.8
G1 F720 X49.06 Y14.799 E311.2054
G0 F18000 X49.06 Y14.399
G1 F720 X-49.059 Y14.4 E316.10057
G0 F18000 X-49.059 Y14
G1 F720 X49.06 Y13.999 E320.99575
G0 F18000 X49.06 Y13.599
G1 F720 X-49.059 Y13.6 E325.89093
G0 F18000 X-49.059 Y13.2
G1 F720 X49.06 Y13.199 E330.7861
G1 F6600 E323.9861
G1 Z0.6
G0 F18000 X-49.799 Y-12.453
; TYPE:WALL-OUTER
G1 Z0.3
G1 F6600 E330.8861
G1 F720 X-49.799 Y-12.453 E330.8861
G1 X-49.799 Y-35.799 E332.05084
G1 X49.8 Y-35.799 E337.01985
G1 X49.8 Y-12.453 E338.18459
G1 X-49.799 Y-12.453 E343.1536
G0 F18000 X-49.399 Y-12.853
; TYPE:WALL-INNER
G1 F720 X-49.399 Y-12.853 E343.1536
G1 X-49.399 Y-35.399 E344.27843
G1 X49.4 Y-35.399 E349.20753
G1 X49.4 Y-12.853 E350.33236
G1 X-49.399 Y-12.853 E355.26146
G0 F18000 X-49.059 Y-13.199
; TYPE:BOTTOM-FILL
G1 F720 X49.06 Y-13.2 E360.15663
G0 F18000 X49.06 Y-13.6
G1 F720 X-49.059 Y-13.599 E365.05181
G0 F18000 X-49.059 Y-13.999
G1 F720 X49.06 Y-14 E369.94699
G0 F18000 X49.06 Y-14.4
G1 F720 X-49.059 Y-14.399 E374.84217
G0 F18000 X-49.059 Y-14.799
G1 F720 X49.06 Y-14.8 E379.73734
G0 F18000 X49.06 Y-15.2
G1 F720 X-49.059 Y-15.199 E384.63252
G0 F18000 X-49.059 Y-15.599
G1 F720 X49.06 Y-15.6 E389.5277
G0 F18000 X49.06 Y-16
G1 F720 X-49.059 Y-15.999 E394.42287
G0 F18000 X-49.059 Y-16.399
G1 F720 X49.06 Y-16.4 E399.31805
G0 F18000 X49.06 Y-16.8
G1 F720 X-49.059 Y-16.799 E404.21323
G0 F18000 X-49.059 Y-17.199
G1 F720 X49.06 Y-17.2 E409.1084
G0 F18000 X49.06 Y-17.6
G1 F720 X-49.059 Y-17.599 E414.00358
G0 F18000 X-49.059 Y-17.999
G1 F720 X49.06 Y-18 E418.89876
G0 F18000 X49.06 Y-18.4
G1 F720 X-49.059 Y-18.399 E423.79393
G0 F18000 X-49.059 Y-18.799
G1 F720 X49.06 Y-18.8 E428.68911
G0 F18000 X49.06 Y-19.2
G1 F720 X-49.059 Y-19.199 E433.58429
G0 F18000 X-49.059 Y-19.599
G1 F720 X49.06 Y-19.6 E438.47946
G0 F18000 X49.06 Y-20
G1 F720 X-49.059 Y-19.999 E443.37464
G0 F18000 X-49.059 Y-20.399
G1 F720 X49.06 Y-20.4 E448.26982
G0 F18000 X49.06 Y-20.8
G1 F720 X-49.059 Y-20.799 E453.16499
G0 F18000 X-49.059 Y-21.199
G1 F720 X49.06 Y-21.2 E458.06017
G0 F18000 X49.06 Y-21.6
G1 F720 X-49.059 Y-21.599 E462.95535
G0 F18000 X-49.059 Y-21.999
G1 F720 X49.06 Y-22 E467.85052
G0 F18000 X49.06 Y-22.4
G1 F720 X-49.059 Y-22.399 E472.7457
G0 F18000 X-49.059 Y-22.799
G1 F720 X49.06 Y-22.8 E477.64088
G0 F18000 X49.06 Y-23.2
G1 F720 X-49.059 Y-23.199 E482.53605
G0 F18000 X-49.059 Y-23.599
G1 F720 X49.06 Y-23.6 E487.43123
G0 F18000 X49.06 Y-24
G1 F720 X-49.059 Y-23.999 E492.32641
G0 F18000 X-49.059 Y-24.399
G1 F720 X49.06 Y-24.4 E497.22158
G0 F18000 X49.06 Y-24.8
G1 F720 X-49.059 Y-24.799 E502.11676
G0 F18000 X-49.059 Y-25.199
G1 F720 X49.06 Y-25.2 E507.01194
G0 F18000 X49.06 Y-25.6
G1 F720 X-49.059 Y-25.599 E511.90712
G0 F18000 X-49.059 Y-25.999
G1 F720 X49.06 Y-26 E516.80229
G0 F18000 X49.06 Y-26.4
G1 F720 X-49.059 Y-26.399 E521.69747
G0 F18000 X-49.059 Y-26.799
G1 F720 X49.06 Y-26.8 E526.59265
G0 F18000 X49.06 Y-27.2
G1 F720 X-49.059 Y-27.199 E531.48782
G0 F18000 X-49.059 Y-27.599
G1 F720 X49.06 Y-27.6 E536.383
G0 F18000 X49.06 Y-28
G1 F720 X-49.059 Y-27.999 E541.27818
G0 F18000 X-49.059 Y-28.399
G1 F720 X49.06 Y-28.4 E546.17335
G0 F18000 X49.06 Y-28.8
G1 F720 X-49.059 Y-28.799 E551.06853
G0 F18000 X-49.059 Y-29.199
G1 F720 X49.06 Y-29.2 E555.96371
G0 F18000 X49.06 Y-29.6
G1 F720 X-49.059 Y-29.599 E560.85888
G0 F18000 X-49.059 Y-29.999
G1 F720 X49.06 Y-30 E565.75406
G0 F18000 X49.06 Y-30.4
G1 F720 X-49.059 Y-30.399 E570.64924
G0 F18000 X-49.059 Y-30.799
G1 F720 X49.06 Y-30.8 E575.54441
G0 F18000 X49.06 Y-31.2
G1 F720 X-49.059 Y-31.199 E580.43959
G0 F18000 X-49.059 Y-31.599
G1 F720 X49.06 Y-31.6 E585.33477
G0 F18000 X49.06 Y-32
G1 F720 X-49.059 Y-31.999 E590.22994
G0 F18000 X-49.059 Y-32.399
G1 F720 X49.06 Y-32.4 E595.12512
G0 F18000 X49.06 Y-32.8
G1 F720 X-49.059 Y-32.8 E600.0203
G0 F18000 X-49.059 Y-33.2
G1 F720 X49.06 Y-33.2 E604.91547
G0 F18000 X49.06 Y-33.6
G1 F720 X-49.059 Y-33.6 E609.81065
G0 F18000 X-49.059 Y-34
G1 F720 X49.06 Y-34 E614.70583
G0 F18000 X49.06 Y-34.4
G1 F720 X-49.059 Y-34.4 E619.601
G0 F18000 X-49.059 Y-34.8
G1 F720 X49.06 Y-34.8 E624.49618
G1 F6600 E617.69618
G1 Z0.6
G0 F18000 X50.45 Y-11.503
; TYPE:SUPPORT
G1 Z0.3
G1 F6600 E624.59618
G1 F720 X50.45 Y11.123 E626.2894
G1 X-50.449 Y11.123 E633.84021
G1 X-50.449 Y-11.503 E635.53344
G1 X50.45 Y-11.503 E643.08424
G0 F18000 X50.208 Y-10.602
G1 F720 X49.548 Y-11.262 E643.15409
G0 F18000 X48.841 Y-11.262
G1 F720 X50.208 Y-9.895 E643.29877
G0 F18000 X50.208 Y-9.188
G1 F720 X48.134 Y-11.262 E643.51826
G0 F18000 X47.427 Y-11.262
G1 F720 X50.208 Y-8.481 E643.81259
G0 F18000 X50.208 Y-7.773
G1 F720 X46.719 Y-11.262 E644.18184
G0 F18000 X46.012 Y-11.262
G1 F720 X50.208 Y-7.066 E644.62591
G0 F18000 X50.208 Y-6.359
G1 F720 X45.305 Y-11.262 E645.14481
G0 F18000 X44.598 Y-11.262
G1 F720 X50.208 Y-5.652 E645.73854
G0 F18000 X50.208 Y-4.945
G1 F720 X43.891 Y-11.262 E646.40709
G0 F18000 X43.184 Y-11.262
G1 F720 X50.208 Y-4.238 E647.15046
G0 F18000 X50.208 Y-3.531
G1 F720 X42.477 Y-11.262 E647.96865
G0 F18000 X41.77 Y-11.262
G1 F720 X50.208 Y-2.824 E648.86167
G0 F18000 X50.208 Y-2.117
G1 F720 X41.063 Y-11.262 E649.82952
G0 F18000 X40.355 Y-11.262
G1 F720 X50.208 Y-1.409 E650.87229
G0 F18000 X50.208 Y-0.702
G1 F720 X39.648 Y-11.262 E651.98989
G0 F18000 X38.941 Y-11.262
G1 F720 X50.209 Y0.004 E653.18231
G0 F18000 X50.209 Y0.712
G1 F720 X38.234 Y-11.262 E654.44961
G0 F18000 X37.527 Y-11.262
G1 F720 X50.209 Y1.419 E655.79173
G0 F18000 X50.209 Y2.126
G1 F720 X36.82 Y-11.262 E657.20868
G0 F18000 X36.113 Y-11.262
G1 F720 X50.209 Y2.833 E658.70045
G0 F18000 X50.209 Y3.54
G1 F720 X35.406 Y-11.262 E660.26704
G0 F18000 X34.699 Y-11.262
G1 F720 X50.209 Y4.247 E661.90846
G0 F18000 X50.209 Y4.954
G1 F720 X33.992 Y-11.262 E663.6247
G0 F18000 X33.284 Y-11.262
G1 F720 X50.209 Y5.661 E665.41582
G0 F18000 X50.209 Y6.368
G1 F720 X32.577 Y-11.262 E667.28176
G0 F18000 X31.87 Y-11.262
G1 F720 X50.209 Y7.076 E669.22259
G0 F18000 X50.209 Y7.783
G1 F720 X31.163 Y-11.262 E671.23823
G0 F18000 X30.456 Y-11.262
G1 F720 X50.209 Y8.49 E673.3287
G0 F18000 X50.209 Y9.197
G1 F720 X29.749 Y-11.262 E675.49399
G0 F18000 X29.042 Y-11.262
G1 F720 X50.209 Y9.904 E677.73411
G0 F18000 X50.209 Y10.611
G1 F720 X28.335 Y-11.262 E680.04905
G0 F18000 X27.628 Y-11.262
G1 F720 X49.773 Y10.883 E682.39272
G0 F18000 X49.066 Y10.883
G1 F720 X26.92 Y-11.262 E684.73645
G0 F18000 X26.213 Y-11.262
G1 F720 X48.359 Y10.883 E687.08017
G0 F18000 X47.652 Y10.883
G1 F720 X25.506 Y-11.262 E689.4239
G0 F18000 X24.799 Y-11.262
G1 F720 X46.945 Y10.883 E691.76763
G0 F18000 X46.238 Y10.883
G1 F720 X24.092 Y-11.262 E694.11136
G0 F18000 X23.385 Y-11.262
G1 F720 X45.531 Y10.883 E696.45508
G0 F18000 X44.824 Y10.883
G1 F720 X22.678 Y-11.262 E698.79881
G0 F18000 X21.971 Y-11.262
G1 F720 X44.117 Y10.883 E701.14254
G0 F18000 X43.409 Y10.883
G1 F720 X21.264 Y-11.262 E703.48621
G0 F18000 X20.557 Y-11.262
G1 F720 X42.702 Y10.883 E705.82988
G0 F18000 X41.995 Y10.883
G1 F720 X19.849 Y-11.262 E708.17361
G0 F18000 X19.142 Y-11.262
G1 F720 X41.288 Y10.883 E710.51734
G0 F18000 X40.581 Y10.883
G1 F720 X18.435 Y-11.262 E712.86107
G0 F18000 X17.728 Y-11.262
G1 F720 X39.874 Y10.883 E715.20479
G0 F18000 X39.167 Y10.883
G1 F720 X17.021 Y-11.262 E717.54852
G0 F18000 X16.314 Y-11.262
G1 F720 X38.46 Y10.883 E719.89225
G0 F18000 X37.753 Y10.883
G1 F720 X15.607 Y-11.262 E722.23597
G0 F18000 X14.9 Y-11.262
G1 F720 X37.046 Y10.883 E724.5797
G0 F18000 X36.338 Y10.883
G1 F720 X14.193 Y-11.262 E726.92337
G0 F18000 X13.485 Y-11.262
G1 F720 X35.631 Y10.883 E729.2671
G0 F18000 X34.924 Y10.883
G1 F720 X12.778 Y-11.262 E731.61083
G0 F18000 X12.071 Y-11.262
G1 F720 X34.217 Y10.883 E733.95456
G0 F18000 X33.51 Y10.883
G1 F720 X11.364 Y-11.262 E736.29828
G0 F18000 X10.657 Y-11.262
G1 F720 X32.803 Y10.883 E738.64201
G0 F18000 X32.096 Y10.883
G1 F720 X9.95 Y-11.262 E740.98574
G0 F18000 X9.243 Y-11.262
G1 F720 X31.389 Y10.883 E743.32946
G0 F18000 X30.682 Y10.883
G1 F720 X8.536 Y-11.262 E745.67319
G0 F18000 X7.829 Y-11.262
G1 F720 X29.974 Y10.883 E748.01686
G0 F18000 X29.267 Y10.883
G1 F720 X7.121 Y-11.262 E750.36059
G0 F18000 X6.414 Y-11.262
G1 F720 X28.56 Y10.883 E752.70432
G0 F18000 X27.853 Y10.883
G1 F720 X5.707 Y-11.262 E755.04804
G0 F18000 X5 Y-11.262
G1 F720 X27.146 Y10.883 E757.39177
G0 F18000 X26.439 Y10.883
G1 F720 X4.293 Y-11.262 E759.7355
G0 F18000 X3.586 Y-11.262
G1 F720 X25.732 Y10.883 E762.07923
G0 F18000 X25.025 Y10.883
G1 F720 X2.879 Y-11.262 E764.42295
G0 F18000 X2.172 Y-11.262
G1 F720 X24.318 Y10.883 E766.76668
G0 F18000 X23.611 Y10.883
G1 F720 X1.465 Y-11.262 E769.11041
G0 F18000 X0.758 Y-11.262
G1 F720 X22.903 Y10.883 E771.45408
G0 F18000 X22.196 Y10.883
G1 F720 X0.05 Y-11.262 E773.79781
G0 F18000 X-0.656 Y-11.263
G1 F720 X21.489 Y10.883 E776.14153
G0 F18000 X20.782 Y10.883
G1 F720 X-1.364 Y-11.263 E778.48531
G0 F18000 X-2.071 Y-11.263
G1 F720 X20.075 Y10.883 E780.82909
G0 F18000 X19.368 Y10.883
G1 F720 X-2.778 Y-11.263 E783.17287
G0 F18000 X-3.485 Y-11.263
G1 F720 X18.661 Y10.883 E785.51665
G0 F18000 X17.954 Y10.883
G1 F720 X-4.192 Y-11.263 E787.86043
G0 F18000 X-4.899 Y-11.263
G1 F720 X17.247 Y10.883 E790.20421
G0 F18000 X16.539 Y10.883
G1 F720 X-5.606 Y-11.263 E792.54794
G0 F18000 X-6.313 Y-11.263
G1 F720 X15.832 Y10.883 E794.89167
G0 F18000 X15.125 Y10.883
G1 F720 X-7.02 Y-11.263 E797.23539
G0 F18000 X-7.727 Y-11.263
G1 F720 X14.418 Y10.883 E799.57912
G0 F18000 X13.711 Y10.883
G1 F720 X-8.435 Y-11.263 E801.9229
G0 F18000 X-9.142 Y-11.263
G1 F720 X13.004 Y10.883 E804.26668
G0 F18000 X12.297 Y10.883
G1 F720 X-9.849 Y-11.263 E806.61046
G0 F18000 X-10.556 Y-11.263
G1 F720 X11.59 Y10.883 E808.95424
G0 F18000 X10.883 Y10.883
G1 F720 X-11.263 Y-11.263 E811.29802
G0 F18000 X-11.97 Y-11.263
G1 F720 X10.175 Y10.883 E813.64175
G0 F18000 X9.468 Y10.883
G1 F720 X-12.677 Y-11.263 E815.98547
G0 F18000 X-13.384 Y-11.263
G1 F720 X8.761 Y10.883 E818.3292
G0 F18000 X8.054 Y10.883
G1 F720 X-14.091 Y-11.263 E820.67293
G0 F18000 X-14.799 Y-11.263
G1 F720 X7.347 Y10.883 E823.01671
G0 F18000 X6.64 Y10.883
G1 F720 X-15.506 Y-11.263 E825.36049
G0 F18000 X-16.213 Y-11.263
G1 F720 X5.933 Y10.883 E827.70427
G0 F18000 X5.226 Y10.883
G1 F720 X-16.92 Y-11.263 E830.04805
G0 F18000 X-17.627 Y-11.263
G1 F720 X4.519 Y10.883 E832.39183
G0 F18000 X3.812 Y10.883
G1 F720 X-18.334 Y-11.263 E834.73561
G0 F18000 X-19.041 Y-11.263
G1 F720 X3.104 Y10.883 E837.07933
G0 F18000 X2.397 Y10.883
G1 F720 X-19.748 Y-11.263 E839.42306
G0 F18000 X-20.455 Y-11.263
G1 F720 X1.69 Y10.883 E841.76679
G0 F18000 X0.983 Y10.883
G1 F720 X-21.162 Y-11.263 E844.11052
G0 F18000 X-21.87 Y-11.263
G1 F720 X0.276 Y10.883 E846.4543
G0 F18000 X-0.43 Y10.883
G1 F720 X-22.577 Y-11.263 E848.79813
G0 F18000 X-23.284 Y-11.263
G1 F720 X-1.137 Y10.883 E851.14196
G0 F18000 X-1.844 Y10.883
G1 F720 X-23.991 Y-11.263 E853.48579
G0 F18000 X-24.698 Y-11.263
G1 F720 X-2.551 Y10.883 E855.82963
G0 F18000 X-3.259 Y10.883
G1 F720 X-25.405 Y-11.263 E858.17341
G0 F18000 X-26.112 Y-11.263
G1 F720 X-3.966 Y10.883 E860.51719
G0 F18000 X-4.673 Y10.883
G1 F720 X-26.819 Y-11.263 E862.86097
G0 F18000 X-27.526 Y-11.263
G1 F720 X-5.38 Y10.883 E865.20475
G0 F18000 X-6.087 Y10.883
G1 F720 X-28.234 Y-11.263 E867.54858
G0 F18000 X-28.941 Y-11.263
G1 F720 X-6.794 Y10.883 E869.89241
G0 F18000 X-7.501 Y10.883
G1 F720 X-29.648 Y-11.263 E872.23624
G0 F18000 X-30.355 Y-11.263
G1 F720 X-8.208 Y10.883 E874.58008
G0 F18000 X-8.915 Y10.883
G1 F720 X-31.062 Y-11.263 E876.92391
G0 F18000 X-31.769 Y-11.263
G1 F720 X-9.623 Y10.883 E879.26769
G0 F18000 X-10.33 Y10.883
G1 F720 X-32.476 Y-11.263 E881.61147
G0 F18000 X-33.183 Y-11.263
G1 F720 X-11.037 Y10.883 E883.95525
G0 F18000 X-11.744 Y10.883
G1 F720 X-33.89 Y-11.263 E886.29903
G0 F18000 X-34.598 Y-11.263
G1 F720 X-12.451 Y10.883 E888.64286
G0 F18000 X-13.158 Y10.883
G1 F720 X-35.305 Y-11.263 E890.9867
G0 F18000 X-36.012 Y-11.263
G1 F720 X-13.865 Y10.883 E893.33053
G0 F18000 X-14.572 Y10.883
G1 F720 X-36.719 Y-11.263 E895.67436
G0 F18000 X-37.426 Y-11.263
G1 F720 X-15.279 Y10.883 E898.01819
G0 F18000 X-15.986 Y10.883
G1 F720 X-38.133 Y-11.263 E900.36203
G0 F18000 X-38.84 Y-11.263
G1 F720 X-16.694 Y10.883 E902.70581
G0 F18000 X-17.401 Y10.883
G1 F720 X-39.547 Y-11.263 E905.04959
G0 F18000 X-40.254 Y-11.263
G1 F720 X-18.108 Y10.883 E907.39337
G0 F18000 X-18.815 Y10.883
G1 F720 X-40.961 Y-11.263 E909.73715
G0 F18000 X-41.669 Y-11.263
G1 F720 X-19.522 Y10.883 E912.08098
G0 F18000 X-20.229 Y10.883
G1 F720 X-42.376 Y-11.263 E914.42481
G0 F18000 X-43.083 Y-11.263
G1 F720 X-20.936 Y10.883 E916.76864
G0 F18000 X-21.643 Y10.883
G1 F720 X-43.79 Y-11.263 E919.11248
G0 F18000 X-44.497 Y-11.263
G1 F720 X-22.35 Y10.883 E921.45631
G0 F18000 X-23.058 Y10.883
G1 F720 X-45.204 Y-11.263 E923.80009
G0 F18000 X-45.911 Y-11.263
G1 F720 X-23.765 Y10.883 E926.14387
G0 F18000 X-24.472 Y10.883
G1 F720 X-46.618 Y-11.263 E928.48765
G0 F18000 X-47.325 Y-11.263
G1 F720 X-25.179 Y10.883 E930.83143
G0 F18000 X-25.886 Y10.883
G1 F720 X-48.033 Y-11.263 E933.17526
G0 F18000 X-48.74 Y-11.263
G1 F720 X-26.593 Y10.883 E935.51909
G0 F18000 X-27.3 Y10.883
G1 F720 X-49.447 Y-11.263 E937.86293
G0 F18000 X-50.154 Y-11.263
G1 F720 X-28.007 Y10.883 E940.20676
G0 F18000 X-28.714 Y10.883
G1 F720 X-50.208 Y-10.61 E942.48148
G0 F18000 X-50.208 Y-9.903
G1 F720 X-29.422 Y10.883 E944.68133
G0 F18000 X-30.129 Y10.883
G1 F720 X-50.208 Y-9.195 E946.8063
G0 F18000 X-50.208 Y-8.488
G1 F720 X-30.836 Y10.883 E948.85645
G0 F18000 X-31.543 Y10.883
G1 F720 X-50.208 Y-7.781 E950.83177
G0 F18000 X-50.208 Y-7.074
G1 F720 X-32.25 Y10.883 E952.73227
G0 F18000 X-32.957 Y10.883
G1 F720 X-50.208 Y-6.367 E954.55794
G0 F18000 X-50.208 Y-5.66
G1 F720 X-33.664 Y10.883 E956.30879
G0 F18000 X-34.371 Y10.883
G1 F720 X-50.208 Y-4.953 E957.98482
G0 F18000 X-50.208 Y-4.246
G1 F720 X-35.078 Y10.883 E959.58602
G0 F18000 X-35.785 Y10.883
G1 F720 X-50.208 Y-3.539 E961.1124
G0 F18000 X-50.208 Y-2.831
G1 F720 X-36.493 Y10.883 E962.56384
G0 F18000 X-37.2 Y10.883
G1 F720 X-50.208 Y-2.124 E963.94047
G0 F18000 X-50.208 Y-1.417
G1 F720 X-37.907 Y10.883 E965.24227
G0 F18000 X-38.614 Y10.883
G1 F720 X-50.208 Y-0.71 E966.46924
G0 F18000 X-50.208 Y-0.003
G1 F720 X-39.321 Y10.883 E967.6214
G0 F18000 X-40.028 Y10.883
G1 F720 X-50.208 Y0.703 E968.69878
G0 F18000 X-50.208 Y1.41
G1 F720 X-40.735 Y10.883 E969.70133
G0 F18000 X-41.442 Y10.883
G1 F720 X-50.208 Y2.117 E970.62907
G0 F18000 X-50.208 Y2.824
G1 F720 X-42.149 Y10.883 E971.48198
G0 F18000 X-42.857 Y10.883
G1 F720 X-50.208 Y3.531 E972.26001
G0 F18000 X-50.208 Y4.239
G1 F720 X-43.564 Y10.883 E972.96316
G0 F18000 X-44.271 Y10.883
G1 F720 X-50.208 Y4.946 E973.59149
G0 F18000 X-50.208 Y5.653
G1 F720 X-44.978 Y10.883 E974.145
G0 F18000 X-45.685 Y10.883
G1 F720 X-50.208 Y6.36 E974.62368
G0 F18000 X-50.208 Y7.067
G1 F720 X-46.392 Y10.883 E975.02754
G0 F18000 X-47.099 Y10.883
G1 F720 X-50.208 Y7.774 E975.35658
G0 F18000 X-50.208 Y8.481
G1 F720 X-47.806 Y10.883 E975.61079
G0 F18000 X-48.513 Y10.883
G1 F720 X-50.208 Y9.188 E975.79018
G0 F18000 X-50.208 Y9.895
G1 F720 X-49.22 Y10.883 E975.89474
G0 F18000 X-49.928 Y10.883
G1 F720 X-50.208 Y10.603 E975.92437
G0 F18000 X-50.208 Y10.603 Z0.6
; Layer Change GCode
; LAYER:1
G1 F6600 E969.12437
G1 Z0.9
G0 F18000 X-49.749 Y35.75 Z0.8
G0 X-49.249 Y35.25
; TYPE:WALL-INNER
G1 Z0.5
G1 F6600 E976.02437
G1 F2400 X-49.249 Y35.25 E976.02437
G1 X-49.249 Y12.623 E976.9651
G1 X49.25 Y12.623 E981.06021
G1 X49.25 Y35.25 E982.00093
G1 X-49.249 Y35.25 E986.09604
G0 F18000 X-49.749 Y35.75
; TYPE:WALL-OUTER
G1 F2100 X-49.749 Y35.75 E986.09604
G1 X-49.749 Y12.123 E987.07834
G1 X49.75 Y12.123 E991.21503
G1 X49.75 Y35.75 E992.19732
G1 X-49.749 Y35.75 E996.33401
G0 F18000 X-49.489 Y35.4
G0 X-48.499 Y34.809
G0 X-48.499 Y34.809
; TYPE:FILL
G1 F2400 X-48.5 Y13.062 E997.23815
G0 F18000 X-48 Y13.062
G1 F2400 X-47.999 Y34.809 E998.14228
G0 F18000 X-47.499 Y34.809
G1 F2400 X-47.5 Y13.062 E999.04642
G0 F18000 X-47 Y13.062
G1 F2400 X-46.999 Y34.809 E999.95055
G0 F18000 X-46.499 Y34.809
G1 F2400 X-46.5 Y13.062 E1000.85469
G0 F18000 X-46 Y13.062
G1 F2400 X-45.999 Y34.809 E1001.75882
G0 F18000 X-45.499 Y34.809
G1 F2400 X-45.5 Y13.062 E1002.66296
G0 F18000 X-45 Y13.062
G1 F2400 X-44.999 Y34.809 E1003.56709
G0 F18000 X-44.499 Y34.809
G1 F2400 X-44.5 Y13.062 E1004.47123
G0 F18000 X-44 Y13.062
G1 F2400 X-43.999 Y34.809 E1005.37536
G0 F18000 X-43.499 Y34.809
G1 F2400 X-43.5 Y13.062 E1006.2795
G0 F18000 X-43 Y13.062
G1 F2400 X-42.999 Y34.809 E1007.18363
G0 F18000 X-42.499 Y34.809
G1 F2400 X-42.5 Y13.062 E1008.08777
G0 F18000 X-42 Y13.062
G1 F2400 X-41.999 Y34.809 E1008.9919
G0 F18000 X-41.499 Y34.809
G1 F2400 X-41.5 Y13.062 E1009.89604
G0 F18000 X-41 Y13.062
G1 F2400 X-40.999 Y34.809 E1010.80017
G0 F18000 X-40.499 Y34.809
G1 F2400 X-40.5 Y13.062 E1011.70431
G0 F18000 X-40 Y13.062
G1 F2400 X-39.999 Y34.809 E1012.60844
G0 F18000 X-39.499 Y34.809
G1 F2400 X-39.5 Y13.062 E1013.51258
G0 F18000 X-39 Y13.062
G1 F2400 X-38.999 Y34.809 E1014.41671
G0 F18000 X-38.499 Y34.809
G1 F2400 X-38.5 Y13.062 E1015.32085
G0 F18000 X-38 Y13.062
G1 F2400 X-37.999 Y34.809 E1016.22498
G0 F18000 X-37.499 Y34.809
G1 F2400 X-37.5 Y13.062 E1017.12912
G0 F18000 X-37 Y13.062
G1 F2400 X-36.999 Y34.809 E1018.03325
G0 F18000 X-36.499 Y34.809
G1 F2400 X-36.5 Y13.062 E1018.93739
G0 F18000 X-36 Y13.062
G1 F2400 X-35.999 Y34.809 E1019.84153
G0 F18000 X-35.499 Y34.809
G1 F2400 X-35.5 Y13.062 E1020.74566
G0 F18000 X-35 Y13.062
G1 F2400 X-34.999 Y34.809 E1021.6498
G0 F18000 X-34.499 Y34.809
G1 F2400 X-34.5 Y13.062 E1022.55393
G0 F18000 X-34 Y13.062
G1 F2400 X-33.999 Y34.809 E1023.45807
G0 F18000 X-33.499 Y34.809
G1 F2400 X-33.5 Y13.062 E1024.3622
G0 F18000 X-33 Y13.062
G1 F2400 X-32.999 Y34.809 E1025.26634
G0 F18000 X-32.499 Y34.809
G1 F2400 X-32.5 Y13.062 E1026.17047
G0 F18000 X-32 Y13.062
G1 F2400 X-31.999 Y34.809 E1027.07461
G0 F18000 X-31.499 Y34.809
G1 F2400 X-31.5 Y13.062 E1027.97874
G0 F18000 X-31 Y13.062
G1 F2400 X-30.999 Y34.809 E1028.88288
G0 F18000 X-30.499 Y34.809
G1 F2400 X-30.5 Y13.062 E1029.78701
G0 F18000 X-30 Y13.062
G1 F2400 X-29.999 Y34.809 E1030.69115
G0 F18000 X-29.499 Y34.809
G1 F2400 X-29.5 Y13.062 E1031.59528
G0 F18000 X-29 Y13.062
G1 F2400 X-28.999 Y34.809 E1032.49942
G0 F18000 X-28.499 Y34.809
G1 F2400 X-28.5 Y13.062 E1033.40355
G0 F18000 X-28 Y13.062
G1 F2400 X-27.999 Y34.809 E1034.30769
G0 F18000 X-27.499 Y34.809
G1 F2400 X-27.5 Y13.062 E1035.21182
G0 F18000 X-27 Y13.062
G1 F2400 X-26.999 Y34.809 E1036.11596
G0 F18000 X-26.499 Y34.809
G1 F2400 X-26.5 Y13.062 E1037.02009
G0 F18000 X-26 Y13.062
G1 F2400 X-25.999 Y34.809 E1037.92423
G0 F18000 X-25.499 Y34.809
G1 F2400 X-25.5 Y13.062 E1038.82836
G0 F18000 X-25 Y13.062
G1 F2400 X-24.999 Y34.809 E1039.7325
G0 F18000 X-24.499 Y34.809
G1 F2400 X-24.5 Y13.062 E1040.63663
G0 F18000 X-24 Y13.062
G1 F2400 X-23.999 Y34.809 E1041.54077
G0 F18000 X-23.499 Y34.809
G1 F2400 X-23.5 Y13.062 E1042.44491
G0 F18000 X-23 Y13.062
G1 F2400 X-22.999 Y34.809 E1043.34904
G0 F18000 X-22.499 Y34.809
G1 F2400 X-22.5 Y13.062 E1044.25318
G0 F18000 X-22 Y13.062
G1 F2400 X-21.999 Y34.809 E1045.15731
G0 F18000 X-21.499 Y34.809
G1 F2400 X-21.5 Y13.062 E1046.06145
G0 F18000 X-21 Y13.062
G1 F2400 X-20.999 Y34.809 E1046.96558
G0 F18000 X-20.499 Y34.809
G1 F2400 X-20.5 Y13.062 E1047.86972
G0 F18000 X-20 Y13.062
G1 F2400 X-19.999 Y34.809 E1048.77385
G0 F18000 X-19.499 Y34.809
G1 F2400 X-19.5 Y13.062 E1049.67799
G0 F18000 X-19 Y13.062
G1 F2400 X-18.999 Y34.809 E1050.58212
G0 F18000 X-18.499 Y34.809
G1 F2400 X-18.5 Y13.062 E1051.48626
G0 F18000 X-18 Y13.062
G1 F2400 X-17.999 Y34.809 E1052.39039
G0 F18000 X-17.499 Y34.809
G1 F2400 X-17.5 Y13.062 E1053.29453
G0 F18000 X-17 Y13.062
G1 F2400 X-16.999 Y34.809 E1054.19866
G0 F18000 X-16.499 Y34.809
G1 F2400 X-16.5 Y13.062 E1055.1028
G0 F18000 X-15.999 Y13.062
G1 F2400 X-15.999 Y34.809 E1056.00693
G0 F18000 X-15.499 Y34.809
G1 F2400 X-15.499 Y13.062 E1056.91107
G0 F18000 X-14.999 Y13.062
G1 F2400 X-14.999 Y34.809 E1057.8152
G0 F18000 X-14.499 Y34.809
G1 F2400 X-14.499 Y13.062 E1058.71934
G0 F18000 X-13.999 Y13.062
G1 F2400 X-13.999 Y34.809 E1059.62347
G0 F18000 X-13.499 Y34.809
G1 F2400 X-13.499 Y13.062 E1060.52761
G0 F18000 X-12.999 Y13.062
G1 F2400 X-12.999 Y34.809 E1061.43174
G0 F18000 X-12.499 Y34.809
G1 F2400 X-12.499 Y13.062 E1062.33588
G0 F18000 X-11.999 Y13.062
G1 F2400 X-11.999 Y34.809 E1063.24001
G0 F18000 X-11.499 Y34.809
G1 F2400 X-11.499 Y13.062 E1064.14415
G0 F18000 X-10.999 Y13.062
G1 F2400 X-10.999 Y34.809 E1065.04829
G0 F18000 X-10.499 Y34.809
G1 F2400 X-10.499 Y13.062 E1065.95242
G0 F18000 X-9.999 Y13.062
G1 F2400 X-9.999 Y34.809 E1066.85656
G0 F18000 X-9.499 Y34.809
G1 F2400 X-9.499 Y13.062 E1067.76069
G0 F18000 X-8.999 Y13.062
G1 F2400 X-8.999 Y34.809 E1068.66483
G0 F18000 X-8.499 Y34.809
G1 F2400 X-8.499 Y13.062 E1069.56896
G0 F18000 X-7.999 Y13.062
G1 F2400 X-7.999 Y34.809 E1070.4731
G0 F18000 X-7.499 Y34.809
G1 F2400 X-7.499 Y13.062 E1071.37723
G0 F18000 X-6.999 Y13.062
G1 F2400 X-6.999 Y34.809 E1072.28137
G0 F18000 X-6.499 Y34.809
G1 F2400 X-6.499 Y13.062 E1073.1855
G0 F18000 X-5.999 Y13.062
G1 F2400 X-5.999 Y34.809 E1074.08964
G0 F18000 X-5.499 Y34.809
G1 F2400 X-5.499 Y13.062 E1074.99377
G0 F18000 X-4.999 Y13.062
G1 F2400 X-4.999 Y34.809 E1075.89791
G0 F18000 X-4.499 Y34.809
G1 F2400 X-4.499 Y13.062 E1076.80204
G0 F18000 X-3.999 Y13.062
G1 F2400 X-3.999 Y34.809 E1077.70618
G0 F18000 X-3.499 Y34.809
G1 F2400 X-3.499 Y13.062 E1078.61031
G0 F18000 X-2.999 Y13.062
G1 F2400 X-2.999 Y34.809 E1079.51445
G0 F18000 X-2.499 Y34.809
G1 F2400 X-2.499 Y13.062 E1080.41858
G0 F18000 X-1.999 Y13.062
G1 F2400 X-1.999 Y34.809 E1081.32272
G0 F18000 X-1.499 Y34.809
G1 F2400 X-1.499 Y13.062 E1082.22685
G0 F18000 X-0.999 Y13.062
G1 F2400 X-0.999 Y34.809 E1083.13099
G0 F18000 X-0.499 Y34.809
G1 F2400 X-0.499 Y13.062 E1084.03512
G0 F18000 X0 Y13.062
G1 F2400 X0 Y34.81 E1084.9393
G0 F18000 X0.5 Y34.81
G1 F2400 X0.5 Y13.063 E1085.84344
G0 F18000 X1 Y13.063
G1 F2400 X1 Y34.81 E1086.74757
G0 F18000 X1.5 Y34.81
G1 F2400 X1.5 Y13.063 E1087.65171
G0 F18000 X2 Y13.063
G1 F2400 X2 Y34.81 E1088.55584
G0 F18000 X2.5 Y34.81
G1 F2400 X2.5 Y13.063 E1089.45998
G0 F18000 X3 Y13.063
G1 F2400 X3 Y34.81 E1090.36411
G0 F18000 X3.5 Y34.81
G1 F2400 X3.5 Y13.063 E1091.26825
G0 F18000 X4 Y13.063
G1 F2400 X4 Y34.81 E1092.17238
G0 F18000 X4.5 Y34.81
G1 F2400 X4.5 Y13.063 E1093.07652
G0 F18000 X5 Y13.063
G1 F2400 X5 Y34.81 E1093.98065
G0 F18000 X5.5 Y34.81
G1 F2400 X5.5 Y13.063 E1094.88479
G0 F18000 X6 Y13.063
G1 F2400 X6 Y34.81 E1095.78892
G0 F18000 X6.5 Y34.81
G1 F2400 X6.5 Y13.063 E1096.69306
G0 F18000 X7 Y13.063
G1 F2400 X7 Y34.81 E1097.59719
G0 F18000 X7.5 Y34.81
G1 F2400 X7.5 Y13.062 E1098.50137
G0 F18000 X8 Y13.062
G1 F2400 X8 Y34.81 E1099.40555
G0 F18000 X8.5 Y34.81
G1 F2400 X8.5 Y13.062 E1100.30972
G0 F18000 X9 Y13.062
G1 F2400 X9 Y34.81 E1101.2139
G0 F18000 X9.5 Y34.81
G1 F2400 X9.5 Y13.062 E1102.11808
G0 F18000 X10 Y13.062
G1 F2400 X10 Y34.81 E1103.02225
G0 F18000 X10.5 Y34.81
G1 F2400 X10.5 Y13.062 E1103.92643
G0 F18000 X11 Y13.062
G1 F2400 X11 Y34.81 E1104.83061
G0 F18000 X11.5 Y34.81
G1 F2400 X11.5 Y13.062 E1105.73478
G0 F18000 X12 Y13.062
G1 F2400 X12 Y34.81 E1106.63896
G0 F18000 X12.5 Y34.81
G1 F2400 X12.5 Y13.062 E1107.54314
G0 F18000 X13 Y13.062
G1 F2400 X13 Y34.81 E1108.44731
G0 F18000 X13.5 Y34.81
G1 F2400 X13.5 Y13.062 E1109.35149
G0 F18000 X14 Y13.062
G1 F2400 X14 Y34.81 E1110.25567
G0 F18000 X14.5 Y34.81
G1 F2400 X14.5 Y13.062 E1111.15985
G0 F18000 X15 Y13.062
G1 F2400 X15 Y34.81 E1112.06402
G0 F18000 X15.5 Y34.81
G1 F2400 X15.5 Y13.062 E1112.9682
G0 F18000 X16 Y13.062
G1 F2400 X16 Y34.81 E1113.87238
G0 F18000 X16.5 Y34.81
G1 F2400 X16.5 Y13.062 E1114.77655
G0 F18000 X17 Y13.062
G1 F2400 X17 Y34.81 E1115.68073
G0 F18000 X17.5 Y34.81
G1 F2400 X17.5 Y13.062 E1116.58491
G0 F18000 X18 Y13.062
G1 F2400 X18 Y34.81 E1117.48908
G0 F18000 X18.5 Y34.81
G1 F2400 X18.5 Y13.062 E1118.39326
G0 F18000 X19 Y13.062
G1 F2400 X19 Y34.81 E1119.29744
G0 F18000 X19.5 Y34.81
G1 F2400 X19.5 Y13.062 E1120.20161
G0 F18000 X20 Y13.062
G1 F2400 X20 Y34.81 E1121.10579
G0 F18000 X20.5 Y34.81
G1 F2400 X20.5 Y13.062 E1122.00997
G0 F18000 X21 Y13.062
G1 F2400 X21 Y34.81 E1122.91414
G0 F18000 X21.5 Y34.81
G1 F2400 X21.5 Y13.062 E1123.81832
G0 F18000 X22 Y13.062
G1 F2400 X22 Y34.81 E1124.7225
G0 F18000 X22.5 Y34.81
G1 F2400 X22.5 Y13.062 E1125.62667
G0 F18000 X23 Y13.062
G1 F2400 X23 Y34.81 E1126.53085
G0 F18000 X23.5 Y34.81
G1 F2400 X23.5 Y13.062 E1127.43503
G0 F18000 X24 Y13.062
G1 F2400 X24 Y34.81 E1128.3392
G0 F18000 X24.5 Y34.81
G1 F2400 X24.5 Y13.062 E1129.24338
G0 F18000 X25 Y13.062
G1 F2400 X25 Y34.81 E1130.14756
G0 F18000 X25.5 Y34.81
G1 F2400 X25.5 Y13.062 E1131.05173
G0 F18000 X26 Y13.062
G1 F2400 X26 Y34.81 E1131.95591
G0 F18000 X26.5 Y34.81
G1 F2400 X26.5 Y13.062 E1132.86009
G0 F18000 X27 Y13.062
G1 F2400 X27 Y34.81 E1133.76426
G0 F18000 X27.5 Y34.81
G1 F2400 X27.5 Y13.062 E1134.66844
G0 F18000 X28 Y13.062
G1 F2400 X28 Y34.81 E1135.57262
G0 F18000 X28.5 Y34.81
G1 F2400 X28.5 Y13.062 E1136.47679
G0 F18000 X29 Y13.062
G1 F2400 X29 Y34.81 E1137.38097
G0 F18000 X29.5 Y34.81
G1 F2400 X29.5 Y13.062 E1138.28515
G0 F18000 X30 Y13.062
G1 F2400 X30 Y34.809 E1139.18928
G0 F18000 X30.5 Y34.809
G1 F2400 X30.5 Y13.062 E1140.09342
G0 F18000 X31 Y13.062
G1 F2400 X31 Y34.809 E1140.99755
G0 F18000 X31.5 Y34.809
G1 F2400 X31.5 Y13.062 E1141.90169
G0 F18000 X32 Y13.062
G1 F2400 X32 Y34.809 E1142.80582
G0 F18000 X32.5 Y34.809
G1 F2400 X32.5 Y13.062 E1143.70996
G0 F18000 X33 Y13.062
G1 F2400 X33 Y34.809 E1144.61409
G0 F18000 X33.5 Y34.809
G1 F2400 X33.5 Y13.062 E1145.51823
G0 F18000 X34 Y13.062
G1 F2400 X34 Y34.809 E1146.42237
G0 F18000 X34.5 Y34.809
G1 F2400 X34.5 Y13.062 E1147.3265
G0 F18000 X35 Y13.062
G1 F2400 X35 Y34.809 E1148.23064
G0 F18000 X35.5 Y34.809
G1 F2400 X35.5 Y13.062 E1149.13477
G0 F18000 X36 Y13.062
G1 F2400 X36 Y34.809 E1150.03891
G0 F18000 X36.5 Y34.809
G1 F2400 X36.5 Y13.062 E1150.94304
G0 F18000 X37 Y13.062
G1 F2400 X37 Y34.809 E1151.84718
G0 F18000 X37.5 Y34.809
G1 F2400 X37.5 Y13.062 E1152.75131
G0 F18000 X38 Y13.062
G1 F2400 X38 Y34.809 E1153.65545
G0 F18000 X38.5 Y34.809
G1 F2400 X38.5 Y13.062 E1154.55958
G0 F18000 X39 Y13.062
G1 F2400 X39 Y34.809 E1155.46372
G0 F18000 X39.5 Y34.809
G1 F2400 X39.5 Y13.062 E1156.36785
G0 F18000 X40 Y13.062
G1 F2400 X40 Y34.809 E1157.27199
G0 F18000 X40.5 Y34.809
G1 F2400 X40.5 Y13.062 E1158.17612
G0 F18000 X41 Y13.062
G1 F2400 X41 Y34.809 E1159.08026
G0 F18000 X41.5 Y34.809
G1 F2400 X41.5 Y13.062 E1159.98439
G0 F18000 X42 Y13.062
G1 F2400 X42 Y34.809 E1160.88853
G0 F18000 X42.5 Y34.809
G1 F2400 X42.5 Y13.062 E1161.79266
G0 F18000 X43 Y13.062
G1 F2400 X43 Y34.809 E1162.6968
G0 F18000 X43.5 Y34.809
G1 F2400 X43.5 Y13.062 E1163.60093
G0 F18000 X44 Y13.062
G1 F2400 X44 Y34.809 E1164.50507
G0 F18000 X44.5 Y34.809
G1 F2400 X44.5 Y13.062 E1165.4092
G0 F18000 X45 Y13.062
G1 F2400 X45 Y34.809 E1166.31334
G0 F18000 X45.5 Y34.809
G1 F2400 X45.5 Y13.062 E1167.21747
G0 F18000 X46 Y13.062
G1 F2400 X46 Y34.809 E1168.12161
G0 F18000 X46.5 Y34.809
G1 F2400 X46.5 Y13.062 E1169.02575
G0 F18000 X47 Y13.062
G1 F2400 X47 Y34.809 E1169.92988
G0 F18000 X47.5 Y34.809
G1 F2400 X47.5 Y13.062 E1170.83402
G0 F18000 X48 Y13.062
G1 F2400 X48 Y34.809 E1171.73815
G0 F18000 X48.5 Y34.809
G1 F2400 X48.5 Y13.062 E1172.64229
G1 F6600 E1165.84229
G1 Z0.8
G0 F18000 X-49.749 Y-12.503
G0 X-49.249 Y-13.003
; TYPE:WALL-INNER
G1 Z0.5
G1 F6600 E1172.74229
G1 F2400 X-49.249 Y-13.003 E1172.74229
G1 X-49.249 Y-35.249 E1173.66717
G1 X49.25 Y-35.249 E1177.76228
G1 X49.25 Y-13.003 E1178.68716
G1 X-49.249 Y-13.003 E1182.78227
G0 F18000 X-49.749 Y-12.503
; TYPE:WALL-OUTER
G1 F2100 X-49.749 Y-12.503 E1182.78227
G1 X-49.749 Y-35.749 E1183.74873
G1 X49.75 Y-35.749 E1187.88542
G1 X49.75 Y-12.503 E1188.85187
G1 X-49.749 Y-12.503 E1192.98856
G0 F18000 X-49.489 Y-12.853
G0 X-48.5 Y-13.442
G0 X-48.5 Y-13.442
; TYPE:FILL
G1 F2400 X-48.5 Y-34.808 E1193.87686
G0 F18000 X-48 Y-34.808
G1 F2400 X-48 Y-13.442 E1194.76515
G0 F18000 X-47.5 Y-13.442
G1 F2400 X-47.5 Y-34.808 E1195.65345
G0 F18000 X-47 Y-34.808
G1 F2400 X-47 Y-13.442 E1196.54174
G0 F18000 X-46.5 Y-13.442
G1 F2400 X-46.5 Y-34.808 E1197.43004
G0 F18000 X-46 Y-34.808
G1 F2400 X-46 Y-13.442 E1198.31833
G0 F18000 X-45.5 Y-13.442
G1 F2400 X-45.5 Y-34.808 E1199.20663
G0 F18000 X-45 Y-34.808
G1 F2400 X-45 Y-13.442 E1200.09492
G0 F18000 X-44.5 Y-13.442
G1 F2400 X-44.5 Y-34.808 E1200.98322
G0 F18000 X-44 Y-34.808
G1 F2400 X-44 Y-13.442 E1201.87151
G0 F18000 X-43.5 Y-13.442
G1 F2400 X-43.5 Y-34.808 E1202.75981
G0 F18000 X-43 Y-34.808
G1 F2400 X-43 Y-13.442 E1203.6481
G0 F18000 X-42.5 Y-13.442
G1 F2400 X-42.5 Y-34.808 E1204.5364
G0 F18000 X-42 Y-34.808
G1 F2400 X-42 Y-13.442 E1205.42469
G0 F18000 X-41.5 Y-13.442
G1 F2400 X-41.5 Y-34.808 E1206.31299
G0 F18000 X-41 Y-34.808
G1 F2400 X-41 Y-13.442 E1207.20128
G0 F18000 X-40.5 Y-13.442
G1 F2400 X-40.5 Y-34.808 E1208.08958
G0 F18000 X-40 Y-34.808
G1 F2400 X-40 Y-13.442 E1208.97787
G0 F18000 X-39.5 Y-13.442
G1 F2400 X-39.5 Y-34.808 E1209.86617
G0 F18000 X-39 Y-34.808
G1 F2400 X-39 Y-13.442 E1210.75446
G0 F18000 X-38.5 Y-13.442
G1 F2400 X-38.5 Y-34.808 E1211.64276
G0 F18000 X-38 Y-34.808
G1 F2400 X-38 Y-13.442 E1212.53105
G0 F18000 X-37.5 Y-13.442
G1 F2400 X-37.5 Y-34.808 E1213.41935
G0 F18000 X-37 Y-34.808
G1 F2400 X-37 Y-13.442 E1214.30764
G0 F18000 X-36.5 Y-13.442
G1 F2400 X-36.5 Y-34.808 E1215.19594
G0 F18000 X-36 Y-34.808
G1 F2400 X-36 Y-13.442 E1216.08423
G0 F18000 X-35.5 Y-13.442
G1 F2400 X-35.5 Y-34.808 E1216.97253
G0 F18000 X-35 Y-34.808
G1 F2400 X-35 Y-13.442 E1217.86082
G0 F18000 X-34.5 Y-13.442
G1 F2400 X-34.5 Y-34.808 E1218.74912
G0 F18000 X-34 Y-34.808
G1 F2400 X-34 Y-13.442 E1219.63741
G0 F18000 X-33.5 Y-13.442
G1 F2400 X-33.5 Y-34.808 E1220.52571
G0 F18000 X-33 Y-34.808
G1 F2400 X-33 Y-13.442 E1221.414
G0 F18000 X-32.5 Y-13.442
G1 F2400 X-32.5 Y-34.808 E1222.3023
G0 F18000 X-32 Y-34.808
G1 F2400 X-32 Y-13.442 E1223.19059
G0 F18000 X-31.5 Y-13.442
G1 F2400 X-31.5 Y-34.808 E1224.07889
G0 F18000 X-31 Y-34.808
G1 F2400 X-31 Y-13.442 E1224.96718
G0 F18000 X-30.5 Y-13.442
G1 F2400 X-30.5 Y-34.808 E1225.85548
G0 F18000 X-30 Y-34.808
G1 F2400 X-30 Y-13.442 E1226.74377
G0 F18000 X-29.5 Y-13.442
G1 F2400 X-29.5 Y-34.809 E1227.63211
G0 F18000 X-29 Y-34.809
G1 F2400 X-29 Y-13.442 E1228.52045
G0 F18000 X-28.5 Y-13.442
G1 F2400 X-28.5 Y-34.809 E1229.40878
G0 F18000 X-28 Y-34.809
G1 F2400 X-28 Y-13.442 E1230.29712
G0 F18000 X-27.5 Y-13.442
G1 F2400 X-27.5 Y-34.809 E1231.18546
G0 F18000 X-27 Y-34.809
G1 F2400 X-27 Y-13.442 E1232.07379
G0 F18000 X-26.5 Y-13.442
G1 F2400 X-26.5 Y-34.809 E1232.96213
G0 F18000 X-26 Y-34.809
G1 F2400 X-26 Y-13.442 E1233.85047
G0 F18000 X-25.5 Y-13.442
G1 F2400 X-25.5 Y-34.809 E1234.7388
G0 F18000 X-25 Y-34.809
G1 F2400 X-25 Y-13.442 E1235.62714
G0 F18000 X-24.5 Y-13.442
G1 F2400 X-24.5 Y-34.809 E1236.51548
G0 F18000 X-24 Y-34.809
G1 F2400 X-24 Y-13.442 E1237.40381
G0 F18000 X-23.5 Y-13.442
G1 F2400 X-23.5 Y-34.809 E1238.29215
G0 F18000 X-23 Y-34.809
G1 F2400 X-23 Y-13.442 E1239.18049
G0 F18000 X-22.5 Y-13.442
G1 F2400 X-22.5 Y-34.809 E1240.06882
G0 F18000 X-22 Y-34.809
G1 F2400 X-22 Y-13.442 E1240.95716
G0 F18000 X-21.5 Y-13.442
G1 F2400 X-21.5 Y-34.809 E1241.8455
G0 F18000 X-21 Y-34.809
G1 F2400 X-21 Y-13.442 E1242.73383
G0 F18000 X-20.5 Y-13.442
G1 F2400 X-20.5 Y-34.809 E1243.62217
G0 F18000 X-20 Y-34.809
G1 F2400 X-20 Y-13.442 E1244.51051
G0 F18000 X-19.5 Y-13.442
G1 F2400 X-19.5 Y-34.809 E1245.39884
G0 F18000 X-19 Y-34.809
G1 F2400 X-19 Y-13.442 E1246.28718
G0 F18000 X-18.5 Y-13.442
G1 F2400 X-18.5 Y-34.809 E1247.17552
G0 F18000 X-18 Y-34.809
G1 F2400 X-18 Y-13.442 E1248.06385
G0 F18000 X-17.5 Y-13.442
G1 F2400 X-17.5 Y-34.809 E1248.95219
G0 F18000 X-17 Y-34.809
G1 F2400 X-17 Y-13.442 E1249.84053
G0 F18000 X-16.5 Y-13.442
G1 F2400 X-16.5 Y-34.809 E1250.72886
G0 F18000 X-16 Y-34.809
G1 F2400 X-16 Y-13.442 E1251.6172
G0 F18000 X-15.5 Y-13.442
G1 F2400 X-15.5 Y-34.809 E1252.50554
G0 F18000 X-15 Y-34.809
G1 F2400 X-15 Y-13.442 E1253.39387
G0 F18000 X-14.5 Y-13.442
G1 F2400 X-14.5 Y-34.809 E1254.28221
G0 F18000 X-14 Y-34.809
G1 F2400 X-14 Y-13.442 E1255.17055
G0 F18000 X-13.5 Y-13.442
G1 F2400 X-13.5 Y-34.809 E1256.05888
G0 F18000 X-13 Y-34.809
G1 F2400 X-13 Y-13.442 E1256.94722
G0 F18000 X-12.5 Y-13.442
G1 F2400 X-12.5 Y-34.809 E1257.83556
G0 F18000 X-12 Y-34.809
G1 F2400 X-12 Y-13.442 E1258.72389
G0 F18000 X-11.5 Y-13.442
G1 F2400 X-11.5 Y-34.809 E1259.61223
G0 F18000 X-11 Y-34.809
G1 F2400 X-11 Y-13.442 E1260.50057
G0 F18000 X-10.5 Y-13.442
G1 F2400 X-10.5 Y-34.809 E1261.3889
G0 F18000 X-10 Y-34.809
G1 F2400 X-10 Y-13.442 E1262.27724
G0 F18000 X-9.5 Y-13.442
G1 F2400 X-9.5 Y-34.809 E1263.16558
G0 F18000 X-9 Y-34.809
G1 F2400 X-9 Y-13.442 E1264.05391
G0 F18000 X-8.5 Y-13.442
G1 F2400 X-8.5 Y-34.809 E1264.94225
G0 F18000 X-8 Y-34.809
G1 F2400 X-8 Y-13.442 E1265.83059
G0 F18000 X-7.5 Y-13.442
G1 F2400 X-7.5 Y-34.809 E1266.71892
G0 F18000 X-7 Y-34.809
G1 F2400 X-7 Y-13.443 E1267.60722
G0 F18000 X-6.5 Y-13.443
G1 F2400 X-6.5 Y-34.809 E1268.49551
G0 F18000 X-6 Y-34.809
G1 F2400 X-6 Y-13.443 E1269.38381
G0 F18000 X-5.5 Y-13.443
G1 F2400 X-5.5 Y-34.809 E1270.2721
G0 F18000 X-5 Y-34.809
G1 F2400 X-5 Y-13.443 E1271.1604
G0 F18000 X-4.5 Y-13.443
G1 F2400 X-4.5 Y-34.809 E1272.04869
G0 F18000 X-4 Y-34.809
G1 F2400 X-4 Y-13.443 E1272.93699
G0 F18000 X-3.5 Y-13.443
G1 F2400 X-3.5 Y-34.809 E1273.82528
G0 F18000 X-3 Y-34.809
G1 F2400 X-3 Y-13.443 E1274.71358
G0 F18000 X-2.5 Y-13.443
G1 F2400 X-2.5 Y-34.809 E1275.60187
G0 F18000 X-2 Y-34.809
G1 F2400 X-2 Y-13.443 E1276.49017
G0 F18000 X-1.5 Y-13.443
G1 F2400 X-1.5 Y-34.809 E1277.37846
G0 F18000 X-1 Y-34.809
G1 F2400 X-1 Y-13.443 E1278.26676
G0 F18000 X-0.5 Y-13.443
G1 F2400 X-0.5 Y-34.809 E1279.15505
G0 F18000 X0 Y-34.809
G1 F2400 X0 Y-13.443 E1280.04335
G0 F18000 X0.499 Y-13.442
G1 F2400 X0.499 Y-34.808 E1280.93164
G0 F18000 X0.999 Y-34.808
G1 F2400 X0.999 Y-13.442 E1281.81994
G0 F18000 X1.499 Y-13.442
G1 F2400 X1.499 Y-34.808 E1282.70823
G0 F18000 X1.999 Y-34.808
G1 F2400 X1.999 Y-13.442 E1283.59653
G0 F18000 X2.499 Y-13.442
G1 F2400 X2.499 Y-34.808 E1284.48482
G0 F18000 X2.999 Y-34.808
G1 F2400 X2.999 Y-13.442 E1285.37312
G0 F18000 X3.499 Y-13.442
G1 F2400 X3.499 Y-34.808 E1286.26141
G0 F18000 X3.999 Y-34.808
G1 F2400 X3.999 Y-13.442 E1287.14971
G0 F18000 X4.499 Y-13.442
G1 F2400 X4.499 Y-34.808 E1288.038
G0 F18000 X4.999 Y-34.808
G1 F2400 X4.999 Y-13.442 E1288.9263
G0 F18000 X5.499 Y-13.442
G1 F2400 X5.499 Y-34.808 E1289.81459
G0 F18000 X5.999 Y-34.808
G1 F2400 X5.999 Y-13.442 E1290.70289
G0 F18000 X6.499 Y-13.442
G1 F2400 X6.499 Y-34.808 E1291.59118
G0 F18000 X6.999 Y-34.808
G1 F2400 X6.999 Y-13.442 E1292.47948
G0 F18000 X7.499 Y-13.442
G1 F2400 X7.499 Y-34.808 E1293.36777
G0 F18000 X7.999 Y-34.808
G1 F2400 X7.999 Y-13.442 E1294.25607
G0 F18000 X8.499 Y-13.442
G1 F2400 X8.499 Y-34.808 E1295.14436
G0 F18000 X8.999 Y-34.808
G1 F2400 X8.999 Y-13.442 E1296.03266
G0 F18000 X9.499 Y-13.442
G1 F2400 X9.499 Y-34.808 E1296.92095
G0 F18000 X9.999 Y-34.808
G1 F2400 X9.999 Y-13.442 E1297.80925
G0 F18000 X10.499 Y-13.442
G1 F2400 X10.499 Y-34.808 E1298.69754
G0 F18000 X10.999 Y-34.808
G1 F2400 X10.999 Y-13.442 E1299.58584
G0 F18000 X11.499 Y-13.442
G1 F2400 X11.499 Y-34.808 E1300.47413
G0 F18000 X11.999 Y-34.808
G1 F2400 X11.999 Y-13.442 E1301.36243
G0 F18000 X12.499 Y-13.442
G1 F2400 X12.499 Y-34.808 E1302.25072
G0 F18000 X12.999 Y-34.808
G1 F2400 X12.999 Y-13.442 E1303.13902
G0 F18000 X13.499 Y-13.442
G1 F2400 X13.499 Y-34.808 E1304.02731
G0 F18000 X13.999 Y-34.808
G1 F2400 X13.999 Y-13.442 E1304.91561
G0 F18000 X14.499 Y-13.442
G1 F2400 X14.499 Y-34.808 E1305.8039
G0 F18000 X14.999 Y-34.808
G1 F2400 X14.999 Y-13.442 E1306.6922
G0 F18000 X15.499 Y-13.442
G1 F2400 X15.499 Y-34.808 E1307.58049
G0 F18000 X15.999 Y-34.808
G1 F2400 X15.999 Y-13.442 E1308.46879
G0 F18000 X16.5 Y-13.442
G1 F2400 X16.499 Y-34.808 E1309.35708
G0 F18000 X16.999 Y-34.808
G1 F2400 X17 Y-13.442 E1310.24538
G0 F18000 X17.5 Y-13.442
G1 F2400 X17.499 Y-34.808 E1311.13367
G0 F18000 X17.999 Y-34.808
G1 F2400 X18 Y-13.442 E1312.02197
G0 F18000 X18.5 Y-13.442
G1 F2400 X18.499 Y-34.808 E1312.91027
G0 F18000 X18.999 Y-34.808
G1 F2400 X19 Y-13.442 E1313.79856
G0 F18000 X19.5 Y-13.442
G1 F2400 X19.499 Y-34.808 E1314.68686
G0 F18000 X19.999 Y-34.808
G1 F2400 X20 Y-13.442 E1315.57515
G0 F18000 X20.5 Y-13.442
G1 F2400 X20.499 Y-34.808 E1316.46345
G0 F18000 X20.999 Y-34.808
G1 F2400 X21 Y-13.442 E1317.35174
G0 F18000 X21.5 Y-13.442
G1 F2400 X21.499 Y-34.808 E1318.24004
G0 F18000 X21.999 Y-34.808
G1 F2400 X22 Y-13.442 E1319.12833
G0 F18000 X22.5 Y-13.442
G1 F2400 X22.499 Y-34.808 E1320.01663
G0 F18000 X22.999 Y-34.808
G1 F2400 X23 Y-13.442 E1320.90492
G0 F18000 X23.5 Y-13.442
G1 F2400 X23.499 Y-34.808 E1321.79322
G0 F18000 X23.999 Y-34.808
G1 F2400 X24 Y-13.442 E1322.68151
G0 F18000 X24.5 Y-13.442
G1 F2400 X24.499 Y-34.808 E1323.56981
G0 F18000 X24.999 Y-34.808
G1 F2400 X25 Y-13.442 E1324.4581
G0 F18000 X25.5 Y-13.442
G1 F2400 X25.499 Y-34.808 E1325.3464
G0 F18000 X25.999 Y-34.808
G1 F2400 X26 Y-13.442 E1326.23469
G0 F18000 X26.5 Y-13.442
G1 F2400 X26.499 Y-34.808 E1327.12299
G0 F18000 X26.999 Y-34.808
G1 F2400 X27 Y-13.442 E1328.01128
G0 F18000 X27.5 Y-13.442
G1 F2400 X27.499 Y-34.808 E1328.89958
G0 F18000 X27.999 Y-34.808
G1 F2400 X28 Y-13.442 E1329.78787
G0 F18000 X28.5 Y-13.442
G1 F2400 X28.499 Y-34.808 E1330.67617
G0 F18000 X28.999 Y-34.808
G1 F2400 X29 Y-13.442 E1331.56446
G0 F18000 X29.5 Y-13.442
G1 F2400 X29.499 Y-34.808 E1332.45276
G0 F18000 X29.999 Y-34.808
G1 F2400 X30 Y-13.442 E1333.34105
G0 F18000 X30.5 Y-13.442
G1 F2400 X30.499 Y-34.808 E1334.22935
G0 F18000 X30.999 Y-34.808
G1 F2400 X31 Y-13.442 E1335.11764
G0 F18000 X31.5 Y-13.442
G1 F2400 X31.499 Y-34.808 E1336.00594
G0 F18000 X31.999 Y-34.808
G1 F2400 X32 Y-13.442 E1336.89423
G0 F18000 X32.5 Y-13.442
G1 F2400 X32.499 Y-34.808 E1337.78253
G0 F18000 X32.999 Y-34.808
G1 F2400 X33 Y-13.442 E1338.67082
G0 F18000 X33.5 Y-13.442
G1 F2400 X33.499 Y-34.808 E1339.55912
G0 F18000 X33.999 Y-34.808
G1 F2400 X34 Y-13.442 E1340.44741
G0 F18000 X34.5 Y-13.442
G1 F2400 X34.499 Y-34.808 E1341.33571
G0 F18000 X34.999 Y-34.808
G1 F2400 X35 Y-13.442 E1342.224
G0 F18000 X35.5 Y-13.442
G1 F2400 X35.499 Y-34.808 E1343.1123
G0 F18000 X35.999 Y-34.808
G1 F2400 X36 Y-13.442 E1344.00059
G0 F18000 X36.5 Y-13.442
G1 F2400 X36.499 Y-34.808 E1344.88889
G0 F18000 X36.999 Y-34.808
G1 F2400 X37 Y-13.442 E1345.77718
G0 F18000 X37.5 Y-13.442
G1 F2400 X37.499 Y-34.808 E1346.66548
G0 F18000 X37.999 Y-34.808
G1 F2400 X38 Y-13.442 E1347.55377
G0 F18000 X38.5 Y-13.442
G1 F2400 X38.499 Y-34.808 E1348.44207
G0 F18000 X38.999 Y-34.808
G1 F2400 X39 Y-13.442 E1349.33036
G0 F18000 X39.5 Y-13.442
G1 F2400 X39.499 Y-34.808 E1350.21866
G0 F18000 X39.999 Y-34.808
G1 F2400 X40 Y-13.442 E1351.10695
G0 F18000 X40.5 Y-13.442
G1 F2400 X40.499 Y-34.808 E1351.99525
G0 F18000 X40.999 Y-34.808
G1 F2400 X41 Y-13.442 E1352.88354
G0 F18000 X41.5 Y-13.442
G1 F2400 X41.499 Y-34.808 E1353.77184
G0 F18000 X41.999 Y-34.808
G1 F2400 X42 Y-13.442 E1354.66013
G0 F18000 X42.5 Y-13.442
G1 F2400 X42.499 Y-34.808 E1355.54843
G0 F18000 X42.999 Y-34.808
G1 F2400 X43 Y-13.442 E1356.43672
G0 F18000 X43.5 Y-13.442
G1 F2400 X43.499 Y-34.808 E1357.32502
G0 F18000 X43.999 Y-34.808
G1 F2400 X44 Y-13.442 E1358.21331
G0 F18000 X44.5 Y-13.442
G1 F2400 X44.499 Y-34.808 E1359.10161
G0 F18000 X44.999 Y-34.808
G1 F2400 X45 Y-13.442 E1359.9899
G0 F18000 X45.5 Y-13.442
G1 F2400 X45.499 Y-34.808 E1360.8782
G0 F18000 X45.999 Y-34.808
G1 F2400 X46 Y-13.442 E1361.76649
G0 F18000 X46.5 Y-13.442
G1 F2400 X46.499 Y-34.808 E1362.65479
G0 F18000 X46.999 Y-34.808
G1 F2400 X47 Y-13.442 E1363.54308
G0 F18000 X47.5 Y-13.442
G1 F2400 X47.499 Y-34.808 E1364.43138
G0 F18000 X47.999 Y-34.808
G1 F2400 X48 Y-13.442 E1365.31967
G0 F18000 X48.5 Y-13.442
G1 F2400 X48.499 Y-34.808 E1366.20797
G1 F6600 E1359.40797
G1 Z0.8
G0 F18000 X50.45 Y-11.503
; TYPE:SUPPORT
G1 Z0.5
G1 F6600 E1366.30797
G1 F2400 X50.45 Y11.123 E1367.43678
G1 X-50.449 Y11.123 E1372.47066
G1 X-50.449 Y-11.503 E1373.59947
G1 X50.45 Y-11.503 E1378.63334
G0 F18000 X50.208 Y-9.895
G1 F2400 X48.841 Y-11.262 E1378.72979
G0 F18000 X45.305 Y-11.262
G1 F2400 X50.208 Y-6.359 E1379.07573
G0 F18000 X50.208 Y-2.824
G1 F2400 X41.77 Y-11.262 E1379.67107
G0 F18000 X38.234 Y-11.262
G1 F2400 X50.209 Y0.712 E1380.51594
G0 F18000 X50.209 Y4.247
G1 F2400 X34.699 Y-11.262 E1381.61022
G0 F18000 X31.163 Y-11.262
G1 F2400 X50.209 Y7.783 E1382.95398
G0 F18000 X49.773 Y10.883
G1 F2400 X27.628 Y-11.262 E1384.51643
G0 F18000 X24.092 Y-11.262
G1 F2400 X46.238 Y10.883 E1386.07891
G0 F18000 X42.702 Y10.883
G1 F2400 X20.557 Y-11.262 E1387.64136
G0 F18000 X17.021 Y-11.262
G1 F2400 X39.167 Y10.883 E1389.20385
G0 F18000 X35.631 Y10.883
G1 F2400 X13.485 Y-11.262 E1390.76633
G0 F18000 X9.95 Y-11.262
G1 F2400 X32.096 Y10.883 E1392.32882
G0 F18000 X28.56 Y10.883
G1 F2400 X6.414 Y-11.262 E1393.8913
G0 F18000 X2.879 Y-11.262
G1 F2400 X25.025 Y10.883 E1395.45379
G0 F18000 X21.489 Y10.883
G1 F2400 X-0.656 Y-11.263 E1397.01627
G0 F18000 X-4.192 Y-11.263
G1 F2400 X17.954 Y10.883 E1398.57879
G0 F18000 X14.418 Y10.883
G1 F2400 X-7.727 Y-11.263 E1400.14128
G0 F18000 X-11.263 Y-11.263
G1 F2400 X10.883 Y10.883 E1401.7038
G0 F18000 X7.347 Y10.883
G1 F2400 X-14.799 Y-11.263 E1403.26631
G0 F18000 X-18.334 Y-11.263
G1 F2400 X3.812 Y10.883 E1404.82883
G0 F18000 X0.276 Y10.883
G1 F2400 X-21.87 Y-11.263 E1406.39135
G0 F18000 X-25.405 Y-11.263
G1 F2400 X-3.259 Y10.883 E1407.95387
G0 F18000 X-6.794 Y10.883
G1 F2400 X-28.941 Y-11.263 E1409.51643
G0 F18000 X-32.476 Y-11.263
G1 F2400 X-10.33 Y10.883 E1411.07895
G0 F18000 X-13.865 Y10.883
G1 F2400 X-36.012 Y-11.263 E1412.64151
G0 F18000 X-39.547 Y-11.263
G1 F2400 X-17.401 Y10.883 E1414.20402
G0 F18000 X-20.936 Y10.883
G1 F2400 X-43.083 Y-11.263 E1415.76658
G0 F18000 X-46.618 Y-11.263
G1 F2400 X-24.472 Y10.883 E1417.3291
G0 F18000 X-28.007 Y10.883
G1 F2400 X-50.154 Y-11.263 E1418.89166
G0 F18000 X-50.208 Y-7.781
G1 F2400 X-31.543 Y10.883 E1420.20854
G0 F18000 X-35.078 Y10.883
G1 F2400 X-50.208 Y-4.246 E1421.276
G0 F18000 X-50.208 Y-0.71
G1 F2400 X-38.614 Y10.883 E1422.09399
G0 F18000 X-42.149 Y10.883
G1 F2400 X-50.208 Y2.824 E1422.66259
G0 F18000 X-50.208 Y6.36
G1 F2400 X-45.685 Y10.883 E1422.98172
G0 F18000 X-49.22 Y10.883
G1 F2400 X-50.208 Y9.895 E1423.05143
G0 F18000 X-50.208 Y9.895 Z0.8
; Layer Change GCode
; LAYER:2
G4 P0
M106 S255
G1 F6600 E1416.25143
G1 Z1.1
G0 F18000 X-49.749 Y35.75 Z1
G0 X-49.249 Y35.25
; TYPE:WALL-INNER
G1 Z0.7
G1 F6600 E1423.15143
G1 F2400 X-49.249 Y35.25 E1423.15143
G1 X-49.249 Y12.623 E1424.09215
G1 X49.25 Y12.623 E1428.18726
G1 X49.25 Y35.25 E1429.12798
G1 X-49.249 Y35.25 E1433.22309
G0 F18000 X-49.749 Y35.75
; TYPE:WALL-OUTER
G1 F2100 X-49.749 Y35.75 E1433.22309
G1 X-49.749 Y12.123 E1434.20539
G1 X49.75 Y12.123 E1438.34208
G1 X49.75 Y35.75 E1439.32437
G1 X-49.749 Y35.75 E1443.46106
G0 F18000 X-49.489 Y35.4
G0 X-48.809 Y34.5
G0 X-48.809 Y34.5
; TYPE:FILL
G1 F2400 X48.81 Y34.5 E1447.51959
G0 F18000 X48.81 Y34
G1 F2400 X-48.809 Y34 E1451.57811
G0 F18000 X-48.809 Y33.5
G1 F2400 X48.81 Y33.5 E1455.63664
G0 F18000 X48.81 Y33
G1 F2400 X-48.809 Y33 E1459.69517
G0 F18000 X-48.809 Y32.5
G1 F2400 X48.81 Y32.499 E1463.75369
G0 F18000 X48.81 Y31.999
G1 F2400 X-48.809 Y32 E1467.81222
G0 F18000 X-48.809 Y31.5
G1 F2400 X48.81 Y31.499 E1471.87075
G0 F18000 X48.81 Y30.999
G1 F2400 X-48.809 Y31 E1475.92927
G0 F18000 X-48.809 Y30.5
G1 F2400 X48.81 Y30.499 E1479.9878
G0 F18000 X48.81 Y29.999
G1 F2400 X-48.809 Y30 E1484.04633
G0 F18000 X-48.809 Y29.5
G1 F2400 X48.81 Y29.499 E1488.10485
G0 F18000 X48.81 Y28.999
G1 F2400 X-48.809 Y29 E1492.16338
G0 F18000 X-48.809 Y28.5
G1 F2400 X48.81 Y28.499 E1496.2219
G0 F18000 X48.81 Y27.999
G1 F2400 X-48.809 Y28 E1500.28043
G0 F18000 X-48.809 Y27.5
G1 F2400 X48.81 Y27.499 E1504.33896
G0 F18000 X48.81 Y26.999
G1 F2400 X-48.809 Y27 E1508.39748
G0 F18000 X-48.809 Y26.5
G1 F2400 X48.81 Y26.499 E1512.45601
G0 F18000 X48.81 Y25.999
G1 F2400 X-48.809 Y26 E1516.51454
G0 F18000 X-48.809 Y25.5
G1 F2400 X48.81 Y25.499 E1520.57306
G0 F18000 X48.81 Y24.999
G1 F2400 X-48.809 Y25 E1524.63159
G0 F18000 X-48.809 Y24.5
G1 F2400 X48.81 Y24.499 E1528.69012
G0 F18000 X48.81 Y23.999
G1 F2400 X-48.809 Y24 E1532.74864
G0 F18000 X-48.809 Y23.5
G1 F2400 X48.81 Y23.499 E1536.80717
G0 F18000 X48.81 Y22.999
G1 F2400 X-48.809 Y23 E1540.8657
G0 F18000 X-48.809 Y22.5
G1 F2400 X48.81 Y22.499 E1544.92422
G0 F18000 X48.81 Y21.999
G1 F2400 X-48.809 Y22 E1548.98275
G0 F18000 X-48.809 Y21.5
G1 F2400 X48.81 Y21.499 E1553.04127
G0 F18000 X48.81 Y20.999
G1 F2400 X-48.809 Y21 E1557.0998
G0 F18000 X-48.809 Y20.5
G1 F2400 X48.81 Y20.499 E1561.15833
G0 F18000 X48.81 Y19.999
G1 F2400 X-48.809 Y20 E1565.21685
G0 F18000 X-48.809 Y19.5
G1 F2400 X48.81 Y19.499 E1569.27538
G0 F18000 X48.81 Y18.999
G1 F2400 X-48.809 Y19 E1573.33391
G0 F18000 X-48.809 Y18.5
G1 F2400 X48.81 Y18.499 E1577.39243
G0 F18000 X48.81 Y17.999
G1 F2400 X-48.809 Y18 E1581.45096
G0 F18000 X-48.809 Y17.5
G1 F2400 X48.81 Y17.499 E1585.50949
G0 F18000 X48.81 Y16.999
G1 F2400 X-48.809 Y17 E1589.56801
G0 F18000 X-48.809 Y16.5
G1 F2400 X48.81 Y16.499 E1593.62654
G0 F18000 X48.81 Y15.999
G1 F2400 X-48.809 Y16 E1597.68506
G0 F18000 X-48.809 Y15.5
G1 F2400 X48.81 Y15.499 E1601.74359
G0 F18000 X48.81 Y14.999
G1 F2400 X-48.809 Y15 E1605.80212
G0 F18000 X-48.809 Y14.5
G1 F2400 X48.81 Y14.499 E1609.86064
G0 F18000 X48.81 Y13.999
G1 F2400 X-48.809 Y14 E1613.91917
G0 F18000 X-48.809 Y13.5
G1 F2400 X48.81 Y13.499 E1617.9777
G1 F6600 E1611.1777
G1 Z1
G0 F18000 X-49.749 Y-12.503
G0 X-49.249 Y-13.003
; TYPE:WALL-INNER
G1 Z0.7
G1 F6600 E1618.0777
G1 F2400 X-49.249 Y-13.003 E1618.0777
G1 X-49.249 Y-35.249 E1619.00258
G1 X49.25 Y-35.249 E1623.09769
G1 X49.25 Y-13.003 E1624.02257
G1 X-49.249 Y-13.003 E1628.11768
G0 F18000 X-49.749 Y-12.503
; TYPE:WALL-OUTER
G1 F2100 X-49.749 Y-12.503 E1628.11768
G1 X-49.749 Y-35.749 E1629.08414
G1 X49.75 Y-35.749 E1633.22083
G1 X49.75 Y-12.503 E1634.18728
G1 X-49.749 Y-12.503 E1638.32397
G0 F18000 X-48.809 Y-13.499
; TYPE:FILL
G1 F2400 X48.81 Y-13.5 E1642.3825
G0 F18000 X48.81 Y-14
G1 F2400 X-48.809 Y-13.999 E1646.44103
G0 F18000 X-48.809 Y-14.499
G1 F2400 X48.81 Y-14.5 E1650.49955
G0 F18000 X48.81 Y-15
G1 F2400 X-48.809 Y-14.999 E1654.55808
G0 F18000 X-48.809 Y-15.499
G1 F2400 X48.81 Y-15.5 E1658.6166
G0 F18000 X48.81 Y-16
G1 F2400 X-48.809 Y-15.999 E1662.67513
G0 F18000 X-48.809 Y-16.499
G1 F2400 X48.81 Y-16.5 E1666.73366
G0 F18000 X48.81 Y-17
G1 F2400 X-48.809 Y-16.999 E1670.79218
G0 F18000 X-48.809 Y-17.499
G1 F2400 X48.81 Y-17.5 E1674.85071
G0 F18000 X48.81 Y-18
G1 F2400 X-48.809 Y-17.999 E1678.90924
G0 F18000 X-48.809 Y-18.499
G1 F2400 X48.81 Y-18.5 E1682.96776
G0 F18000 X48.81 Y-19
G1 F2400 X-48.809 Y-18.999 E1687.02629
G0 F18000 X-48.809 Y-19.499
G1 F2400 X48.81 Y-19.5 E1691.08482
G0 F18000 X48.81 Y-20
G1 F2400 X-48.809 Y-19.999 E1695.14334
G0 F18000 X-48.809 Y-20.499
G1 F2400 X48.81 Y-20.5 E1699.20187
G0 F18000 X48.81 Y-21
G1 F2400 X-48.809 Y-20.999 E1703.2604
G0 F18000 X-48.809 Y-21.499
G1 F2400 X48.81 Y-21.5 E1707.31892
G0 F18000 X48.81 Y-22
G1 F2400 X-48.809 Y-21.999 E1711.37745
G0 F18000 X-48.809 Y-22.499
G1 F2400 X48.81 Y-22.5 E1715.43597
G0 F18000 X48.81 Y-23
G1 F2400 X-48.809 Y-22.999 E1719.4945
G0 F18000 X-48.809 Y-23.499
G1 F2400 X48.81 Y-23.5 E1723.55303
G0 F18000 X48.81 Y-24
G1 F2400 X-48.809 Y-23.999 E1727.61155
G0 F18000 X-48.809 Y-24.499
G1 F2400 X48.81 Y-24.5 E1731.67008
G0 F18000 X48.81 Y-25
G1 F2400 X-48.809 Y-24.999 E1735.72861
G0 F18000 X-48.809 Y-25.499
G1 F2400 X48.81 Y-25.5 E1739.78713
G0 F18000 X48.81 Y-26
G1 F2400 X-48.809 Y-25.999 E1743.84566
G0 F18000 X-48.809 Y-26.499
G1 F2400 X48.81 Y-26.5 E1747.90419
G0 F18000 X48.81 Y-27
G1 F2400 X-48.809 Y-26.999 E1751.96271
G0 F18000 X-48.809 Y-27.499
G1 F2400 X48.81 Y-27.5 E1756.02124
G0 F18000 X48.81 Y-28
G1 F2400 X-48.809 Y-27.999 E1760.07976
G0 F18000 X-48.809 Y-28.499
G1 F2400 X48.81 Y-28.5 E1764.13829
G0 F18000 X48.81 Y-29
G1 F2400 X-48.809 Y-28.999 E1768.19682
G0 F18000 X-48.809 Y-29.499
G1 F2400 X48.81 Y-29.5 E1772.25534
G0 F18000 X48.81 Y-30
G1 F2400 X-48.809 Y-29.999 E1776.31387
G0 F18000 X-48.809 Y-30.499
G1 F2400 X48.81 Y-30.5 E1780.3724
G0 F18000 X48.81 Y-31
G1 F2400 X-48.809 Y-30.999 E1784.43092
G0 F18000 X-48.809 Y-31.499
G1 F2400 X48.81 Y-31.5 E1788.48945
G0 F18000 X48.81 Y-32
G1 F2400 X-48.809 Y-31.999 E1792.54798
G0 F18000 X-48.809 Y-32.499
G1 F2400 X48.81 Y-32.5 E1796.6065
G0 F18000 X48.81 Y-33
G1 F2400 X-48.809 Y-33 E1800.66503
G0 F18000 X-48.809 Y-33.5
G1 F2400 X48.81 Y-33.5 E1804.72356
G0 F18000 X48.81 Y-34
G1 F2400 X-48.809 Y-34 E1808.78208
G0 F18000 X-48.809 Y-34.5
G1 F2400 X48.81 Y-34.5 E1812.84061
G1 F6600 E1806.04061
G1 Z1
G0 F18000 X50.45 Y-11.503
; TYPE:SUPPORT
G1 Z0.7
G1 F6600 E1812.94061
G1 F2400 X50.45 Y11.123 E1814.06942
G1 X-50.449 Y11.123 E1819.1033
G1 X-50.449 Y-11.503 E1820.23211
G1 X50.45 Y-11.503 E1825.26598
G0 F18000 X50.208 Y-9.895
G1 F2400 X48.841 Y-11.262 E1825.36243
G0 F18000 X45.305 Y-11.262
G1 F2400 X50.208 Y-6.359 E1825.70836
G0 F18000 X50.208 Y-2.824
G1 F2400 X41.77 Y-11.262 E1826.30371
G0 F18000 X38.234 Y-11.262
G1 F2400 X50.209 Y0.712 E1827.14858
G0 F18000 X50.209 Y4.247
G1 F2400 X34.699 Y-11.262 E1828.24286
G0 F18000 X31.163 Y-11.262
G1 F2400 X50.209 Y7.783 E1829.58662
G0 F18000 X49.773 Y10.883
G1 F2400 X27.628 Y-11.262 E1831.14907
G0 F18000 X24.092 Y-11.262
G1 F2400 X46.238 Y10.883 E1832.71155
G0 F18000 X42.702 Y10.883
G1 F2400 X20.557 Y-11.262 E1834.274
G0 F18000 X17.021 Y-11.262
G1 F2400 X39.167 Y10.883 E1835.83649
G0 F18000 X35.631 Y10.883
G1 F2400 X13.485 Y-11.262 E1837.39897
G0 F18000 X9.95 Y-11.262
G1 F2400 X32.096 Y10.883 E1838.96146
G0 F18000 X28.56 Y10.883
G1 F2400 X6.414 Y-11.262 E1840.52394
G0 F18000 X2.879 Y-11.262
G1 F2400 X25.025 Y10.883 E1842.08643
G0 F18000 X21.489 Y10.883
G1 F2400 X-0.656 Y-11.263 E1843.64891
G0 F18000 X-4.192 Y-11.263
G1 F2400 X17.954 Y10.883 E1845.21143
G0 F18000 X14.418 Y10.883
G1 F2400 X-7.727 Y-11.263 E1846.77391
G0 F18000 X-11.263 Y-11.263
G1 F2400 X10.883 Y10.883 E1848.33643
G0 F18000 X7.347 Y10.883
G1 F2400 X-14.799 Y-11.263 E1849.89895
G0 F18000 X-18.334 Y-11.263
G1 F2400 X3.812 Y10.883 E1851.46147
G0 F18000 X0.276 Y10.883
G1 F2400 X-21.87 Y-11.263 E1853.02399
G0 F18000 X-25.405 Y-11.263
G1 F2400 X-3.259 Y10.883 E1854.58651
G0 F18000 X-6.794 Y10.883
G1 F2400 X-28.941 Y-11.263 E1856.14907
G0 F18000 X-32.476 Y-11.263
G1 F2400 X-10.33 Y10.883 E1857.71159
G0 F18000 X-13.865 Y10.883
G1 F2400 X-36.012 Y-11.263 E1859.27414
G0 F18000 X-39.547 Y-11.263
G1 F2400 X-17.401 Y10.883 E1860.83666
G0 F18000 X-20.936 Y10.883
G1 F2400 X-43.083 Y-11.263 E1862.39922
G0 F18000 X-46.618 Y-11.263
G1 F2400 X-24.472 Y10.883 E1863.96174
G0 F18000 X-28.007 Y10.883
G1 F2400 X-50.154 Y-11.263 E1865.52429
G0 F18000 X-50.208 Y-7.781
G1 F2400 X-31.543 Y10.883 E1866.84118
G0 F18000 X-35.078 Y10.883
G1 F2400 X-50.208 Y-4.246 E1867.90864
G0 F18000 X-50.208 Y-0.71
G1 F2400 X-38.614 Y10.883 E1868.72663
G0 F18000 X-42.149 Y10.883
G1 F2400 X-50.208 Y2.824 E1869.29523
G0 F18000 X-50.208 Y6.36
G1 F2400 X-45.685 Y10.883 E1869.61436
G0 F18000 X-49.22 Y10.883
G1 F2400 X-50.208 Y9.895 E1869.68406
G0 F18000 X-50.208 Y9.895 Z1
; Layer Change GCode
; LAYER:3
G1 F6600 E1862.88406
G1 Z1.3
G0 F18000 X-49.749 Y35.75 Z1.2
G0 X-49.249 Y35.25
; TYPE:WALL-INNER
G1 Z0.9
G1 F6600 E1869.78406
G1 F2400 X-49.249 Y35.25 E1869.78406
G1 X-49.249 Y12.623 E1870.72479
G1 X49.25 Y12.623 E1874.8199
G1 X49.25 Y35.25 E1875.76062
G1 X-49.249 Y35.25 E1879.85573
G0 F18000 X-49.749 Y35.75
; TYPE:WALL-OUTER
G1 F2100 X-49.749 Y35.75 E1879.85573
G1 X-49.749 Y12.123 E1880.83803
G1 X49.75 Y12.123 E1884.97472
G1 X49.75 Y35.75 E1885.95701
G1 X-49.749 Y35.75 E1890.0937
G0 F18000 X-49.489 Y35.4
G0 X-48.499 Y34.809
G0 X-48.499 Y34.809
; TYPE:FILL
G1 F2400 X-48.5 Y13.062 E1890.99784
G0 F18000 X-48 Y13.062
G1 F2400 X-47.999 Y34.809 E1891.90197
G0 F18000 X-47.499 Y34.809
G1 F2400 X-47.5 Y13.062 E1892.80611
G0 F18000 X-47 Y13.062
G1 F2400 X-46.999 Y34.809 E1893.71024
G0 F18000 X-46.499 Y34.809
G1 F2400 X-46.5 Y13.062 E1894.61438
G0 F18000 X-46 Y13.062
G1 F2400 X-45.999 Y34.809 E1895.51851
G0 F18000 X-45.499 Y34.809
G1 F2400 X-45.5 Y13.062 E1896.42265
G0 F18000 X-45 Y13.062
G1 F2400 X-44.999 Y34.809 E1897.32678
G0 F18000 X-44.499 Y34.809
G1 F2400 X-44.5 Y13.062 E1898.23092
G0 F18000 X-44 Y13.062
G1 F2400 X-43.999 Y34.809 E1899.13505
G0 F18000 X-43.499 Y34.809
G1 F2400 X-43.5 Y13.062 E1900.03919
G0 F18000 X-43 Y13.062
G1 F2400 X-42.999 Y34.809 E1900.94332
G0 F18000 X-42.499 Y34.809
G1 F2400 X-42.5 Y13.062 E1901.84746
G0 F18000 X-42 Y13.062
G1 F2400 X-41.999 Y34.809 E1902.75159
G0 F18000 X-41.499 Y34.809
G1 F2400 X-41.5 Y13.062 E1903.65573
G0 F18000 X-41 Y13.062
G1 F2400 X-40.999 Y34.809 E1904.55986
G0 F18000 X-40.499 Y34.809
G1 F2400 X-40.5 Y13.062 E1905.464
G0 F18000 X-40 Y13.062
G1 F2400 X-39.999 Y34.809 E1906.36813
G0 F18000 X-39.499 Y34.809
G1 F2400 X-39.5 Y13.062 E1907.27227
G0 F18000 X-39 Y13.062
G1 F2400 X-38.999 Y34.809 E1908.1764
G0 F18000 X-38.499 Y34.809
G1 F2400 X-38.5 Y13.062 E1909.08054
G0 F18000 X-38 Y13.062
G1 F2400 X-37.999 Y34.809 E1909.98468
G0 F18000 X-37.499 Y34.809
G1 F2400 X-37.5 Y13.062 E1910.88881
G0 F18000 X-37 Y13.062
G1 F2400 X-36.999 Y34.809 E1911.79295
G0 F18000 X-36.499 Y34.809
G1 F2400 X-36.5 Y13.062 E1912.69708
G0 F18000 X-36 Y13.062
G1 F2400 X-35.999 Y34.809 E1913.60122
G0 F18000 X-35.499 Y34.809
G1 F2400 X-35.5 Y13.062 E1914.50535
G0 F18000 X-35 Y13.062
G1 F2400 X-34.999 Y34.809 E1915.40949
G0 F18000 X-34.499 Y34.809
G1 F2400 X-34.5 Y13.062 E1916.31362
G0 F18000 X-34 Y13.062
G1 F2400 X-33.999 Y34.809 E1917.21776
G0 F18000 X-33.499 Y34.809
G1 F2400 X-33.5 Y13.062 E1918.12189
G0 F18000 X-33 Y13.062
G1 F2400 X-32.999 Y34.809 E1919.02603
G0 F18000 X-32.499 Y34.809
G1 F2400 X-32.5 Y13.062 E1919.93016
G0 F18000 X-32 Y13.062
G1 F2400 X-31.999 Y34.809 E1920.8343
G0 F18000 X-31.499 Y34.809
G1 F2400 X-31.5 Y13.062 E1921.73843
G0 F18000 X-31 Y13.062
G1 F2400 X-30.999 Y34.809 E1922.64257
G0 F18000 X-30.499 Y34.809
G1 F2400 X-30.5 Y13.062 E1923.5467
G0 F18000 X-30 Y13.062
G1 F2400 X-29.999 Y34.809 E1924.45084
G0 F18000 X-29.499 Y34.809
G1 F2400 X-29.5 Y13.062 E1925.35497
G0 F18000 X-29 Y13.062
G1 F2400 X-28.999 Y34.809 E1926.25911
G0 F18000 X-28.499 Y34.809
G1 F2400 X-28.5 Y13.062 E1927.16324
G0 F18000 X-28 Y13.062
G1 F2400 X-27.999 Y34.809 E1928.06738
G0 F18000 X-27.499 Y34.809
G1 F2400 X-27.5 Y13.062 E1928.97151
G0 F18000 X-27 Y13.062
G1 F2400 X-26.999 Y34.809 E1929.87565
G0 F18000 X-26.499 Y34.809
G1 F2400 X-26.5 Y13.062 E1930.77978
G0 F18000 X-26 Y13.062
G1 F2400 X-25.999 Y34.809 E1931.68392
G0 F18000 X-25.499 Y34.809
G1 F2400 X-25.5 Y13.062 E1932.58806
G0 F18000 X-25 Y13.062
G1 F2400 X-24.999 Y34.809 E1933.49219
G0 F18000 X-24.499 Y34.809
G1 F2400 X-24.5 Y13.062 E1934.39633
G0 F18000 X-24 Y13.062
G1 F2400 X-23.999 Y34.809 E1935.30046
G0 F18000 X-23.499 Y34.809
G1 F2400 X-23.5 Y13.062 E1936.2046
G0 F18000 X-23 Y13.062
G1 F2400 X-22.999 Y34.809 E1937.10873
G0 F18000 X-22.499 Y34.809
G1 F2400 X-22.5 Y13.062 E1938.01287
G0 F18000 X-22 Y13.062
G1 F2400 X-21.999 Y34.809 E1938.917
G0 F18000 X-21.499 Y34.809
G1 F2400 X-21.5 Y13.062 E1939.82114
G0 F18000 X-21 Y13.062
G1 F2400 X-20.999 Y34.809 E1940.72527
G0 F18000 X-20.499 Y34.809
G1 F2400 X-20.5 Y13.062 E1941.62941
G0 F18000 X-20 Y13.062
G1 F2400 X-19.999 Y34.809 E1942.53354
G0 F18000 X-19.499 Y34.809
G1 F2400 X-19.5 Y13.062 E1943.43768
G0 F18000 X-19 Y13.062
G1 F2400 X-18.999 Y34.809 E1944.34181
G0 F18000 X-18.499 Y34.809
G1 F2400 X-18.5 Y13.062 E1945.24595
G0 F18000 X-18 Y13.062
G1 F2400 X-17.999 Y34.809 E1946.15008
G0 F18000 X-17.499 Y34.809
G1 F2400 X-17.5 Y13.062 E1947.05422
G0 F18000 X-17 Y13.062
G1 F2400 X-16.999 Y34.809 E1947.95835
G0 F18000 X-16.499 Y34.809
G1 F2400 X-16.5 Y13.062 E1948.86249
G0 F18000 X-15.999 Y13.062
G1 F2400 X-15.999 Y34.809 E1949.76662
G0 F18000 X-15.499 Y34.809
G1 F2400 X-15.499 Y13.062 E1950.67076
G0 F18000 X-14.999 Y13.062
G1 F2400 X-14.999 Y34.809 E1951.57489
G0 F18000 X-14.499 Y34.809
G1 F2400 X-14.499 Y13.062 E1952.47903
G0 F18000 X-13.999 Y13.062
G1 F2400 X-13.999 Y34.809 E1953.38316
G0 F18000 X-13.499 Y34.809
G1 F2400 X-13.499 Y13.062 E1954.2873
G0 F18000 X-12.999 Y13.062
G1 F2400 X-12.999 Y34.809 E1955.19144
G0 F18000 X-12.499 Y34.809
G1 F2400 X-12.499 Y13.062 E1956.09557
G0 F18000 X-11.999 Y13.062
G1 F2400 X-11.999 Y34.809 E1956.99971
G0 F18000 X-11.499 Y34.809
G1 F2400 X-11.499 Y13.062 E1957.90384
G0 F18000 X-10.999 Y13.062
G1 F2400 X-10.999 Y34.809 E1958.80798
G0 F18000 X-10.499 Y34.809
G1 F2400 X-10.499 Y13.062 E1959.71211
G0 F18000 X-9.999 Y13.062
G1 F2400 X-9.999 Y34.809 E1960.61625
G0 F18000 X-9.499 Y34.809
G1 F2400 X-9.499 Y13.062 E1961.52038
G0 F18000 X-8.999 Y13.062
G1 F2400 X-8.999 Y34.809 E1962.42452
G0 F18000 X-8.499 Y34.809
G1 F2400 X-8.499 Y13.062 E1963.32865
G0 F18000 X-7.999 Y13.062
G1 F2400 X-7.999 Y34.809 E1964.23279
G0 F18000 X-7.499 Y34.809
G1 F2400 X-7.499 Y13.062 E1965.13692
G0 F18000 X-6.999 Y13.062
G1 F2400 X-6.999 Y34.809 E1966.04106
G0 F18000 X-6.499 Y34.809
G1 F2400 X-6.499 Y13.062 E1966.94519
G0 F18000 X-5.999 Y13.062
G1 F2400 X-5.999 Y34.809 E1967.84933
G0 F18000 X-5.499 Y34.809
G1 F2400 X-5.499 Y13.062 E1968.75346
G0 F18000 X-4.999 Y13.062
G1 F2400 X-4.999 Y34.809 E1969.6576
G0 F18000 X-4.499 Y34.809
G1 F2400 X-4.499 Y13.062 E1970.56173
G0 F18000 X-3.999 Y13.062
G1 F2400 X-3.999 Y34.809 E1971.46587
G0 F18000 X-3.499 Y34.809
G1 F2400 X-3.499 Y13.062 E1972.37
G0 F18000 X-2.999 Y13.062
G1 F2400 X-2.999 Y34.809 E1973.27414
G0 F18000 X-2.499 Y34.809
G1 F2400 X-2.499 Y13.062 E1974.17827
G0 F18000 X-1.999 Y13.062
G1 F2400 X-1.999 Y34.809 E1975.08241
G0 F18000 X-1.499 Y34.809
G1 F2400 X-1.499 Y13.062 E1975.98654
G0 F18000 X-0.999 Y13.062
G1 F2400 X-0.999 Y34.809 E1976.89068
G0 F18000 X-0.499 Y34.809
G1 F2400 X-0.499 Y13.062 E1977.79482
G0 F18000 X0 Y13.062
G1 F2400 X0 Y34.81 E1978.69899
G0 F18000 X0.5 Y34.81
G1 F2400 X0.5 Y13.063 E1979.60313
G0 F18000 X1 Y13.063
G1 F2400 X1 Y34.81 E1980.50726
G0 F18000 X1.5 Y34.81
G1 F2400 X1.5 Y13.063 E1981.4114
G0 F18000 X2 Y13.063
G1 F2400 X2 Y34.81 E1982.31553
G0 F18000 X2.5 Y34.81
G1 F2400 X2.5 Y13.063 E1983.21967
G0 F18000 X3 Y13.063
G1 F2400 X3 Y34.81 E1984.1238
G0 F18000 X3.5 Y34.81
G1 F2400 X3.5 Y13.063 E1985.02794
G0 F18000 X4 Y13.063
G1 F2400 X4 Y34.81 E1985.93207
G0 F18000 X4.5 Y34.81
G1 F2400 X4.5 Y13.063 E1986.83621
G0 F18000 X5 Y13.063
G1 F2400 X5 Y34.81 E1987.74034
G0 F18000 X5.5 Y34.81
G1 F2400 X5.5 Y13.063 E1988.64448
G0 F18000 X6 Y13.063
G1 F2400 X6 Y34.81 E1989.54861
G0 F18000 X6.5 Y34.81
G1 F2400 X6.5 Y13.063 E1990.45275
G0 F18000 X7 Y13.063
G1 F2400 X7 Y34.81 E1991.35688
G0 F18000 X7.5 Y34.81
G1 F2400 X7.5 Y13.062 E1992.26106
G0 F18000 X8 Y13.062
G1 F2400 X8 Y34.81 E1993.16524
G0 F18000 X8.5 Y34.81
G1 F2400 X8.5 Y13.062 E1994.06941
G0 F18000 X9 Y13.062
G1 F2400 X9 Y34.81 E1994.97359
G0 F18000 X9.5 Y34.81
G1 F2400 X9.5 Y13.062 E1995.87777
G0 F18000 X10 Y13.062
G1 F2400 X10 Y34.81 E1996.78195
G0 F18000 X10.5 Y34.81
G1 F2400 X10.5 Y13.062 E1997.68612
G0 F18000 X11 Y13.062
G1 F2400 X11 Y34.81 E1998.5903
G0 F18000 X11.5 Y34.81
G1 F2400 X11.5 Y13.062 E1999.49448
G0 F18000 X12 Y13.062
G1 F2400 X12 Y34.81 E2000.39865
G0 F18000 X12.5 Y34.81
G1 F2400 X12.5 Y13.062 E2001.30283
G0 F18000 X13 Y13.062
G1 F2400 X13 Y34.81 E2002.20701
G0 F18000 X13.5 Y34.81
G1 F2400 X13.5 Y13.062 E2003.11118
G0 F18000 X14 Y13.062
G1 F2400 X14 Y34.81 E2004.01536
G0 F18000 X14.5 Y34.81
G1 F2400 X14.5 Y13.062 E2004.91954
G0 F18000 X15 Y13.062
G1 F2400 X15 Y34.81 E2005.82371
G0 F18000 X15.5 Y34.81
G1 F2400 X15.5 Y13.062 E2006.72789
G0 F18000 X16 Y13.062
G1 F2400 X16 Y34.81 E2007.63207
G0 F18000 X16.5 Y34.81
G1 F2400 X16.5 Y13.062 E2008.53624
G0 F18000 X17 Y13.062
G1 F2400 X17 Y34.81 E2009.44042
G0 F18000 X17.5 Y34.81
G1 F2400 X17.5 Y13.062 E2010.3446
G0 F18000 X18 Y13.062
G1 F2400 X18 Y34.81 E2011.24877
G0 F18000 X18.5 Y34.81
G1 F2400 X18.5 Y13.062 E2012.15295
G0 F18000 X19 Y13.062
G1 F2400 X19 Y34.81 E2013.05713
G0 F18000 X19.5 Y34.81
G1 F2400 X19.5 Y13.062 E2013.9613
G0 F18000 X20 Y13.062
G1 F2400 X20 Y34.81 E2014.86548
G0 F18000 X20.5 Y34.81
G1 F2400 X20.5 Y13.062 E2015.76966
G0 F18000 X21 Y13.062
G1 F2400 X21 Y34.81 E2016.67383
G0 F18000 X21.5 Y34.81
G1 F2400 X21.5 Y13.062 E2017.57801
G0 F18000 X22 Y13.062
G1 F2400 X22 Y34.81 E2018.48219
G0 F18000 X22.5 Y34.81
G1 F2400 X22.5 Y13.062 E2019.38636
G0 F18000 X23 Y13.062
G1 F2400 X23 Y34.81 E2020.29054
G0 F18000 X23.5 Y34.81
G1 F2400 X23.5 Y13.062 E2021.19472
G0 F18000 X24 Y13.062
G1 F2400 X24 Y34.81 E2022.09889
G0 F18000 X24.5 Y34.81
G1 F2400 X24.5 Y13.062 E2023.00307
G0 F18000 X25 Y13.062
G1 F2400 X25 Y34.81 E2023.90725
G0 F18000 X25.5 Y34.81
G1 F2400 X25.5 Y13.062 E2024.81143
G0 F18000 X26 Y13.062
G1 F2400 X26 Y34.81 E2025.7156
G0 F18000 X26.5 Y34.81
G1 F2400 X26.5 Y13.062 E2026.61978
G0 F18000 X27 Y13.062
G1 F2400 X27 Y34.81 E2027.52396
G0 F18000 X27.5 Y34.81
G1 F2400 X27.5 Y13.062 E2028.42813
G0 F18000 X28 Y13.062
G1 F2400 X28 Y34.81 E2029.33231
G0 F18000 X28.5 Y34.81
G1 F2400 X28.5 Y13.062 E2030.23649
G0 F18000 X29 Y13.062
G1 F2400 X29 Y34.81 E2031.14066
G0 F18000 X29.5 Y34.81
G1 F2400 X29.5 Y13.062 E2032.04484
G0 F18000 X30 Y13.062
G1 F2400 X30 Y34.809 E2032.94897
G0 F18000 X30.5 Y34.809
G1 F2400 X30.5 Y13.062 E2033.85311
G0 F18000 X31 Y13.062
G1 F2400 X31 Y34.809 E2034.75724
G0 F18000 X31.5 Y34.809
G1 F2400 X31.5 Y13.062 E2035.66138
G0 F18000 X32 Y13.062
G1 F2400 X32 Y34.809 E2036.56552
G0 F18000 X32.5 Y34.809
G1 F2400 X32.5 Y13.062 E2037.46965
G0 F18000 X33 Y13.062
G1 F2400 X33 Y34.809 E2038.37379
G0 F18000 X33.5 Y34.809
G1 F2400 X33.5 Y13.062 E2039.27792
G0 F18000 X34 Y13.062
G1 F2400 X34 Y34.809 E2040.18206
G0 F18000 X34.5 Y34.809
G1 F2400 X34.5 Y13.062 E2041.08619
G0 F18000 X35 Y13.062
G1 F2400 X35 Y34.809 E2041.99033
G0 F18000 X35.5 Y34.809
G1 F2400 X35.5 Y13.062 E2042.89446
G0 F18000 X36 Y13.062
G1 F2400 X36 Y34.809 E2043.7986
G0 F18000 X36.5 Y34.809
G1 F2400 X36.5 Y13.062 E2044.70273
G0 F18000 X37 Y13.062
G1 F2400 X37 Y34.809 E2045.60687
G0 F18000 X37.5 Y34.809
G1 F2400 X37.5 Y13.062 E2046.511
G0 F18000 X38 Y13.062
G1 F2400 X38 Y34.809 E2047.41514
G0 F18000 X38.5 Y34.809
G1 F2400 X38.5 Y13.062 E2048.31927
G0 F18000 X39 Y13.062
G1 F2400 X39 Y34.809 E2049.22341
G0 F18000 X39.5 Y34.809
G1 F2400 X39.5 Y13.062 E2050.12754
G0 F18000 X40 Y13.062
G1 F2400 X40 Y34.809 E2051.03168
G0 F18000 X40.5 Y34.809
G1 F2400 X40.5 Y13.062 E2051.93581
G0 F18000 X41 Y13.062
G1 F2400 X41 Y34.809 E2052.83995
G0 F18000 X41.5 Y34.809
G1 F2400 X41.5 Y13.062 E2053.74408
G0 F18000 X42 Y13.062
G1 F2400 X42 Y34.809 E2054.64822
G0 F18000 X42.5 Y34.809
G1 F2400 X42.5 Y13.062 E2055.55235
G0 F18000 X43 Y13.062
G1 F2400 X43 Y34.809 E2056.45649
G0 F18000 X43.5 Y34.809
G1 F2400 X43.5 Y13.062 E2057.36062
G0 F18000 X44 Y13.062
G1 F2400 X44 Y34.809 E2058.26476
G0 F18000 X44.5 Y34.809
G1 F2400 X44.5 Y13.062 E2059.1689
G0 F18000 X45 Y13.062
G1 F2400 X45 Y34.809 E2060.07303
G0 F18000 X45.5 Y34.809
G1 F2400 X45.5 Y13.062 E2060.97717
G0 F18000 X46 Y13.062
G1 F2400 X46 Y34.809 E2061.8813
G0 F18000 X46.5 Y34.809
G1 F2400 X46.5 Y13.062 E2062.78544
G0 F18000 X47 Y13.062
G1 F2400 X47 Y34.809 E2063.68957
G0 F18000 X47.5 Y34.809
G1 F2400 X47.5 Y13.062 E2064.59371
G0 F18000 X48 Y13.062
G1 F2400 X48 Y34.809 E2065.49784
G0 F18000 X48.5 Y34.809
G1 F2400 X48.5 Y13.062 E2066.40198
G1 F6600 E2059.60198
G1 Z1.2
G0 F18000 X-49.749 Y-12.503
G0 X-49.249 Y-13.003
; TYPE:WALL-INNER
G1 Z0.9
G1 F6600 E2066.50198
G1 F2400 X-49.249 Y-13.003 E2066.50198
G1 X-49.249 Y-35.249 E2067.42686
G1 X49.25 Y-35.249 E2071.52197
G1 X49.25 Y-13.003 E2072.44685
G1 X-49.249 Y-13.003 E2076.54196
G0 F18000 X-49.749 Y-12.503
; TYPE:WALL-OUTER
G1 F2100 X-49.749 Y-12.503 E2076.54196
G1 X-49.749 Y-35.749 E2077.50842
G1 X49.75 Y-35.749 E2081.64511
G1 X49.75 Y-12.503 E2082.61156
G1 X-49.749 Y-12.503 E2086.74825
G0 F18000 X-49.489 Y-12.853
G0 X-48.5 Y-13.442
G0 X-48.5 Y-13.442
; TYPE:FILL
G1 F2400 X-48.5 Y-34.808 E2087.63655
G0 F18000 X-48 Y-34.808
G1 F2400 X-48 Y-13.442 E2088.52484
G0 F18000 X-47.5 Y-13.442
G1 F2400 X-47.5 Y-34.808 E2089.41314
G0 F18000 X-47 Y-34.808
G1 F2400 X-47 Y-13.442 E2090.30143
G0 F18000 X-46.5 Y-13.442
G1 F2400 X-46.5 Y-34.808 E2091.18973
G0 F18000 X-46 Y-34.808
G1 F2400 X-46 Y-13.442 E2092.07802
G0 F18000 X-45.5 Y-13.442
G1 F2400 X-45.5 Y-34.808 E2092.96632
G0 F18000 X-45 Y-34.808
G1 F2400 X-45 Y-13.442 E2093.85461
G0 F18000 X-44.5 Y-13.442
G1 F2400 X-44.5 Y-34.808 E2094.74291
G0 F18000 X-44 Y-34.808
G1 F2400 X-44 Y-13.442 E2095.6312
G0 F18000 X-43.5 Y-13.442
G1 F2400 X-43.5 Y-34.808 E2096.5195
G0 F18000 X-43 Y-34.808
G1 F2400 X-43 Y-13.442 E2097.40779
G0 F18000 X-42.5 Y-13.442
G1 F2400 X-42.5 Y-34.808 E2098.29609
G0 F18000 X-42 Y-34.808
G1 F2400 X-42 Y-13.442 E2099.18438
G0 F18000 X-41.5 Y-13.442
G1 F2400 X-41.5 Y-34.808 E2100.07268
G0 F18000 X-41 Y-34.808
G1 F2400 X-41 Y-13.442 E2100.96097
G0 F18000 X-40.5 Y-13.442
G1 F2400 X-40.5 Y-34.808 E2101.84927
G0 F18000 X-40 Y-34.808
G1 F2400 X-40 Y-13.442 E2102.73756
G0 F18000 X-39.5 Y-13.442
G1 F2400 X-39.5 Y-34.808 E2103.62586
G0 F18000 X-39 Y-34.808
G1 F2400 X-39 Y-13.442 E2104.51415
G0 F18000 X-38.5 Y-13.442
G1 F2400 X-38.5 Y-34.808 E2105.40245
G0 F18000 X-38 Y-34.808
G1 F2400 X-38 Y-13.442 E2106.29074
G0 F18000 X-37.5 Y-13.442
G1 F2400 X-37.5 Y-34.808 E2107.17904
G0 F18000 X-37 Y-34.808
G1 F2400 X-37 Y-13.442 E2108.06733
G0 F18000 X-36.5 Y-13.442
G1 F2400 X-36.5 Y-34.808 E2108.95563
G0 F18000 X-36 Y-34.808
G1 F2400 X-36 Y-13.442 E2109.84392
G0 F18000 X-35.5 Y-13.442
G1 F2400 X-35.5 Y-34.808 E2110.73222
G0 F18000 X-35 Y-34.808
G1 F2400 X-35 Y-13.442 E2111.62051
G0 F18000 X-34.5 Y-13.442
G1 F2400 X-34.5 Y-34.808 E2112.50881
G0 F18000 X-34 Y-34.808
G1 F2400 X-34 Y-13.442 E2113.3971
G0 F18000 X-33.5 Y-13.442
G1 F2400 X-33.5 Y-34.808 E2114.2854
G0 F18000 X-33 Y-34.808
G1 F2400 X-33 Y-13.442 E2115.17369
G0 F18000 X-32.5 Y-13.442
G1 F2400 X-32.5 Y-34.808 E2116.06199
G0 F18000 X-32 Y-34.808
G1 F2400 X-32 Y-13.442 E2116.95028
G0 F18000 X-31.5 Y-13.442
G1 F2400 X-31.5 Y-34.808 E2117.83858
G0 F18000 X-31 Y-34.808
G1 F2400 X-31 Y-13.442 E2118.72687
G0 F18000 X-30.5 Y-13.442
G1 F2400 X-30.5 Y-34.808 E2119.61517
G0 F18000 X-30 Y-34.808
G1 F2400 X-30 Y-13.442 E2120.50346
G0 F18000 X-29.5 Y-13.442
G1 F2400 X-29.5 Y-34.809 E2121.3918
G0 F18000 X-29 Y-34.809
G1 F2400 X-29 Y-13.442 E2122.28014
G0 F18000 X-28.5 Y-13.442
G1 F2400 X-28.5 Y-34.809 E2123.16847
G0 F18000 X-28 Y-34.809
G1 F2400 X-28 Y-13.442 E2124.05681
G0 F18000 X-27.5 Y-13.442
G1 F2400 X-27.5 Y-34.809 E2124.94515
G0 F18000 X-27 Y-34.809
G1 F2400 X-27 Y-13.442 E2125.83348
G0 F18000 X-26.5 Y-13.442
G1 F2400 X-26.5 Y-34.809 E2126.72182
G0 F18000 X-26 Y-34.809
G1 F2400 X-26 Y-13.442 E2127.61016
G0 F18000 X-25.5 Y-13.442
G1 F2400 X-25.5 Y-34.809 E2128.49849
G0 F18000 X-25 Y-34.809
G1 F2400 X-25 Y-13.442 E2129.38683
G0 F18000 X-24.5 Y-13.442
G1 F2400 X-24.5 Y-34.809 E2130.27517
G0 F18000 X-24 Y-34.809
G1 F2400 X-24 Y-13.442 E2131.1635
G0 F18000 X-23.5 Y-13.442
G1 F2400 X-23.5 Y-34.809 E2132.05184
G0 F18000 X-23 Y-34.809
G1 F2400 X-23 Y-13.442 E2132.94018
G0 F18000 X-22.5 Y-13.442
G1 F2400 X-22.5 Y-34.809 E2133.82851
G0 F18000 X-22 Y-34.809
G1 F2400 X-22 Y-13.442 E2134.71685
G0 F18000 X-21.5 Y-13.442
G1 F2400 X-21.5 Y-34.809 E2135.60519
G0 F18000 X-21 Y-34.809
G1 F2400 X-21 Y-13.442 E2136.49352
G0 F18000 X-20.5 Y-13.442
G1 F2400 X-20.5 Y-34.809 E2137.38186
G0 F18000 X-20 Y-34.809
G1 F2400 X-20 Y-13.442 E2138.2702
G0 F18000 X-19.5 Y-13.442
G1 F2400 X-19.5 Y-34.809 E2139.15853
G0 F18000 X-19 Y-34.809
G1 F2400 X-19 Y-13.442 E2140.04687
G0 F18000 X-18.5 Y-13.442
G1 F2400 X-18.5 Y-34.809 E2140.93521
G0 F18000 X-18 Y-34.809
G1 F2400 X-18 Y-13.442 E2141.82354
G0 F18000 X-17.5 Y-13.442
G1 F2400 X-17.5 Y-34.809 E2142.71188
G0 F18000 X-17 Y-34.809
G1 F2400 X-17 Y-13.442 E2143.60022
G0 F18000 X-16.5 Y-13.442
G1 F2400 X-16.5 Y-34.809 E2144.48855
G0 F18000 X-16 Y-34.809
G1 F2400 X-16 Y-13.442 E2145.37689
G0 F18000 X-15.5 Y-13.442
G1 F2400 X-15.5 Y-34.809 E2146.26523
G0 F18000 X-15 Y-34.809
G1 F2400 X-15 Y-13.442 E2147.15356
G0 F18000 X-14.5 Y-13.442
G1 F2400 X-14.5 Y-34.809 E2148.0419
G0 F18000 X-14 Y-34.809
G1 F2400 X-14 Y-13.442 E2148.93024
G0 F18000 X-13.5 Y-13.442
G1 F2400 X-13.5 Y-34.809 E2149.81857
G0 F18000 X-13 Y-34.809
G1 F2400 X-13 Y-13.442 E2150.70691
G0 F18000 X-12.5 Y-13.442
G1 F2400 X-12.5 Y-34.809 E2151.59525
G0 F18000 X-12 Y-34.809
G1 F2400 X-12 Y-13.442 E2152.48358
G0 F18000 X-11.5 Y-13.442
G1 F2400 X-11.5 Y-34.809 E2153.37192
G0 F18000 X-11 Y-34.809
G1 F2400 X-11 Y-13.442 E2154.26026
G0 F18000 X-10.5 Y-13.442
G1 F2400 X-10.5 Y-34.809 E2155.14859
G0 F18000 X-10 Y-34.809
G1 F2400 X-10 Y-13.442 E2156.03693
G0 F18000 X-9.5 Y-13.442
G1 F2400 X-9.5 Y-34.809 E2156.92527
G0 F18000 X-9 Y-34.809
G1 F2400 X-9 Y-13.442 E2157.8136
G0 F18000 X-8.5 Y-13.442
G1 F2400 X-8.5 Y-34.809 E2158.70194
G0 F18000 X-8 Y-34.809
G1 F2400 X-8 Y-13.442 E2159.59028
G0 F18000 X-7.5 Y-13.442
G1 F2400 X-7.5 Y-34.809 E2160.47861
G0 F18000 X-7 Y-34.809
G1 F2400 X-7 Y-13.443 E2161.36691
G0 F18000 X-6.5 Y-13.443
G1 F2400 X-6.5 Y-34.809 E2162.2552
G0 F18000 X-6 Y-34.809
G1 F2400 X-6 Y-13.443 E2163.1435
G0 F18000 X-5.5 Y-13.443
G1 F2400 X-5.5 Y-34.809 E2164.03179
G0 F18000 X-5 Y-34.809
G1 F2400 X-5 Y-13.443 E2164.92009
G0 F18000 X-4.5 Y-13.443
G1 F2400 X-4.5 Y-34.809 E2165.80838
G0 F18000 X-4 Y-34.809
G1 F2400 X-4 Y-13.443 E2166.69668
G0 F18000 X-3.5 Y-13.443
G1 F2400 X-3.5 Y-34.809 E2167.58497
G0 F18000 X-3 Y-34.809
G1 F2400 X-3 Y-13.443 E2168.47327
G0 F18000 X-2.5 Y-13.443
G1 F2400 X-2.5 Y-34.809 E2169.36156
G0 F18000 X-2 Y-34.809
G1 F2400 X-2 Y-13.443 E2170.24986
G0 F18000 X-1.5 Y-13.443
G1 F2400 X-1.5 Y-34.809 E2171.13815
G0 F18000 X-1 Y-34.809
G1 F2400 X-1 Y-13.443 E2172.02645
G0 F18000 X-0.5 Y-13.443
G1 F2400 X-0.5 Y-34.809 E2172.91474
G0 F18000 X0 Y-34.809
G1 F2400 X0 Y-13.443 E2173.80304
G0 F18000 X0.499 Y-13.442
G1 F2400 X0.499 Y-34.808 E2174.69133
G0 F18000 X0.999 Y-34.808
G1 F2400 X0.999 Y-13.442 E2175.57963
G0 F18000 X1.499 Y-13.442
G1 F2400 X1.499 Y-34.808 E2176.46792
G0 F18000 X1.999 Y-34.808
G1 F2400 X1.999 Y-13.442 E2177.35622
G0 F18000 X2.499 Y-13.442
G1 F2400 X2.499 Y-34.808 E2178.24451
G0 F18000 X2.999 Y-34.808
G1 F2400 X2.999 Y-13.442 E2179.13281
G0 F18000 X3.499 Y-13.442
G1 F2400 X3.499 Y-34.808 E2180.0211
G0 F18000 X3.999 Y-34.808
G1 F2400 X3.999 Y-13.442 E2180.9094
G0 F18000 X4.499 Y-13.442
G1 F2400 X4.499 Y-34.808 E2181.79769
G0 F18000 X4.999 Y-34.808
G1 F2400 X4.999 Y-13.442 E2182.68599
G0 F18000 X5.499 Y-13.442
G1 F2400 X5.499 Y-34.808 E2183.57428
G0 F18000 X5.999 Y-34.808
G1 F2400 X5.999 Y-13.442 E2184.46258
G0 F18000 X6.499 Y-13.442
G1 F2400 X6.499 Y-34.808 E2185.35087
G0 F18000 X6.999 Y-34.808
G1 F2400 X6.999 Y-13.442 E2186.23917
G0 F18000 X7.499 Y-13.442
G1 F2400 X7.499 Y-34.808 E2187.12746
G0 F18000 X7.999 Y-34.808
G1 F2400 X7.999 Y-13.442 E2188.01576
G0 F18000 X8.499 Y-13.442
G1 F2400 X8.499 Y-34.808 E2188.90405
G0 F18000 X8.999 Y-34.808
G1 F2400 X8.999 Y-13.442 E2189.79235
G0 F18000 X9.499 Y-13.442
G1 F2400 X9.499 Y-34.808 E2190.68065
G0 F18000 X9.999 Y-34.808
G1 F2400 X9.999 Y-13.442 E2191.56894
G0 F18000 X10.499 Y-13.442
G1 F2400 X10.499 Y-34.808 E2192.45724
G0 F18000 X10.999 Y-34.808
G1 F2400 X10.999 Y-13.442 E2193.34553
G0 F18000 X11.499 Y-13.442
G1 F2400 X11.499 Y-34.808 E2194.23383
G0 F18000 X11.999 Y-34.808
G1 F2400 X11.999 Y-13.442 E2195.12212
G0 F18000 X12.499 Y-13.442
G1 F2400 X12.499 Y-34.808 E2196.01042
G0 F18000 X12.999 Y-34.808
G1 F2400 X12.999 Y-13.442 E2196.89871
G0 F18000 X13.499 Y-13.442
G1 F2400 X13.499 Y-34.808 E2197.78701
G0 F18000 X13.999 Y-34.808
G1 F2400 X13.999 Y-13.442 E2198.6753
G0 F18000 X14.499 Y-13.442
G1 F2400 X14.499 Y-34.808 E2199.5636
G0 F18000 X14.999 Y-34.808
G1 F2400 X14.999 Y-13.442 E2200.45189
G0 F18000 X15.499 Y-13.442
G1 F2400 X15.499 Y-34.808 E2201.34019
G0 F18000 X15.999 Y-34.808
G1 F2400 X15.999 Y-13.442 E2202.22848
G0 F18000 X16.5 Y-13.442
G1 F2400 X16.499 Y-34.808 E2203.11678
G0 F18000 X16.999 Y-34.808
G1 F2400 X17 Y-13.442 E2204.00507
G0 F18000 X17.5 Y-13.442
G1 F2400 X17.499 Y-34.808 E2204.89337
G0 F18000 X17.999 Y-34.808
G1 F2400 X18 Y-13.442 E2205.78166
G0 F18000 X18.5 Y-13.442
G1 F2400 X18.499 Y-34.808 E2206.66996
G0 F18000 X18.999 Y-34.808
G1 F2400 X19 Y-13.442 E2207.55825
G0 F18000 X19.5 Y-13.442
G1 F2400 X19.499 Y-34.808 E2208.44655
G0 F18000 X19.999 Y-34.808
G1 F2400 X20 Y-13.442 E2209.33484
G0 F18000 X20.5 Y-13.442
G1 F2400 X20.499 Y-34.808 E2210.22314
G0 F18000 X20.999 Y-34.808
G1 F2400 X21 Y-13.442 E2211.11143
G0 F18000 X21.5 Y-13.442
G1 F2400 X21.499 Y-34.808 E2211.99973
G0 F18000 X21.999 Y-34.808
G1 F2400 X22 Y-13.442 E2212.88802
G0 F18000 X22.5 Y-13.442
G1 F2400 X22.499 Y-34.808 E2213.77632
G0 F18000 X22.999 Y-34.808
G1 F2400 X23 Y-13.442 E2214.66461
G0 F18000 X23.5 Y-13.442
G1 F2400 X23.499 Y-34.808 E2215.55291
G0 F18000 X23.999 Y-34.808
G1 F2400 X24 Y-13.442 E2216.4412
G0 F18000 X24.5 Y-13.442
G1 F2400 X24.499 Y-34.808 E2217.3295
G0 F18000 X24.999 Y-34.808
G1 F2400 X25 Y-13.442 E2218.21779
G0 F18000 X25.5 Y-13.442
G1 F2400 X25.499 Y-34.808 E2219.10609
G0 F18000 X25.999 Y-34.808
G1 F2400 X26 Y-13.442 E2219.99438
G0 F18000 X26.5 Y-13.442
G1 F2400 X26.499 Y-34.808 E2220.88268
G0 F18000 X26.999 Y-34.808
G1 F2400 X27 Y-13.442 E2221.77097
G0 F18000 X27.5 Y-13.442
G1 F2400 X27.499 Y-34.808 E2222.65927
G0 F18000 X27.999 Y-34.808
G1 F2400 X28 Y-13.442 E2223.54756
G0 F18000 X28.5 Y-13.442
G1 F2400 X28.499 Y-34.808 E2224.43586
G0 F18000 X28.999 Y-34.808
G1 F2400 X29 Y-13.442 E2225.32415
G0 F18000 X29.5 Y-13.442
G1 F2400 X29.499 Y-34.808 E2226.21245
G0 F18000 X29.999 Y-34.808
G1 F2400 X30 Y-13.442 E2227.10074
G0 F18000 X30.5 Y-13.442
G1 F2400 X30.499 Y-34.808 E2227.98904
G0 F18000 X30.999 Y-34.808
G1 F2400 X31 Y-13.442 E2228.87733
G0 F18000 X31.5 Y-13.442
G1 F2400 X31.499 Y-34.808 E2229.76563
G0 F18000 X31.999 Y-34.808
G1 F2400 X32 Y-13.442 E2230.65392
G0 F18000 X32.5 Y-13.442
G1 F2400 X32.499 Y-34.808 E2231.54222
G0 F18000 X32.999 Y-34.808
G1 F2400 X33 Y-13.442 E2232.43051
G0 F18000 X33.5 Y-13.442
G1 F2400 X33.499 Y-34.808 E2233.31881
G0 F18000 X33.999 Y-34.808
G1 F2400 X34 Y-13.442 E2234.2071
G0 F18000 X34.5 Y-13.442
G1 F2400 X34.499 Y-34.808 E2235.0954
G0 F18000 X34.999 Y-34.808
G1 F2400 X35 Y-13.442 E2235.98369
G0 F18000 X35.5 Y-13.442
G1 F2400 X35.499 Y-34.808 E2236.87199
G0 F18000 X35.999 Y-34.808
G1 F2400 X36 Y-13.442 E2237.76028
G0 F18000 X36.5 Y-13.442
G1 F2400 X36.499 Y-34.808 E2238.64858
G0 F18000 X36.999 Y-34.808
G1 F2400 X37 Y-13.442 E2239.53687
G0 F18000 X37.5 Y-13.442
G1 F2400 X37.499 Y-34.808 E2240.42517
G0 F18000 X37.999 Y-34.808
G1 F2400 X38 Y-13.442 E2241.31346
G0 F18000 X38.5 Y-13.442
G1 F2400 X38.499 Y-34.808 E2242.20176
G0 F18000 X38.999 Y-34.808
G1 F2400 X39 Y-13.442 E2243.09005
G0 F18000 X39.5 Y-13.442
G1 F2400 X39.499 Y-34.808 E2243.97835
G0 F18000 X39.999 Y-34.808
G1 F2400 X40 Y-13.442 E2244.86664
G0 F18000 X40.5 Y-13.442
G1 F2400 X40.499 Y-34.808 E2245.75494
G0 F18000 X40.999 Y-34.808
G1 F2400 X41 Y-13.442 E2246.64323
G0 F18000 X41.5 Y-13.442
G1 F2400 X41.499 Y-34.808 E2247.53153
G0 F18000 X41.999 Y-34.808
G1 F2400 X42 Y-13.442 E2248.41982
G0 F18000 X42.5 Y-13.442
G1 F2400 X42.499 Y-34.808 E2249.30812
G0 F18000 X42.999 Y-34.808
G1 F2400 X43 Y-13.442 E2250.19641
G0 F18000 X43.5 Y-13.442
G1 F2400 X43.499 Y-34.808 E2251.08471
G0 F18000 X43.999 Y-34.808
G1 F2400 X44 Y-13.442 E2251.973
G0 F18000 X44.5 Y-13.442
G1 F2400 X44.499 Y-34.808 E2252.8613
G0 F18000 X44.999 Y-34.808
G1 F2400 X45 Y-13.442 E2253.74959
G0 F18000 X45.5 Y-13.442
G1 F2400 X45.499 Y-34.808 E2254.63789
G0 F18000 X45.999 Y-34.808
G1 F2400 X46 Y-13.442 E2255.52618
G0 F18000 X46.5 Y-13.442
G1 F2400 X46.499 Y-34.808 E2256.41448
G0 F18000 X46.999 Y-34.808
G1 F2400 X47 Y-13.442 E2257.30277
G0 F18000 X47.5 Y-13.442
G1 F2400 X47.499 Y-34.808 E2258.19107
G0 F18000 X47.999 Y-34.808
G1 F2400 X48 Y-13.442 E2259.07936
G0 F18000 X48.5 Y-13.442
G1 F2400 X48.499 Y-34.808 E2259.96766
G1 F6600 E2253.16766
G1 Z1.2
G0 F18000 X50.45 Y-11.503
; TYPE:SUPPORT
G1 Z0.9
G1 F6600 E2260.06766
G1 F2400 X50.45 Y11.123 E2261.19648
G1 X-50.449 Y11.123 E2266.23035
G1 X-50.449 Y-11.503 E2267.35916
G1 X50.45 Y-11.503 E2272.39303
G0 F18000 X50.208 Y-9.895
G1 F2400 X48.841 Y-11.262 E2272.48948
G0 F18000 X45.305 Y-11.262
G1 F2400 X50.208 Y-6.359 E2272.83542
G0 F18000 X50.208 Y-2.824
G1 F2400 X41.77 Y-11.262 E2273.43076
G0 F18000 X38.234 Y-11.262
G1 F2400 X50.209 Y0.712 E2274.27563
G0 F18000 X50.209 Y4.247
G1 F2400 X34.699 Y-11.262 E2275.36991
G0 F18000 X31.163 Y-11.262
G1 F2400 X50.209 Y7.783 E2276.71367
G0 F18000 X49.773 Y10.883
G1 F2400 X27.628 Y-11.262 E2278.27612
G0 F18000 X24.092 Y-11.262
G1 F2400 X46.238 Y10.883 E2279.8386
G0 F18000 X42.702 Y10.883
G1 F2400 X20.557 Y-11.262 E2281.40105
G0 F18000 X17.021 Y-11.262
G1 F2400 X39.167 Y10.883 E2282.96354
G0 F18000 X35.631 Y10.883
G1 F2400 X13.485 Y-11.262 E2284.52602
G0 F18000 X9.95 Y-11.262
G1 F2400 X32.096 Y10.883 E2286.08851
G0 F18000 X28.56 Y10.883
G1 F2400 X6.414 Y-11.262 E2287.65099
G0 F18000 X2.879 Y-11.262
G1 F2400 X25.025 Y10.883 E2289.21348
G0 F18000 X21.489 Y10.883
G1 F2400 X-0.656 Y-11.263 E2290.77596
G0 F18000 X-4.192 Y-11.263
G1 F2400 X17.954 Y10.883 E2292.33848
G0 F18000 X14.418 Y10.883
G1 F2400 X-7.727 Y-11.263 E2293.90097
G0 F18000 X-11.263 Y-11.263
G1 F2400 X10.883 Y10.883 E2295.46349
G0 F18000 X7.347 Y10.883
G1 F2400 X-14.799 Y-11.263 E2297.02601
G0 F18000 X-18.334 Y-11.263
G1 F2400 X3.812 Y10.883 E2298.58853
G0 F18000 X0.276 Y10.883
G1 F2400 X-21.87 Y-11.263 E2300.15105
G0 F18000 X-25.405 Y-11.263
G1 F2400 X-3.259 Y10.883 E2301.71357
G0 F18000 X-6.794 Y10.883
G1 F2400 X-28.941 Y-11.263 E2303.27612
G0 F18000 X-32.476 Y-11.263
G1 F2400 X-10.33 Y10.883 E2304.83864
G0 F18000 X-13.865 Y10.883
G1 F2400 X-36.012 Y-11.263 E2306.4012
G0 F18000 X-39.547 Y-11.263
G1 F2400 X-17.401 Y10.883 E2307.96372
G0 F18000 X-20.936 Y10.883
G1 F2400 X-43.083 Y-11.263 E2309.52627
G0 F18000 X-46.618 Y-11.263
G1 F2400 X-24.472 Y10.883 E2311.08879
G0 F18000 X-28.007 Y10.883
G1 F2400 X-50.154 Y-11.263 E2312.65135
G0 F18000 X-50.208 Y-7.781
G1 F2400 X-31.543 Y10.883 E2313.96823
G0 F18000 X-35.078 Y10.883
G1 F2400 X-50.208 Y-4.246 E2315.0357
G0 F18000 X-50.208 Y-0.71
G1 F2400 X-38.614 Y10.883 E2315.85368
G0 F18000 X-42.149 Y10.883
G1 F2400 X-50.208 Y2.824 E2316.42229
G0 F18000 X-50.208 Y6.36
G1 F2400 X-45.685 Y10.883 E2316.74141
G0 F18000 X-49.22 Y10.883
G1 F2400 X-50.208 Y9.895 E2316.81112
G0 F18000 X-50.208 Y9.895 Z1.2
; Layer Change GCode
; LAYER:4
G1 F6600 E2310.01112
G1 Z1.5
G0 F18000 X-49.749 Y35.75 Z1.4
G0 X-49.249 Y35.25
; TYPE:WALL-INNER
G1 Z1.1
G1 F6600 E2316.91112
G1 F2400 X-49.249 Y35.25 E2316.91112
G1 X-49.249 Y12.623 E2317.85184
G1 X49.25 Y12.623 E2321.94695
G1 X49.25 Y35.25 E2322.88767
G1 X-49.249 Y35.25 E2326.98278
G0 F18000 X-49.749 Y35.75
; TYPE:WALL-OUTER
G1 F2100 X-49.749 Y35.75 E2326.98278
G1 X-49.749 Y12.123 E2327.96508
G1 X49.75 Y12.123 E2332.10177
G1 X49.75 Y35.75 E2333.08406
G1 X-49.749 Y35.75 E2337.22075
G0 F18000 X-49.489 Y35.4
G0 X-48.809 Y34.5
G0 X-48.809 Y34.5
; TYPE:FILL
G1 F2400 X48.81 Y34.5 E2341.27928
G0 F18000 X48.81 Y34
G1 F2400 X-48.809 Y34 E2345.33781
G0 F18000 X-48.809 Y33.5
G1 F2400 X48.81 Y33.5 E2349.39633
G0 F18000 X48.81 Y33
G1 F2400 X-48.809 Y33 E2353.45486
G0 F18000 X-48.809 Y32.5
G1 F2400 X48.81 Y32.499 E2357.51338
G0 F18000 X48.81 Y31.999
G1 F2400 X-48.809 Y32 E2361.57191
G0 F18000 X-48.809 Y31.5
G1 F2400 X48.81 Y31.499 E2365.63044
G0 F18000 X48.81 Y30.999
G1 F2400 X-48.809 Y31 E2369.68896
G0 F18000 X-48.809 Y30.5
G1 F2400 X48.81 Y30.499 E2373.74749
G0 F18000 X48.81 Y29.999
G1 F2400 X-48.809 Y30 E2377.80602
G0 F18000 X-48.809 Y29.5
G1 F2400 X48.81 Y29.499 E2381.86454
G0 F18000 X48.81 Y28.999
G1 F2400 X-48.809 Y29 E2385.92307
G0 F18000 X-48.809 Y28.5
G1 F2400 X48.81 Y28.499 E2389.9816
G0 F18000 X48.81 Y27.999
G1 F2400 X-48.809 Y28 E2394.04012
G0 F18000 X-48.809 Y27.5
G1 F2400 X48.81 Y27.499 E2398.09865
G0 F18000 X48.81 Y26.999
G1 F2400 X-48.809 Y27 E2402.15717
G0 F18000 X-48.809 Y26.5
G1 F2400 X48.81 Y26.499 E2406.2157
G0 F18000 X48.81 Y25.999
G1 F2400 X-48.809 Y26 E2410.27423
G0 F18000 X-48.809 Y25.5
G1 F2400 X48.81 Y25.499 E2414.33275
G0 F18000 X48.81 Y24.999
G1 F2400 X-48.809 Y25 E2418.39128
G0 F18000 X-48.809 Y24.5
G1 F2400 X48.81 Y24.499 E2422.44981
G0 F18000 X48.81 Y23.999
G1 F2400 X-48.809 Y24 E2426.50833
G0 F18000 X-48.809 Y23.5
G1 F2400 X48.81 Y23.499 E2430.56686
G0 F18000 X48.81 Y22.999
G1 F2400 X-48.809 Y23 E2434.62539
G0 F18000 X-48.809 Y22.5
G1 F2400 X48.81 Y22.499 E2438.68391
G0 F18000 X48.81 Y21.999
G1 F2400 X-48.809 Y22 E2442.74244
G0 F18000 X-48.809 Y21.5
G1 F2400 X48.81 Y21.499 E2446.80097
G0 F18000 X48.81 Y20.999
G1 F2400 X-48.809 Y21 E2450.85949
G0 F18000 X-48.809 Y20.5
G1 F2400 X48.81 Y20.499 E2454.91802
G0 F18000 X48.81 Y19.999
G1 F2400 X-48.809 Y20 E2458.97654
G0 F18000 X-48.809 Y19.5
G1 F2400 X48.81 Y19.499 E2463.03507
G0 F18000 X48.81 Y18.999
G1 F2400 X-48.809 Y19 E2467.0936
G0 F18000 X-48.809 Y18.5
G1 F2400 X48.81 Y18.499 E2471.15212
G0 F18000 X48.81 Y17.999
G1 F2400 X-48.809 Y18 E2475.21065
G0 F18000 X-48.809 Y17.5
G1 F2400 X48.81 Y17.499 E2479.26918
G0 F18000 X48.81 Y16.999
G1 F2400 X-48.809 Y17 E2483.3277
G0 F18000 X-48.809 Y16.5
G1 F2400 X48.81 Y16.499 E2487.38623
G0 F18000 X48.81 Y15.999
G1 F2400 X-48.809 Y16 E2491.44476
G0 F18000 X-48.809 Y15.5
G1 F2400 X48.81 Y15.499 E2495.50328
G0 F18000 X48.81 Y14.999
G1 F2400 X-48.809 Y15 E2499.56181
G0 F18000 X-48.809 Y14.5
G1 F2400 X48.81 Y14.499 E2503.62034
G0 F18000 X48.81 Y13.999
G1 F2400 X-48.809 Y14 E2507.67886
G0 F18000 X-48.809 Y13.5
G1 F2400 X48.81 Y13.499 E2511.73739
G1 F6600 E2504.93739
G1 Z1.4
G0 F18000 X-49.749 Y-12.503
G0 X-49.249 Y-13.003
; TYPE:WALL-INNER
G1 Z1.1
G1 F6600 E2511.83739
G1 F2400 X-49.249 Y-13.003 E2511.83739
G1 X-49.249 Y-35.249 E2512.76227
G1 X49.25 Y-35.249 E2516.85738
G1 X49.25 Y-13.003 E2517.78226
G1 X-49.249 Y-13.003 E2521.87738
G0 F18000 X-49.749 Y-12.503
; TYPE:WALL-OUTER
G1 F2100 X-49.749 Y-12.503 E2521.87738
G1 X-49.749 Y-35.749 E2522.84383
G1 X49.75 Y-35.749 E2526.98052
G1 X49.75 Y-12.503 E2527.94698
G1 X-49.749 Y-12.503 E2532.08366
G0 F18000 X-48.809 Y-13.499
; TYPE:FILL
G1 F2400 X48.81 Y-13.5 E2536.14219
G0 F18000 X48.81 Y-14
G1 F2400 X-48.809 Y-13.999 E2540.20072
G0 F18000 X-48.809 Y-14.499
G1 F2400 X48.81 Y-14.5 E2544.25924
G0 F18000 X48.81 Y-15
G1 F2400 X-48.809 Y-14.999 E2548.31777
G0 F18000 X-48.809 Y-15.499
G1 F2400 X48.81 Y-15.5 E2552.3763
G0 F18000 X48.81 Y-16
G1 F2400 X-48.809 Y-15.999 E2556.43482
G0 F18000 X-48.809 Y-16.499
G1 F2400 X48.81 Y-16.5 E2560.49335
G0 F18000 X48.81 Y-17
G1 F2400 X-48.809 Y-16.999 E2564.55187
G0 F18000 X-48.809 Y-17.499
G1 F2400 X48.81 Y-17.5 E2568.6104
G0 F18000 X48.81 Y-18
G1 F2400 X-48.809 Y-17.999 E2572.66893
G0 F18000 X-48.809 Y-18.499
G1 F2400 X48.81 Y-18.5 E2576.72745
G0 F18000 X48.81 Y-19
G1 F2400 X-48.809 Y-18.999 E2580.78598
G0 F18000 X-48.809 Y-19.499
G1 F2400 X48.81 Y-19.5 E2584.84451
G0 F18000 X48.81 Y-20
G1 F2400 X-48.809 Y-19.999 E2588.90303
G0 F18000 X-48.809 Y-20.499
G1 F2400 X48.81 Y-20.5 E2592.96156
G0 F18000 X48.81 Y-21
G1 F2400 X-48.809 Y-20.999 E2597.02009
G0 F18000 X-48.809 Y-21.499
G1 F2400 X48.81 Y-21.5 E2601.07861
G0 F18000 X48.81 Y-22
G1 F2400 X-48.809 Y-21.999 E2605.13714
G0 F18000 X-48.809 Y-22.499
G1 F2400 X48.81 Y-22.5 E2609.19567
G0 F18000 X48.81 Y-23
G1 F2400 X-48.809 Y-22.999 E2613.25419
G0 F18000 X-48.809 Y-23.499
G1 F2400 X48.81 Y-23.5 E2617.31272
G0 F18000 X48.81 Y-24
G1 F2400 X-48.809 Y-23.999 E2621.37124
G0 F18000 X-48.809 Y-24.499
G1 F2400 X48.81 Y-24.5 E2625.42977
G0 F18000 X48.81 Y-25
G1 F2400 X-48.809 Y-24.999 E2629.4883
G0 F18000 X-48.809 Y-25.499
G1 F2400 X48.81 Y-25.5 E2633.54682
G0 F18000 X48.81 Y-26
G1 F2400 X-48.809 Y-25.999 E2637.60535
G0 F18000 X-48.809 Y-26.499
G1 F2400 X48.81 Y-26.5 E2641.66388
G0 F18000 X48.81 Y-27
G1 F2400 X-48.809 Y-26.999 E2645.7224
G0 F18000 X-48.809 Y-27.499
G1 F2400 X48.81 Y-27.5 E2649.78093
G0 F18000 X48.81 Y-28
G1 F2400 X-48.809 Y-27.999 E2653.83946
G0 F18000 X-48.809 Y-28.499
G1 F2400 X48.81 Y-28.5 E2657.89798
G0 F18000 X48.81 Y-29
G1 F2400 X-48.809 Y-28.999 E2661.95651
G0 F18000 X-48.809 Y-29.499
G1 F2400 X48.81 Y-29.5 E2666.01503
G0 F18000 X48.81 Y-30
G1 F2400 X-48.809 Y-29.999 E2670.07356
G0 F18000 X-48.809 Y-30.499
G1 F2400 X48.81 Y-30.5 E2674.13209
G0 F18000 X48.81 Y-31
G1 F2400 X-48.809 Y-30.999 E2678.19061
G0 F18000 X-48.809 Y-31.499
G1 F2400 X48.81 Y-31.5 E2682.24914
G0 F18000 X48.81 Y-32
G1 F2400 X-48.809 Y-31.999 E2686.30767
G0 F18000 X-48.809 Y-32.499
G1 F2400 X48.81 Y-32.5 E2690.36619
G0 F18000 X48.81 Y-33
G1 F2400 X-48.809 Y-33 E2694.42472
G0 F18000 X-48.809 Y-33.5
G1 F2400 X48.81 Y-33.5 E2698.48325
G0 F18000 X48.81 Y-34
G1 F2400 X-48.809 Y-34 E2702.54177
G0 F18000 X-48.809 Y-34.5
G1 F2400 X48.81 Y-34.5 E2706.6003
G1 F6600 E2699.8003
G1 Z1.4
G0 F18000 X50.45 Y-11.503
; TYPE:SUPPORT
G1 Z1.1
G1 F6600 E2706.7003
G1 F2400 X50.45 Y11.123 E2707.82911
G1 X-50.449 Y11.123 E2712.86299
G1 X-50.449 Y-11.503 E2713.9918
G1 X50.45 Y-11.503 E2719.02567
G0 F18000 X50.208 Y-9.895
G1 F2400 X48.841 Y-11.262 E2719.12212
G0 F18000 X45.305 Y-11.262
G1 F2400 X50.208 Y-6.359 E2719.46806
G0 F18000 X50.208 Y-2.824
G1 F2400 X41.77 Y-11.262 E2720.0634
G0 F18000 X38.234 Y-11.262
G1 F2400 X50.209 Y0.712 E2720.90827
G0 F18000 X50.209 Y4.247
G1 F2400 X34.699 Y-11.262 E2722.00255
G0 F18000 X31.163 Y-11.262
G1 F2400 X50.209 Y7.783 E2723.34631
G0 F18000 X49.773 Y10.883
G1 F2400 X27.628 Y-11.262 E2724.90876
G0 F18000 X24.092 Y-11.262
G1 F2400 X46.238 Y10.883 E2726.47124
G0 F18000 X42.702 Y10.883
G1 F2400 X20.557 Y-11.262 E2728.03369
G0 F18000 X17.021 Y-11.262
G1 F2400 X39.167 Y10.883 E2729.59618
G0 F18000 X35.631 Y10.883
G1 F2400 X13.485 Y-11.262 E2731.15866
G0 F18000 X9.95 Y-11.262
G1 F2400 X32.096 Y10.883 E2732.72115
G0 F18000 X28.56 Y10.883
G1 F2400 X6.414 Y-11.262 E2734.28363
G0 F18000 X2.879 Y-11.262
G1 F2400 X25.025 Y10.883 E2735.84612
G0 F18000 X21.489 Y10.883
G1 F2400 X-0.656 Y-11.263 E2737.4086
G0 F18000 X-4.192 Y-11.263
G1 F2400 X17.954 Y10.883 E2738.97112
G0 F18000 X14.418 Y10.883
G1 F2400 X-7.727 Y-11.263 E2740.53361
G0 F18000 X-11.263 Y-11.263
G1 F2400 X10.883 Y10.883 E2742.09613
G0 F18000 X7.347 Y10.883
G1 F2400 X-14.799 Y-11.263 E2743.65865
G0 F18000 X-18.334 Y-11.263
G1 F2400 X3.812 Y10.883 E2745.22117
G0 F18000 X0.276 Y10.883
G1 F2400 X-21.87 Y-11.263 E2746.78369
G0 F18000 X-25.405 Y-11.263
G1 F2400 X-3.259 Y10.883 E2748.34621
G0 F18000 X-6.794 Y10.883
G1 F2400 X-28.941 Y-11.263 E2749.90876
G0 F18000 X-32.476 Y-11.263
G1 F2400 X-10.33 Y10.883 E2751.47128
G0 F18000 X-13.865 Y10.883
G1 F2400 X-36.012 Y-11.263 E2753.03384
G0 F18000 X-39.547 Y-11.263
G1 F2400 X-17.401 Y10.883 E2754.59636
G0 F18000 X-20.936 Y10.883
G1 F2400 X-43.083 Y-11.263 E2756.15891
G0 F18000 X-46.618 Y-11.263
G1 F2400 X-24.472 Y10.883 E2757.72143
G0 F18000 X-28.007 Y10.883
G1 F2400 X-50.154 Y-11.263 E2759.28399
G0 F18000 X-50.208 Y-7.781
G1 F2400 X-31.543 Y10.883 E2760.60087
G0 F18000 X-35.078 Y10.883
G1 F2400 X-50.208 Y-4.246 E2761.66833
G0 F18000 X-50.208 Y-0.71
G1 F2400 X-38.614 Y10.883 E2762.48632
G0 F18000 X-42.149 Y10.883
G1 F2400 X-50.208 Y2.824 E2763.05492
G0 F18000 X-50.208 Y6.36
G1 F2400 X-45.685 Y10.883 E2763.37405
G0 F18000 X-49.22 Y10.883
G1 F2400 X-50.208 Y9.895 E2763.44376
G0 F18000 X-50.208 Y9.895 Z1.4
; Layer Change GCode
; LAYER:5
G1 F6600 E2756.64376
G1 Z1.7
G0 F18000 X-49.749 Y35.75 Z1.6
G0 X-49.249 Y35.25
; TYPE:WALL-INNER
G1 Z1.3
G1 F6600 E2763.54376
G1 F2400 X-49.249 Y35.25 E2763.54376
G1 X-49.249 Y12.623 E2764.48448
G1 X49.25 Y12.623 E2768.57959
G1 X49.25 Y35.25 E2769.52031
G1 X-49.249 Y35.25 E2773.61542
G0 F18000 X-49.749 Y35.75
; TYPE:WALL-OUTER
G1 F2100 X-49.749 Y35.75 E2773.61542
G1 X-49.749 Y12.123 E2774.59772
G1 X49.75 Y12.123 E2778.73441
G1 X49.75 Y35.75 E2779.7167
G1 X-49.749 Y35.75 E2783.85339
G0 F18000 X-49.489 Y35.4
G0 X-48.809 Y34.441
G0 X-48.809 Y34.441
; TYPE:FILL
G1 F2400 X48.81 Y34.441 E2787.91192
G0 F18000 X47.773 Y34.809
G1 F2400 X47.773 Y13.062 E2788.81605
G0 F18000 X48.81 Y13.331
G1 F2400 X-48.809 Y13.332 E2792.87458
G0 F18000 X-47.773 Y13.062
G1 F2400 X-47.772 Y34.809 E2793.77872
G0 F18000 X-46.661 Y34.809
G1 F2400 X-46.662 Y13.062 E2794.68285
G0 F18000 X-45.551 Y13.062
G1 F2400 X-45.55 Y34.809 E2795.58699
G0 F18000 X-44.439 Y34.809
G1 F2400 X-44.44 Y13.062 E2796.49112
G0 F18000 X-43.329 Y13.062
G1 F2400 X-43.328 Y34.809 E2797.39526
G0 F18000 X-42.217 Y34.809
G1 F2400 X-42.218 Y13.062 E2798.29939
G0 F18000 X-41.107 Y13.062
G1 F2400 X-41.106 Y34.809 E2799.20353
G0 F18000 X-39.995 Y34.809
G1 F2400 X-39.996 Y13.062 E2800.10766
G0 F18000 X-38.885 Y13.062
G1 F2400 X-38.884 Y34.809 E2801.0118
G0 F18000 X-37.773 Y34.809
G1 F2400 X-37.774 Y13.062 E2801.91593
G0 F18000 X-36.663 Y13.062
G1 F2400 X-36.662 Y34.809 E2802.82007
G0 F18000 X-35.551 Y34.809
G1 F2400 X-35.552 Y13.062 E2803.7242
G0 F18000 X-34.441 Y13.062
G1 F2400 X-34.44 Y34.809 E2804.62834
G0 F18000 X-33.329 Y34.809
G1 F2400 X-33.33 Y13.062 E2805.53247
G0 F18000 X-32.219 Y13.062
G1 F2400 X-32.218 Y34.809 E2806.43661
G0 F18000 X-31.107 Y34.809
G1 F2400 X-31.108 Y13.062 E2807.34074
G0 F18000 X-29.997 Y13.062
G1 F2400 X-29.996 Y34.809 E2808.24488
G0 F18000 X-28.885 Y34.809
G1 F2400 X-28.886 Y13.062 E2809.14901
G0 F18000 X-27.775 Y13.062
G1 F2400 X-27.774 Y34.809 E2810.05315
G0 F18000 X-26.663 Y34.809
G1 F2400 X-26.664 Y13.062 E2810.95728
G0 F18000 X-25.553 Y13.062
G1 F2400 X-25.552 Y34.809 E2811.86142
G0 F18000 X-24.441 Y34.809
G1 F2400 X-24.442 Y13.062 E2812.76555
G0 F18000 X-23.331 Y13.062
G1 F2400 X-23.33 Y34.809 E2813.66969
G0 F18000 X-22.219 Y34.809
G1 F2400 X-22.22 Y13.062 E2814.57382
G0 F18000 X-21.109 Y13.062
G1 F2400 X-21.108 Y34.809 E2815.47796
G0 F18000 X-19.997 Y34.809
G1 F2400 X-19.998 Y13.062 E2816.3821
G0 F18000 X-18.887 Y13.062
G1 F2400 X-18.886 Y34.809 E2817.28623
G0 F18000 X-17.775 Y34.809
G1 F2400 X-17.776 Y13.062 E2818.19037
G0 F18000 X-16.665 Y13.062
G1 F2400 X-16.664 Y34.809 E2819.0945
G0 F18000 X-15.553 Y34.809
G1 F2400 X-15.553 Y13.062 E2819.99864
G0 F18000 X-14.442 Y13.062
G1 F2400 X-14.442 Y34.809 E2820.90277
G0 F18000 X-13.331 Y34.809
G1 F2400 X-13.331 Y13.062 E2821.80691
G0 F18000 X-12.22 Y13.062
G1 F2400 X-12.22 Y34.809 E2822.71104
G0 F18000 X-11.109 Y34.809
G1 F2400 X-11.109 Y13.062 E2823.61518
G0 F18000 X-9.998 Y13.062
G1 F2400 X-9.998 Y34.809 E2824.51931
G0 F18000 X-8.887 Y34.809
G1 F2400 X-8.887 Y13.062 E2825.42345
G0 F18000 X-7.776 Y13.062
G1 F2400 X-7.776 Y34.809 E2826.32758
G0 F18000 X-6.665 Y34.809
G1 F2400 X-6.665 Y13.062 E2827.23172
G0 F18000 X-5.554 Y13.062
G1 F2400 X-5.554 Y34.809 E2828.13585
G0 F18000 X-4.443 Y34.809
G1 F2400 X-4.443 Y13.062 E2829.03999
G0 F18000 X-3.332 Y13.062
G1 F2400 X-3.332 Y34.809 E2829.94412
G0 F18000 X-2.221 Y34.809
G1 F2400 X-2.221 Y13.062 E2830.84826
G0 F18000 X-1.11 Y13.062
G1 F2400 X-1.11 Y34.809 E2831.75239
G0 F18000 X0 Y34.81
G1 F2400 X0 Y13.062 E2832.65657
G0 F18000 X1.111 Y13.063
G1 F2400 X1.111 Y34.81 E2833.56071
G0 F18000 X2.222 Y34.81
G1 F2400 X2.222 Y13.063 E2834.46484
G0 F18000 X3.333 Y13.063
G1 F2400 X3.333 Y34.81 E2835.36898
G0 F18000 X4.444 Y34.81
G1 F2400 X4.444 Y13.063 E2836.27311
G0 F18000 X5.555 Y13.063
G1 F2400 X5.555 Y34.81 E2837.17725
G0 F18000 X6.666 Y34.81
G1 F2400 X6.666 Y13.063 E2838.08138
G0 F18000 X7.777 Y13.062
G1 F2400 X7.777 Y34.81 E2838.98556
G0 F18000 X8.888 Y34.81
G1 F2400 X8.888 Y13.062 E2839.88973
G0 F18000 X9.999 Y13.062
G1 F2400 X9.999 Y34.81 E2840.79391
G0 F18000 X11.11 Y34.81
G1 F2400 X11.11 Y13.062 E2841.69809
G0 F18000 X12.221 Y13.062
G1 F2400 X12.221 Y34.81 E2842.60227
G0 F18000 X13.332 Y34.81
G1 F2400 X13.332 Y13.062 E2843.50644
G0 F18000 X14.443 Y13.062
G1 F2400 X14.443 Y34.81 E2844.41062
G0 F18000 X15.554 Y34.81
G1 F2400 X15.554 Y13.062 E2845.3148
G0 F18000 X16.665 Y13.062
G1 F2400 X16.665 Y34.81 E2846.21897
G0 F18000 X17.776 Y34.81
G1 F2400 X17.776 Y13.062 E2847.12315
G0 F18000 X18.887 Y13.062
G1 F2400 X18.887 Y34.81 E2848.02733
G0 F18000 X19.998 Y34.81
G1 F2400 X19.998 Y13.062 E2848.9315
G0 F18000 X21.109 Y13.062
G1 F2400 X21.109 Y34.81 E2849.83568
G0 F18000 X22.22 Y34.81
G1 F2400 X22.22 Y13.062 E2850.73986
G0 F18000 X23.331 Y13.062
G1 F2400 X23.331 Y34.81 E2851.64403
G0 F18000 X24.442 Y34.81
G1 F2400 X24.442 Y13.062 E2852.54821
G0 F18000 X25.553 Y13.062
G1 F2400 X25.553 Y34.81 E2853.45239
G0 F18000 X26.664 Y34.81
G1 F2400 X26.664 Y13.062 E2854.35656
G0 F18000 X27.775 Y13.062
G1 F2400 X27.775 Y34.81 E2855.26074
G0 F18000 X28.886 Y34.81
G1 F2400 X28.886 Y13.062 E2856.16492
G0 F18000 X29.997 Y13.062
G1 F2400 X29.997 Y34.809 E2857.06905
G0 F18000 X31.108 Y34.809
G1 F2400 X31.108 Y13.062 E2857.97319
G0 F18000 X32.219 Y13.062
G1 F2400 X32.219 Y34.809 E2858.87732
G0 F18000 X33.33 Y34.809
G1 F2400 X33.33 Y13.062 E2859.78146
G0 F18000 X34.441 Y13.062
G1 F2400 X34.441 Y34.809 E2860.68559
G0 F18000 X35.552 Y34.809
G1 F2400 X35.552 Y13.062 E2861.58973
G0 F18000 X36.663 Y13.062
G1 F2400 X36.663 Y34.809 E2862.49386
G0 F18000 X37.774 Y34.809
G1 F2400 X37.774 Y13.062 E2863.398
G0 F18000 X38.885 Y13.062
G1 F2400 X38.885 Y34.809 E2864.30213
G0 F18000 X39.996 Y34.809
G1 F2400 X39.996 Y13.062 E2865.20627
G0 F18000 X41.107 Y13.062
G1 F2400 X41.107 Y34.809 E2866.1104
G0 F18000 X42.218 Y34.809
G1 F2400 X42.218 Y13.062 E2867.01454
G0 F18000 X43.329 Y13.062
G1 F2400 X43.329 Y34.809 E2867.91867
G0 F18000 X44.44 Y34.809
G1 F2400 X44.44 Y13.062 E2868.82281
G0 F18000 X45.551 Y13.062
G1 F2400 X45.551 Y34.809 E2869.72694
G0 F18000 X46.662 Y34.809
G1 F2400 X46.662 Y13.062 E2870.63108
G0 F18000 X48.81 Y14.442
G1 F2400 X-48.809 Y14.443 E2874.68961
G0 F18000 X-48.809 Y15.554
G1 F2400 X48.81 Y15.553 E2878.74813
G0 F18000 X48.81 Y16.664
G1 F2400 X-48.809 Y16.665 E2882.80666
G0 F18000 X-48.809 Y17.776
G1 F2400 X48.81 Y17.775 E2886.86519
G0 F18000 X48.81 Y18.886
G1 F2400 X-48.809 Y18.887 E2890.92371
G0 F18000 X-48.809 Y19.998
G1 F2400 X48.81 Y19.997 E2894.98224
G0 F18000 X48.81 Y21.108
G1 F2400 X-48.809 Y21.109 E2899.04076
G0 F18000 X-48.809 Y22.22
G1 F2400 X48.81 Y22.219 E2903.09929
G0 F18000 X48.81 Y23.33
G1 F2400 X-48.809 Y23.331 E2907.15782
G0 F18000 X-48.809 Y24.442
G1 F2400 X48.81 Y24.441 E2911.21634
G0 F18000 X48.81 Y25.552
G1 F2400 X-48.809 Y25.553 E2915.27487
G0 F18000 X-48.809 Y26.664
G1 F2400 X48.81 Y26.663 E2919.3334
G0 F18000 X48.81 Y27.774
G1 F2400 X-48.809 Y27.775 E2923.39192
G0 F18000 X-48.809 Y28.886
G1 F2400 X48.81 Y28.885 E2927.45045
G0 F18000 X48.81 Y29.996
G1 F2400 X-48.809 Y29.997 E2931.50898
G0 F18000 X-48.809 Y31.108
G1 F2400 X48.81 Y31.107 E2935.5675
G0 F18000 X48.81 Y32.218
G1 F2400 X-48.809 Y32.219 E2939.62603
G0 F18000 X-48.809 Y33.33
G1 F2400 X48.81 Y33.33 E2943.68456
G1 F6600 E2936.88456
G1 Z1.6
G0 F18000 X-49.749 Y-12.503
G0 X-49.249 Y-13.003
; TYPE:WALL-INNER
G1 Z1.3
G1 F6600 E2943.78456
G1 F2400 X-49.249 Y-13.003 E2943.78456
G1 X-49.249 Y-35.249 E2944.70944
G1 X49.25 Y-35.249 E2948.80455
G1 X49.25 Y-13.003 E2949.72943
G1 X-49.249 Y-13.003 E2953.82454
G0 F18000 X-49.749 Y-12.503
; TYPE:WALL-OUTER
G1 F2100 X-49.749 Y-12.503 E2953.82454
G1 X-49.749 Y-35.749 E2954.791
G1 X49.75 Y-35.749 E2958.92769
G1 X49.75 Y-12.503 E2959.89414
G1 X-49.749 Y-12.503 E2964.03083
G0 F18000 X-49.489 Y-12.853
G0 X-48.809 Y-14.442
G0 X-48.809 Y-14.442
; TYPE:FILL
G1 F2400 X48.81 Y-14.443 E2968.08936
G0 F18000 X48.81 Y-15.554
G1 F2400 X-48.809 Y-15.553 E2972.14788
G0 F18000 X-48.809 Y-16.664
G1 F2400 X48.81 Y-16.665 E2976.20641
G0 F18000 X48.81 Y-17.776
G1 F2400 X-48.809 Y-17.775 E2980.26494
G0 F18000 X-48.809 Y-18.886
G1 F2400 X48.81 Y-18.887 E2984.32346
G0 F18000 X48.81 Y-19.998
G1 F2400 X-48.809 Y-19.997 E2988.38199
G0 F18000 X-48.809 Y-21.108
G1 F2400 X48.81 Y-21.109 E2992.44052
G0 F18000 X48.81 Y-22.22
G1 F2400 X-48.809 Y-22.219 E2996.49904
G0 F18000 X-48.809 Y-23.33
G1 F2400 X48.81 Y-23.331 E3000.55757
G0 F18000 X48.81 Y-24.442
G1 F2400 X-48.809 Y-24.441 E3004.61609
G0 F18000 X-48.809 Y-25.552
