; Generated with MatterSlice 1.0
; filamentDiameter = 1.75
; extrusionWidth = 0.5
; firstLayerExtrusionWidth = 0.4
; layerThickness = 0.2
; firstLayerThickness = 0.3
; automatic settings before start_gcode
G21 ; set units to millimeters
M107 ; fan off
T0 ; set the active extruder to 0
; settings from start_gcode
M104 S190
M190 S60
M109 S190
G28
; automatic settings after start_gcode
T0 ; set the active extruder to 0
G90 ; use absolute coordinates
G92 E0 ; reset the expected extruder position
M82 ; use absolute distance for extrusion
; Layer count: 140
; Layer Change GCode
; LAYER:0
G4 P0
M107
G0 F18000 X31.6 Y29.122 Z0.6
; TYPE:SKIRT
G1 Z0.3
G1 F6600 E0
G1 F720 X-31.599 Y29.122 E3.15301
G1 X-31.599 Y-29.121 E6.05877
G1 X31.6 Y-29.121 E9.21178
G1 X31.6 Y29.122 E12.11753
G0 F18000 X31.2 Y28.722
G1 F720 X-31.199 Y28.722 E15.23063
G1 X-31.199 Y-28.721 E18.09647
G1 X31.2 Y-28.721 E21.20957
G1 X31.2 Y28.722 E24.07542
G0 F18000 X25.3 Y12.7
; TYPE:WALL-OUTER
G1 F720 X25.3 Y12.7 E24.07542
G1 X27.8 Y12.7 E24.20014
G1 X27.8 Y25.322 E24.82985
G1 X2.678 Y25.322 E26.0832
G1 X2.678 Y-25.321 E28.60979
G1 X27.8 Y-25.321 E29.86313
G1 X27.8 Y-12.699 E30.49284
G1 X25.3 Y-12.699 E30.61757
G1 X25.3 Y-2.699 E31.11647
G1 X21.3 Y-2.699 E31.31603
G1 X21.3 Y2.7 E31.58539
G1 X25.3 Y2.7 E31.78495
G1 X25.3 Y12.7 E32.28385
G0 F18000 X24.9 Y13.1
; TYPE:WALL-INNER
G1 F720 X24.9 Y13.1 E32.28385
G1 X27.4 Y13.1 E32.40858
G1 X27.4 Y24.922 E32.99838
G1 X3.078 Y24.922 E34.21181
G1 X3.078 Y-24.921 E36.69848
G1 X27.4 Y-24.921 E37.91191
G1 X27.4 Y-13.099 E38.50172
G1 X24.9 Y-13.099 E38.62644
G1 X24.9 Y-3.099 E39.12534
G1 X20.9 Y-3.099 E39.3249
G1 X20.9 Y3.1 E39.63417
G1 X24.9 Y3.1 E39.83373
G1 X24.9 Y13.1 E40.33264
G0 F18000 X24.56 Y13.199
; TYPE:BOTTOM-FILL
G1 F720 X3.417 Y13.2 E41.38747
G0 F18000 X3.417 Y13.6
G1 F720 X27.06 Y13.599 E42.56702
G0 F18000 X27.06 Y13.999
G1 F720 X3.417 Y14 E43.74657
G0 F18000 X3.417 Y14.4
G1 F720 X27.06 Y14.399 E44.92613
G0 F18000 X27.06 Y14.799
G1 F720 X3.417 Y14.8 E46.10568
G0 F18000 X3.417 Y15.2
G1 F720 X27.06 Y15.199 E47.28524
G0 F18000 X27.06 Y15.599
G1 F720 X3.417 Y15.6 E48.46479
G0 F18000 X3.417 Y16
G1 F720 X27.06 Y15.999 E49.64434
G0 F18000 X27.06 Y16.4
G1 F720 X3.417 Y16.4 E50.8239
G0 F18000 X3.417 Y16.8
G1 F720 X27.06 Y16.8 E52.00345
G0 F18000 X27.06 Y17.2
G1 F720 X3.417 Y17.2 E53.18301
G0 F18000 X3.417 Y17.6
G1 F720 X27.06 Y17.6 E54.36256
G0 F18000 X27.06 Y18
G1 F720 X3.417 Y18 E55.54211
G0 F18000 X3.417 Y18.4
G1 F720 X27.06 Y18.4 E56.72167
G0 F18000 X27.06 Y18.8
G1 F720 X3.417 Y18.8 E57.90122
G0 F18000 X3.417 Y19.2
G1 F720 X27.06 Y19.2 E59.08078
G0 F18000 X27.06 Y19.6
G1 F720 X3.417 Y19.6 E60.26033
G0 F18000 X3.417 Y20
G1 F720 X27.06 Y20 E61.43988
G0 F18000 X27.06 Y20.4
G1 F720 X3.417 Y20.4 E62.61944
G0 F18000 X3.417 Y20.8
G1 F720 X27.06 Y20.8 E63.79899
G0 F18000 X27.06 Y21.2
G1 F720 X3.417 Y21.2 E64.97855
G0 F18000 X3.417 Y21.6
G1 F720 X27.06 Y21.6 E66.1581
G0 F18000 X27.06 Y22
G1 F720 X3.417 Y22 E67.33765
G0 F18000 X3.417 Y22.4
G1 F720 X27.06 Y22.4 E68.51721
G0 F18000 X27.06 Y22.8
G1 F720 X3.417 Y22.8 E69.69676
G0 F18000 X3.417 Y23.2
G1 F720 X27.06 Y23.2 E70.87632
G0 F18000 X27.06 Y23.6
G1 F720 X3.417 Y23.6 E72.05587
G0 F18000 X3.417 Y24
G1 F720 X27.06 Y24 E73.23542
G0 F18000 X27.06 Y24.4
G1 F720 X3.417 Y24.4 E74.41498
G0 F18000 X3.417 Y12.8
G0 X3.417 Y12.8
G1 F720 X24.56 Y12.799 E75.46981
G0 F18000 X24.56 Y12.399
G1 F720 X3.417 Y12.4 E76.52464
G0 F18000 X3.417 Y12
G1 F720 X24.56 Y11.999 E77.57946
G0 F18000 X24.56 Y11.599
G1 F720 X3.417 Y11.6 E78.63429
G0 F18000 X3.417 Y11.2
G1 F720 X24.56 Y11.199 E79.68912
G0 F18000 X24.56 Y10.799
G1 F720 X3.417 Y10.8 E80.74395
G0 F18000 X3.417 Y10.4
G1 F720 X24.56 Y10.399 E81.79878
G0 F18000 X24.56 Y9.999
G1 F720 X3.417 Y10 E82.85361
G0 F18000 X3.417 Y9.6
G1 F720 X24.56 Y9.599 E83.90844
G0 F18000 X24.56 Y9.199
G1 F720 X3.417 Y9.2 E84.96326
G0 F18000 X3.417 Y8.8
G1 F720 X24.56 Y8.799 E86.01809
G0 F18000 X24.56 Y8.399
G1 F720 X3.417 Y8.4 E87.07292
G0 F18000 X3.417 Y8
G1 F720 X24.56 Y7.999 E88.12775
G0 F18000 X24.56 Y7.599
G1 F720 X3.417 Y7.6 E89.18258
G0 F18000 X3.417 Y7.2
G1 F720 X24.56 Y7.199 E90.23741
G0 F18000 X24.56 Y6.799
G1 F720 X3.417 Y6.8 E91.29224
G0 F18000 X3.417 Y6.4
G1 F720 X24.56 Y6.399 E92.34706
G0 F18000 X24.56 Y5.999
G1 F720 X3.417 Y6 E93.40189
G0 F18000 X3.417 Y5.6
G1 F720 X24.56 Y5.599 E94.45672
G0 F18000 X24.56 Y5.199
G1 F720 X3.417 Y5.2 E95.51155
G0 F18000 X3.417 Y4.8
G1 F720 X24.56 Y4.799 E96.56638
G0 F18000 X24.56 Y4.399
G1 F720 X3.417 Y4.4 E97.62121
G0 F18000 X3.417 Y4
G1 F720 X24.56 Y3.999 E98.67604
G0 F18000 X24.56 Y3.599
G1 F720 X3.417 Y3.6 E99.73086
G0 F18000 X3.417 Y3.2
G1 F720 X20.56 Y3.199 E100.58613
G0 F18000 X20.56 Y2.799
G1 F720 X3.417 Y2.8 E101.4414
G0 F18000 X3.417 Y2.4
G1 F720 X20.56 Y2.399 E102.29667
G0 F18000 X20.56 Y1.999
G1 F720 X3.417 Y1.999 E103.15194
G0 F18000 X3.417 Y1.599
G1 F720 X20.56 Y1.599 E104.0072
G0 F18000 X20.56 Y1.199
G1 F720 X3.417 Y1.199 E104.86247
G0 F18000 X3.417 Y0.799
G1 F720 X20.56 Y0.799 E105.71774
G0 F18000 X20.56 Y0.399
G1 F720 X3.417 Y0.399 E106.57301
G0 F18000 X3.418 Y0
G1 F720 X20.56 Y0 E107.42822
G0 F18000 X20.56 Y-0.4
G1 F720 X3.418 Y-0.4 E108.28344
G0 F18000 X3.418 Y-0.8
G1 F720 X20.56 Y-0.8 E109.13866
G0 F18000 X20.56 Y-1.2
G1 F720 X3.418 Y-1.2 E109.99388
G0 F18000 X3.418 Y-1.6
G1 F720 X20.56 Y-1.6 E110.8491
G0 F18000 X20.56 Y-2
G1 F720 X3.418 Y-2 E111.70431
G0 F18000 X3.418 Y-2.4
G1 F720 X20.56 Y-2.4 E112.55953
G0 F18000 X20.56 Y-2.8
G1 F720 X3.418 Y-2.8 E113.41475
G0 F18000 X3.418 Y-3.2
G1 F720 X20.56 Y-3.2 E114.26997
G0 F18000 X24.56 Y-3.6
G1 F720 X3.418 Y-3.6 E115.32475
G0 F18000 X3.417 Y-4
G1 F720 X24.56 Y-4 E116.37957
G0 F18000 X24.56 Y-4.4
G1 F720 X3.417 Y-4.4 E117.4344
G0 F18000 X3.417 Y-4.8
G1 F720 X24.56 Y-4.8 E118.48923
G0 F18000 X24.56 Y-5.2
G1 F720 X3.417 Y-5.2 E119.54406
G0 F18000 X3.417 Y-5.6
G1 F720 X24.56 Y-5.6 E120.59889
G0 F18000 X24.56 Y-6
G1 F720 X3.417 Y-6 E121.65372
G0 F18000 X3.417 Y-6.4
G1 F720 X24.56 Y-6.4 E122.70855
G0 F18000 X24.56 Y-6.8
G1 F720 X3.417 Y-6.8 E123.76337
G0 F18000 X3.417 Y-7.2
G1 F720 X24.56 Y-7.2 E124.8182
G0 F18000 X24.56 Y-7.6
G1 F720 X3.417 Y-7.6 E125.87303
G0 F18000 X3.417 Y-8
G1 F720 X24.56 Y-8 E126.92786
G0 F18000 X24.56 Y-8.4
G1 F720 X3.417 Y-8.4 E127.98269
G0 F18000 X3.417 Y-8.8
G1 F720 X24.56 Y-8.8 E129.03752
G0 F18000 X24.56 Y-9.2
G1 F720 X3.417 Y-9.2 E130.09235
G0 F18000 X3.417 Y-9.6
G1 F720 X24.56 Y-9.6 E131.14717
G0 F18000 X24.56 Y-10
G1 F720 X3.417 Y-10 E132.202
G0 F18000 X3.417 Y-10.4
G1 F720 X24.56 Y-10.4 E133.25683
G0 F18000 X24.56 Y-10.8
G1 F720 X3.417 Y-10.8 E134.31166
G0 F18000 X3.417 Y-11.2
G1 F720 X24.56 Y-11.2 E135.36649
G0 F18000 X24.56 Y-11.6
G1 F720 X3.417 Y-11.6 E136.42132
G0 F18000 X3.417 Y-12
G1 F720 X24.56 Y-12 E137.47615
G0 F18000 X24.56 Y-12.4
G1 F720 X3.417 Y-12.4 E138.53097
G0 F18000 X3.417 Y-12.8
G1 F720 X24.56 Y-12.8 E139.5858
G0 F18000 X24.56 Y-13.2
G1 F720 X3.417 Y-13.2 E140.64063
G0 F18000 X3.417 Y-13.6
G1 F720 X27.06 Y-13.6 E141.82018
G0 F18000 X27.06 Y-14
G1 F720 X3.417 Y-14 E142.99974
G0 F18000 X3.417 Y-14.4
G1 F720 X27.06 Y-14.4 E144.17929
G0 F18000 X27.06 Y-14.8
G1 F720 X3.417 Y-14.8 E145.35885
G0 F18000 X3.417 Y-15.2
G1 F720 X27.06 Y-15.2 E146.5384
G0 F18000 X27.06 Y-15.6
G1 F720 X3.417 Y-15.6 E147.71796
G0 F18000 X3.417 Y-16
G1 F720 X27.06 Y-16 E148.89751
G0 F18000 X27.06 Y-16.4
G1 F720 X3.417 Y-16.4 E150.07706
G0 F18000 X3.417 Y-16.8
G1 F720 X27.06 Y-16.8 E151.25662
G0 F18000 X27.06 Y-17.2
G1 F720 X3.417 Y-17.2 E152.43617
G0 F18000 X3.417 Y-17.6
G1 F720 X27.06 Y-17.6 E153.61573
G0 F18000 X27.06 Y-18
G1 F720 X3.417 Y-18 E154.79528
G0 F18000 X3.417 Y-18.4
G1 F720 X27.06 Y-18.4 E155.97483
G0 F18000 X27.06 Y-18.8
G1 F720 X3.417 Y-18.8 E157.15439
G0 F18000 X3.417 Y-19.2
G1 F720 X27.06 Y-19.2 E158.33394
G0 F18000 X27.06 Y-19.6
G1 F720 X3.417 Y-19.6 E159.5135
G0 F18000 X3.417 Y-20
G1 F720 X27.06 Y-20 E160.69305
G0 F18000 X27.06 Y-20.4
G1 F720 X3.417 Y-20.4 E161.8726
G0 F18000 X3.417 Y-20.8
G1 F720 X27.06 Y-20.8 E163.05216
G0 F18000 X27.06 Y-21.2
G1 F720 X3.417 Y-21.2 E164.23171
G0 F18000 X3.417 Y-21.6
G1 F720 X27.06 Y-21.6 E165.41127
G0 F18000 X27.06 Y-22
G1 F720 X3.417 Y-22 E166.59082
G0 F18000 X3.417 Y-22.4
G1 F720 X27.06 Y-22.4 E167.77037
G0 F18000 X27.06 Y-22.8
G1 F720 X3.417 Y-22.8 E168.94993
G0 F18000 X3.417 Y-23.2
G1 F720 X27.06 Y-23.2 E170.12948
G0 F18000 X27.06 Y-23.6
G1 F720 X3.417 Y-23.6 E171.30904
G0 F18000 X3.417 Y-24
G1 F720 X27.06 Y-24 E172.48859
G0 F18000 X27.06 Y-24.4
G1 F720 X3.417 Y-24.4 E173.66814
G1 F6600 E166.86814
G1 Z0.6
G0 F18000 X-27.799 Y25.322
; TYPE:WALL-OUTER
G1 Z0.3
G1 F6600 E173.76814
G1 F720 X-27.799 Y25.322 E173.76814
G1 X-27.799 Y-25.321 E176.29473
G1 X-3.024 Y-25.321 E177.53076
G1 X-2.87 Y-25.284 E177.53867
G1 X-2.724 Y-25.148 E177.54862
G1 X-2.682 Y-24.997 E177.55644
G1 X-2.677 Y24.972 E180.0494
G1 X-2.726 Y25.15 E180.05861
G1 X-2.871 Y25.287 E180.06857
G1 X-3.004 Y25.319 E180.07539
G1 X-27.799 Y25.322 E181.31242
G0 F18000 X-27.399 Y24.922
; TYPE:WALL-INNER
G1 F720 X-27.399 Y24.922 E181.31242
G1 X-27.399 Y-24.921 E183.7991
G1 X-3.082 Y-24.921 E185.01228
G1 X-3.077 Y24.919 E187.4988
G1 X-27.399 Y24.922 E188.71223
G0 F18000 X-15.037 Y21.998
G0 X-15.037 Y21.998
G0 X-14.999 Y21.702
; TYPE:WALL-OUTER
G1 F720 X-14.999 Y21.702 E188.71223
G1 X-12.748 Y21.405 E188.82551
G1 X-10.648 Y20.536 E188.93889
G1 X-8.846 Y19.153 E189.05222
G1 X-7.463 Y17.351 E189.16555
G1 X-6.594 Y15.251 E189.27894
G1 X-6.297 Y13 E189.39221
G1 X-6.594 Y10.748 E189.50554
G1 X-7.463 Y8.649 E189.61888
G1 X-8.846 Y6.846 E189.73224
G1 X-10.648 Y5.463 E189.84557
G1 X-12.748 Y4.594 E189.95896
G1 X-14.999 Y4.298 E190.07223
G1 X-17.25 Y4.594 E190.1855
G1 X-19.35 Y5.463 E190.29888
G1 X-21.152 Y6.846 E190.41221
G1 X-22.535 Y8.649 E190.52558
G1 X-23.404 Y10.748 E190.63892
G1 X-23.701 Y13 E190.75224
G1 X-23.404 Y15.251 E190.86552
G1 X-22.535 Y17.351 E190.9789
G1 X-21.152 Y19.153 E191.09223
G1 X-19.35 Y20.536 E191.20556
G1 X-17.25 Y21.405 E191.31894
G1 X-14.999 Y21.702 E191.43222
G0 F18000 X-14.999 Y22.105
; TYPE:WALL-INNER
G1 F720 X-14.999 Y22.105 E191.43222
G1 X-12.643 Y21.795 E191.55077
G1 X-10.446 Y20.885 E191.66941
G1 X-8.561 Y19.438 E191.78797
G1 X-7.114 Y17.553 E191.90653
G1 X-6.204 Y15.356 E192.02516
G1 X-5.894 Y13 E192.14372
G1 X-6.204 Y10.643 E192.26232
G1 X-7.114 Y8.447 E192.38092
G1 X-8.561 Y6.561 E192.49951
G1 X-10.446 Y5.114 E192.61807
G1 X-12.644 Y4.204 E192.73675
G1 X-14.999 Y3.895 E192.85525
G1 X-17.354 Y4.204 E192.97375
G1 X-19.552 Y5.114 E193.09244
G1 X-21.437 Y6.561 E193.21099
G1 X-22.884 Y8.447 E193.32959
G1 X-23.794 Y10.643 E193.44818
G1 X-24.104 Y13 E193.56679
G1 X-23.794 Y15.356 E193.68534
G1 X-22.884 Y17.553 E193.80398
G1 X-21.437 Y19.438 E193.92254
G1 X-19.552 Y20.885 E194.04109
G1 X-17.355 Y21.795 E194.15973
G1 X-14.999 Y22.105 E194.27829
G1 F6600 E187.47829
G1 Z0.6
G0 F18000 X-14.998 Y22.102
G0 X-12.645 Y21.793
G0 X-10.447 Y20.883
G0 X-8.563 Y19.436
G0 X-7.116 Y17.552
G0 X-6.206 Y15.354
G0 X-5.896 Y13
G0 X-6.206 Y10.645
G0 X-7.116 Y8.449
G0 X-8.563 Y6.563
G0 X-10.447 Y5.116
G0 X-12.645 Y4.206
G0 X-15.025 Y3.893
G0 X-15.036 Y-3.891
G0 X-15.037 Y-4.291
G0 X-15.037 Y-4.001
G0 X-15.037 Y-4.001
G0 X-14.999 Y-4.297
; TYPE:WALL-OUTER
G1 Z0.3
G1 F6600 E194.37829
G1 F720 X-14.999 Y-4.297 E194.37829
G1 X-12.748 Y-4.593 E194.49156
G1 X-10.648 Y-5.462 E194.60494
G1 X-8.846 Y-6.845 E194.71827
G1 X-7.463 Y-8.648 E194.83164
G1 X-6.594 Y-10.747 E194.94498
G1 X-6.297 Y-12.999 E195.0583
G1 X-6.594 Y-15.25 E195.17158
G1 X-7.463 Y-17.35 E195.28496
G1 X-8.846 Y-19.152 E195.39829
G1 X-10.648 Y-20.535 E195.51162
G1 X-12.748 Y-21.404 E195.625
G1 X-14.999 Y-21.701 E195.73828
G1 X-17.25 Y-21.404 E195.85156
G1 X-19.35 Y-20.535 E195.96494
G1 X-21.152 Y-19.152 E196.07827
G1 X-22.535 Y-17.35 E196.1916
G1 X-23.404 Y-15.25 E196.30498
G1 X-23.701 Y-12.999 E196.41826
G1 X-23.404 Y-10.747 E196.53158
G1 X-22.535 Y-8.648 E196.64492
G1 X-21.152 Y-6.845 E196.75829
G1 X-19.35 Y-5.462 E196.87162
G1 X-17.25 Y-4.593 E196.985
G1 X-14.999 Y-4.297 E197.09827
G0 F18000 X-14.999 Y-3.894
; TYPE:WALL-INNER
G1 F720 X-14.999 Y-3.894 E197.09827
G1 X-12.644 Y-4.203 E197.21677
G1 X-10.446 Y-5.113 E197.33546
G1 X-8.561 Y-6.56 E197.45401
G1 X-7.114 Y-8.446 E197.57261
G1 X-6.204 Y-10.642 E197.6912
G1 X-5.894 Y-12.999 E197.80981
G1 X-6.204 Y-15.355 E197.92836
G1 X-7.114 Y-17.552 E198.047
G1 X-8.561 Y-19.437 E198.16556
G1 X-10.446 Y-20.884 E198.28411
G1 X-12.643 Y-21.794 E198.40275
G1 X-14.999 Y-22.104 E198.52131
G1 X-17.355 Y-21.794 E198.63986
G1 X-19.552 Y-20.884 E198.7585
G1 X-21.437 Y-19.437 E198.87706
G1 X-22.884 Y-17.552 E198.99561
G1 X-23.794 Y-15.355 E199.11425
G1 X-24.104 Y-12.999 E199.23281
G1 X-23.794 Y-10.642 E199.35141
G1 X-22.884 Y-8.446 E199.47
G1 X-21.437 Y-6.56 E199.5886
G1 X-19.552 Y-5.113 E199.70716
G1 X-17.354 Y-4.203 E199.82584
G1 X-14.999 Y-3.894 E199.94434
G1 F6600 E193.14434
G1 Z0.6
G0 F18000 X-14.974 Y-3.937
G0 X-12.645 Y-4.205
G0 X-10.447 Y-5.115
G0 X-8.563 Y-6.562
G0 X-7.116 Y-8.448
G0 X-6.206 Y-10.644
G0 X-5.896 Y-12.999
G0 X-6.206 Y-15.353
G0 X-7.116 Y-17.551
G0 X-7.187 Y-17.621
G0 X-3.022 Y-24.94
G0 X-2.824 Y-25.288
G0 X-2.964 Y-25.044
G0 X-2.964 Y-25.044
; TYPE:FILL
G1 Z0.3
G1 F6600 E200.04434
G1 F720 X-2.936 Y-25.072 E200.04478
G0 F18000 X-2.954 Y25.032
G0 X-2.954 Y25.032
G1 F720 X-2.936 Y25.073 E200.04528
G0 F18000 X-3.416 Y24.4
; TYPE:BOTTOM-FILL
G1 F720 X-27.059 Y24.4 E201.22484
G0 F18000 X-27.059 Y24
G1 F720 X-3.416 Y24 E202.40439
G0 F18000 X-3.416 Y23.6
G1 F720 X-27.059 Y23.6 E203.58394
G0 F18000 X-27.059 Y23.2
G1 F720 X-3.416 Y23.2 E204.7635
G0 F18000 X-3.416 Y22.8
G1 F720 X-27.059 Y22.8 E205.94305
G0 F18000 X-27.059 Y22.4
G1 F720 X-15.363 Y22.4 E206.52657
G0 F18000 X-14.633 Y22.4
G1 F720 X-3.416 Y22.4 E207.08619
G0 F18000 X-3.416 Y22
G1 F720 X-12.248 Y22 E207.52682
G0 F18000 X-11.283 Y21.6
G1 F720 X-3.416 Y21.6 E207.9193
G0 F18000 X-3.416 Y21.2
G1 F720 X-10.318 Y21.2 E208.26364
G0 F18000 X-9.778 Y20.8
G1 F720 X-3.416 Y20.8 E208.58105
G0 F18000 X-3.416 Y20.4
G1 F720 X-9.256 Y20.4 E208.8724
G0 F18000 X-8.735 Y20
G1 F720 X-3.416 Y20 E209.13777
G0 F18000 X-3.416 Y19.6
G1 F720 X-8.257 Y19.6 E209.37929
G0 F18000 X-7.95 Y19.2
G1 F720 X-3.416 Y19.2 E209.60549
G0 F18000 X-3.416 Y18.8
G1 F720 X-7.643 Y18.8 E209.81638
G0 F18000 X-7.336 Y18.4
G1 F720 X-3.417 Y18.4 E210.0119
G0 F18000 X-3.417 Y18
G1 F720 X-7.029 Y18 E210.1921
G0 F18000 X-6.765 Y17.6
G1 F720 X-3.417 Y17.6 E210.35913
G0 F18000 X-3.417 Y17.2
G1 F720 X-6.599 Y17.2 E210.51788
G0 F18000 X-6.433 Y16.8
G1 F720 X-3.417 Y16.8 E210.66835
G0 F18000 X-3.417 Y16.4
G1 F720 X-6.267 Y16.4 E210.81054
G0 F18000 X-6.102 Y16
G1 F720 X-3.417 Y16 E210.94449
G0 F18000 X-3.417 Y15.6
G1 F720 X-5.936 Y15.6 E211.07017
G0 F18000 X-5.839 Y15.2
G1 F720 X-3.417 Y15.2 E211.191
G0 F18000 X-3.417 Y14.8
G1 F720 X-5.786 Y14.8 E211.30919
G0 F18000 X-5.734 Y14.4
G1 F720 X-3.417 Y14.4 E211.42479
G0 F18000 X-3.417 Y14
G1 F720 X-5.681 Y14 E211.53774
G0 F18000 X-5.629 Y13.6
G1 F720 X-3.417 Y13.6 E211.6481
G0 F18000 X-3.417 Y13.2
G1 F720 X-5.576 Y13.2 E211.75581
G0 F18000 X-5.576 Y12.8
G1 F720 X-3.417 Y12.8 E211.86352
G0 F18000 X-3.417 Y12.4
G1 F720 X-5.629 Y12.4 E211.97388
G0 F18000 X-5.681 Y12
G1 F720 X-3.417 Y12 E212.08683
G0 F18000 X-3.417 Y11.6
G1 F720 X-5.734 Y11.6 E212.20243
G0 F18000 X-5.786 Y11.2
G1 F720 X-3.417 Y11.2 E212.32062
G0 F18000 X-3.417 Y10.8
G1 F720 X-5.839 Y10.8 E212.44145
G0 F18000 X-5.935 Y10.4
G1 F720 X-3.417 Y10.4 E212.56707
G0 F18000 X-3.417 Y10
G1 F720 X-6.101 Y10 E212.70098
G0 F18000 X-6.267 Y9.6
G1 F720 X-3.417 Y9.6 E212.84317
G0 F18000 X-3.417 Y9.2
G1 F720 X-6.433 Y9.2 E212.99363
G0 F18000 X-6.599 Y8.8
G1 F720 X-3.417 Y8.8 E213.15239
G0 F18000 X-3.417 Y8.4
G1 F720 X-6.765 Y8.4 E213.31942
G0 F18000 X-7.029 Y8
G1 F720 X-3.417 Y8 E213.49962
G0 F18000 X-3.417 Y7.6
G1 F720 X-7.335 Y7.6 E213.69509
G0 F18000 X-7.643 Y7.2
G1 F720 X-3.417 Y7.2 E213.90593
G0 F18000 X-3.417 Y6.8
G1 F720 X-7.95 Y6.8 E214.13208
G0 F18000 X-8.256 Y6.4
G1 F720 X-3.417 Y6.4 E214.3735
G0 F18000 X-3.418 Y6
G1 F720 X-8.733 Y6 E214.63866
G0 F18000 X-9.255 Y5.6
G1 F720 X-3.418 Y5.6 E214.92987
G0 F18000 X-3.418 Y5.2
G1 F720 X-9.776 Y5.2 E215.24708
G0 F18000 X-10.314 Y4.8
G1 F720 X-3.418 Y4.8 E215.59112
G0 F18000 X-3.418 Y4.4
G1 F720 X-11.279 Y4.4 E215.9833
G0 F18000 X-12.245 Y4
G1 F720 X-3.418 Y4 E216.42369
G0 F18000 X-3.419 Y3.6
G1 F720 X-14.625 Y3.6 E216.98276
G0 F18000 X-15.373 Y3.6
G1 F720 X-27.059 Y3.6 E217.56577
G0 F18000 X-27.059 Y3.2
G1 F720 X-3.419 Y3.2 E218.74518
G0 F18000 X-3.419 Y2.8
G1 F720 X-27.059 Y2.8 E219.92458
G0 F18000 X-27.059 Y2.4
G1 F720 X-3.419 Y2.4 E221.10399
G0 F18000 X-3.419 Y2
G1 F720 X-27.059 Y2 E222.28339
G0 F18000 X-27.059 Y1.6
G1 F720 X-3.419 Y1.6 E223.46279
G0 F18000 X-3.419 Y1.2
G1 F720 X-27.059 Y1.2 E224.6422
G0 F18000 X-27.059 Y0.8
G1 F720 X-3.419 Y0.8 E225.8216
G0 F18000 X-3.419 Y0.4
G1 F720 X-27.059 Y0.4 E227.00101
G0 F18000 X-27.059 Y0
G1 F720 X-3.419 Y0 E228.18041
G0 F18000 X-3.419 Y-0.399
G1 F720 X-27.059 Y-0.399 E229.35982
G0 F18000 X-27.059 Y-0.799
G1 F720 X-3.419 Y-0.799 E230.53922
G0 F18000 X-3.419 Y-1.199
G1 F720 X-27.059 Y-1.199 E231.71862
G0 F18000 X-27.059 Y-1.599
G1 F720 X-3.419 Y-1.599 E232.89803
G0 F18000 X-3.419 Y-1.999
G1 F720 X-27.059 Y-1.999 E234.07743
G0 F18000 X-27.059 Y-2.399
G1 F720 X-3.419 Y-2.4 E235.25684
G0 F18000 X-3.419 Y-2.8
G1 F720 X-27.059 Y-2.799 E236.43624
G0 F18000 X-27.059 Y-3.199
G1 F720 X-3.419 Y-3.2 E237.61565
G0 F18000 X-3.419 Y-3.6
G1 F720 X-14.625 Y-3.599 E238.17472
G0 F18000 X-15.373 Y-3.599
G1 F720 X-27.059 Y-3.599 E238.75773
G0 F18000 X-27.059 Y-3.999
G1 F720 X-17.753 Y-3.999 E239.22201
G0 F18000 X-18.719 Y-4.399
G1 F720 X-27.059 Y-4.399 E239.6381
G0 F18000 X-27.059 Y-4.799
G1 F720 X-19.684 Y-4.799 E240.00604
G0 F18000 X-20.222 Y-5.199
G1 F720 X-27.059 Y-5.199 E240.34714
G0 F18000 X-27.059 Y-5.599
G1 F720 X-20.743 Y-5.599 E240.66224
G0 F18000 X-21.265 Y-5.999
G1 F720 X-27.059 Y-5.999 E240.95131
G0 F18000 X-27.059 Y-6.399
G1 F720 X-21.742 Y-6.399 E241.21657
G0 F18000 X-22.049 Y-6.799
G1 F720 X-27.059 Y-6.799 E241.46652
G0 F18000 X-27.059 Y-7.199
G1 F720 X-22.355 Y-7.199 E241.70121
G0 F18000 X-22.662 Y-7.599
G1 F720 X-27.059 Y-7.599 E241.92057
G0 F18000 X-27.059 Y-7.999
G1 F720 X-22.969 Y-7.999 E242.12462
G0 F18000 X-23.233 Y-8.399
G1 F720 X-27.059 Y-8.399 E242.3155
G0 F18000 X-27.059 Y-8.799
G1 F720 X-23.399 Y-8.799 E242.4981
G0 F18000 X-23.564 Y-9.199
G1 F720 X-27.059 Y-9.199 E242.67247
G0 F18000 X-27.059 Y-9.599
G1 F720 X-23.73 Y-9.599 E242.83855
G0 F18000 X-23.896 Y-9.999
G1 F720 X-27.059 Y-9.999 E242.99636
G0 F18000 X-27.059 Y-10.399
G1 F720 X-24.062 Y-10.399 E243.14588
G0 F18000 X-24.158 Y-10.799
G1 F720 X-27.059 Y-10.799 E243.29061
G0 F18000 X-27.059 Y-11.199
G1 F720 X-24.211 Y-11.199 E243.43269
G0 F18000 X-24.263 Y-11.599
G1 F720 X-27.059 Y-11.599 E243.57219
G0 F18000 X-27.059 Y-11.999
G1 F720 X-24.316 Y-11.999 E243.70904
G0 F18000 X-24.368 Y-12.399
G1 F720 X-27.059 Y-12.399 E243.84329
G0 F18000 X-27.059 Y-12.799
G1 F720 X-24.421 Y-12.799 E243.9749
G0 F18000 X-24.421 Y-13.199
G1 F720 X-27.059 Y-13.199 E244.10651
G0 F18000 X-27.059 Y-13.599
G1 F720 X-24.368 Y-13.599 E244.24077
G0 F18000 X-24.316 Y-13.999
G1 F720 X-27.059 Y-13.999 E244.37762
G0 F18000 X-27.059 Y-14.399
G1 F720 X-24.263 Y-14.399 E244.51711
G0 F18000 X-24.21 Y-14.799
G1 F720 X-27.059 Y-14.799 E244.65925
G0 F18000 X-27.059 Y-15.199
G1 F720 X-24.158 Y-15.199 E244.80398
G0 F18000 X-24.061 Y-15.599
G1 F720 X-27.059 Y-15.599 E244.95355
G0 F18000 X-27.059 Y-15.999
G1 F720 X-23.895 Y-15.999 E245.1114
G0 F18000 X-23.729 Y-16.4
G1 F720 X-27.059 Y-16.4 E245.27753
G0 F18000 X-27.059 Y-16.8
G1 F720 X-23.563 Y-16.8 E245.45195
G0 F18000 X-23.398 Y-17.2
G1 F720 X-27.059 Y-17.2 E245.6346
G0 F18000 X-27.059 Y-17.6
G1 F720 X-23.232 Y-17.6 E245.82553
G0 F18000 X-22.967 Y-18
G1 F720 X-27.059 Y-18 E246.02968
G0 F18000 X-27.059 Y-18.4
G1 F720 X-22.66 Y-18.4 E246.24915
G0 F18000 X-22.353 Y-18.8
G1 F720 X-27.059 Y-18.8 E246.48393
G0 F18000 X-27.059 Y-19.2
G1 F720 X-22.047 Y-19.2 E246.73398
G0 F18000 X-21.74 Y-19.6
G1 F720 X-27.059 Y-19.6 E246.99935
G0 F18000 X-27.059 Y-20
G1 F720 X-21.261 Y-20 E247.28861
G0 F18000 X-20.739 Y-20.4
G1 F720 X-27.059 Y-20.4 E247.60391
G0 F18000 X-27.059 Y-20.8
G1 F720 X-20.218 Y-20.8 E247.94521
G0 F18000 X-19.677 Y-21.2
G1 F720 X-27.059 Y-21.2 E248.3135
G0 F18000 X-27.059 Y-21.6
G1 F720 X-18.712 Y-21.6 E248.72994
G0 F18000 X-17.747 Y-22
G1 F720 X-27.059 Y-22 E249.19451
G0 F18000 X-27.059 Y-22.4
G1 F720 X-15.356 Y-22.4 E249.77838
G0 F18000 X-14.64 Y-22.4
G1 F720 X-3.421 Y-22.4 E250.3381
G0 F18000 X-3.421 Y-22
G1 F720 X-12.25 Y-22 E250.77858
G0 F18000 X-11.285 Y-21.6
G1 F720 X-3.421 Y-21.6 E251.17091
G0 F18000 X-3.421 Y-21.2
G1 F720 X-10.32 Y-21.2 E251.51511
G0 F18000 X-9.779 Y-20.8
G1 F720 X-3.421 Y-20.8 E251.83231
G0 F18000 X-3.421 Y-20.4
G1 F720 X-9.258 Y-20.4 E252.12352
G0 F18000 X-8.736 Y-20
G1 F720 X-3.421 Y-20 E252.38868
G0 F18000 X-3.421 Y-19.6
G1 F720 X-8.257 Y-19.6 E252.62995
G0 F18000 X-7.95 Y-19.2
G1 F720 X-3.421 Y-19.2 E252.85591
G0 F18000 X-3.421 Y-18.8
G1 F720 X-7.644 Y-18.8 E253.06659
G0 F18000 X-7.337 Y-18.4
G1 F720 X-3.42 Y-18.4 E253.26201
G0 F18000 X-3.42 Y-18
G1 F720 X-7.03 Y-18 E253.44212
G0 F18000 X-6.765 Y-17.6
G1 F720 X-3.42 Y-17.6 E253.609
G0 F18000 X-3.42 Y-17.2
G1 F720 X-6.599 Y-17.2 E253.7676
G0 F18000 X-6.434 Y-16.8
G1 F720 X-3.42 Y-16.8 E253.91797
G0 F18000 X-3.42 Y-16.4
G1 F720 X-6.268 Y-16.4 E254.06006
G0 F18000 X-6.102 Y-16
G1 F720 X-3.42 Y-16 E254.19386
G0 F18000 X-3.42 Y-15.6
G1 F720 X-5.936 Y-15.6 E254.31939
G0 F18000 X-5.839 Y-15.2
G1 F720 X-3.42 Y-15.2 E254.44007
G0 F18000 X-3.42 Y-14.8
G1 F720 X-5.787 Y-14.8 E254.55816
G0 F18000 X-5.734 Y-14.4
G1 F720 X-3.42 Y-14.4 E254.67361
G0 F18000 X-3.42 Y-14
G1 F720 X-5.681 Y-14 E254.78641
G0 F18000 X-5.629 Y-13.6
G1 F720 X-3.42 Y-13.6 E254.89662
G0 F18000 X-3.42 Y-13.2
G1 F720 X-5.576 Y-13.2 E255.00418
G0 F18000 X-5.576 Y-12.8
G1 F720 X-3.42 Y-12.8 E255.11174
G0 F18000 X-3.42 Y-12.4
G1 F720 X-5.629 Y-12.4 E255.22195
G0 F18000 X-5.681 Y-12
G1 F720 X-3.42 Y-12 E255.33475
G0 F18000 X-3.42 Y-11.6
G1 F720 X-5.734 Y-11.6 E255.4502
G0 F18000 X-5.786 Y-11.2
G1 F720 X-3.42 Y-11.2 E255.56824
G0 F18000 X-3.42 Y-10.8
G1 F720 X-5.839 Y-10.8 E255.68892
G0 F18000 X-5.935 Y-10.4
G1 F720 X-3.42 Y-10.4 E255.8144
G0 F18000 X-3.42 Y-10
G1 F720 X-6.101 Y-10 E255.94815
G0 F18000 X-6.267 Y-9.6
G1 F720 X-3.42 Y-9.6 E256.09019
G0 F18000 X-3.42 Y-9.2
G1 F720 X-6.433 Y-9.2 E256.24051
G0 F18000 X-6.598 Y-8.8
G1 F720 X-3.42 Y-8.8 E256.39906
G0 F18000 X-3.42 Y-8.4
G1 F720 X-6.764 Y-8.4 E256.56589
G0 F18000 X-7.028 Y-8
G1 F720 X-3.42 Y-8 E256.7459
G0 F18000 X-3.42 Y-7.6
G1 F720 X-7.335 Y-7.6 E256.94122
G0 F18000 X-7.642 Y-7.199
G1 F720 X-3.42 Y-7.2 E257.15185
G0 F18000 X-3.42 Y-6.8
G1 F720 X-7.949 Y-6.799 E257.3778
G0 F18000 X-8.256 Y-6.399
G1 F720 X-3.42 Y-6.4 E257.61907
G0 F18000 X-3.419 Y-6
G1 F720 X-8.733 Y-5.999 E257.88419
G0 F18000 X-9.255 Y-5.599
G1 F720 X-3.419 Y-5.6 E258.17535
G0 F18000 X-3.419 Y-5.2
G1 F720 X-9.776 Y-5.199 E258.4925
G0 F18000 X-10.314 Y-4.799
G1 F720 X-3.419 Y-4.8 E258.83649
G0 F18000 X-3.419 Y-4.4
G1 F720 X-11.279 Y-4.399 E259.22863
G0 F18000 X-12.245 Y-3.999
G1 F720 X-3.419 Y-4 E259.66896
G0 F18000 X-17.753 Y4
G0 X-17.753 Y4
G1 F720 X-27.059 Y4 E260.13324
G0 F18000 X-27.059 Y4.4
G1 F720 X-18.719 Y4.4 E260.54932
G0 F18000 X-19.684 Y4.8
G1 F720 X-27.059 Y4.8 E260.91727
G0 F18000 X-27.059 Y5.2
G1 F720 X-20.222 Y5.2 E261.25836
G0 F18000 X-20.743 Y5.6
G1 F720 X-27.059 Y5.6 E261.57347
G0 F18000 X-27.059 Y6
G1 F720 X-21.265 Y6 E261.86253
G0 F18000 X-21.742 Y6.4
G1 F720 X-27.059 Y6.4 E262.1278
G0 F18000 X-27.059 Y6.8
G1 F720 X-22.049 Y6.8 E262.37775
G0 F18000 X-22.355 Y7.2
G1 F720 X-27.059 Y7.2 E262.61243
G0 F18000 X-27.059 Y7.6
G1 F720 X-22.662 Y7.6 E262.8318
G0 F18000 X-22.969 Y8
G1 F720 X-27.059 Y8 E263.03585
G0 F18000 X-27.059 Y8.4
G1 F720 X-23.233 Y8.4 E263.22673
G0 F18000 X-23.399 Y8.8
G1 F720 X-27.059 Y8.8 E263.40933
G0 F18000 X-27.059 Y9.2
G1 F720 X-23.564 Y9.2 E263.5837
G0 F18000 X-23.73 Y9.6
G1 F720 X-27.059 Y9.6 E263.74978
G0 F18000 X-27.059 Y10
G1 F720 X-23.896 Y10 E263.90758
G0 F18000 X-24.062 Y10.4
G1 F720 X-27.059 Y10.4 E264.05711
G0 F18000 X-27.059 Y10.8
G1 F720 X-24.158 Y10.8 E264.20184
G0 F18000 X-24.211 Y11.2
G1 F720 X-27.059 Y11.2 E264.34392
G0 F18000 X-27.059 Y11.6
G1 F720 X-24.263 Y11.6 E264.48342
G0 F18000 X-24.316 Y12
G1 F720 X-27.059 Y12 E264.62027
G0 F18000 X-27.059 Y12.4
G1 F720 X-24.368 Y12.4 E264.75452
G0 F18000 X-24.421 Y12.8
G1 F720 X-27.059 Y12.8 E264.88613
G0 F18000 X-27.059 Y13.2
G1 F720 X-24.421 Y13.2 E265.01774
G0 F18000 X-24.368 Y13.6
G1 F720 X-27.059 Y13.6 E265.152
G0 F18000 X-27.059 Y14
G1 F720 X-24.316 Y14 E265.28884
G0 F18000 X-24.263 Y14.4
G1 F720 X-27.059 Y14.4 E265.42834
G0 F18000 X-27.059 Y14.8
G1 F720 X-24.21 Y14.8 E265.57047
G0 F18000 X-24.158 Y15.2
G1 F720 X-27.059 Y15.2 E265.71521
G0 F18000 X-27.059 Y15.6
G1 F720 X-24.061 Y15.6 E265.86478
G0 F18000 X-23.895 Y16
G1 F720 X-27.059 Y16 E266.02263
G0 F18000 X-27.059 Y16.4
G1 F720 X-23.729 Y16.4 E266.18876
G0 F18000 X-23.564 Y16.8
G1 F720 X-27.059 Y16.8 E266.36313
G0 F18000 X-27.059 Y17.2
G1 F720 X-23.398 Y17.2 E266.54578
G0 F18000 X-23.232 Y17.6
G1 F720 X-27.059 Y17.6 E266.73671
G0 F18000 X-27.059 Y18
G1 F720 X-22.968 Y18 E266.94081
G0 F18000 X-22.661 Y18.4
G1 F720 X-27.059 Y18.4 E267.16023
G0 F18000 X-27.059 Y18.8
G1 F720 X-22.354 Y18.8 E267.39496
G0 F18000 X-22.047 Y19.2
G1 F720 X-27.059 Y19.2 E267.64501
G0 F18000 X-27.059 Y19.6
G1 F720 X-21.74 Y19.6 E267.91037
G0 F18000 X-21.262 Y20
G1 F720 X-27.059 Y20 E268.19959
G0 F18000 X-27.059 Y20.4
G1 F720 X-20.741 Y20.4 E268.51479
G0 F18000 X-20.219 Y20.8
G1 F720 X-27.059 Y20.8 E268.85604
G0 F18000 X-27.059 Y21.2
G1 F720 X-19.679 Y21.2 E269.22423
G0 F18000 X-18.714 Y21.6
G1 F720 X-27.059 Y21.6 E269.64057
G0 F18000 X-27.059 Y22
G1 F720 X-17.749 Y22 E270.10504
G1 F6600 E263.30504
G1 Z0.6
G0 F18000 X-17.84 Y21.553
G0 X-19.551 Y20.883
G0 X-21.435 Y19.436
G0 X-22.882 Y17.552
G0 X-23.792 Y15.354
G0 X-24.102 Y13
G0 X-23.792 Y10.645
G0 X-22.882 Y8.449
G0 X-21.435 Y6.563
G0 X-21.018 Y6.264
G0 X-27.059 Y-22.8
G0 X-27.059 Y-22.8
G1 Z0.3
G1 F6600 E270.20504
G1 F720 X-3.421 Y-22.8 E271.38435
G0 F18000 X-3.421 Y-23.2
G1 F720 X-27.059 Y-23.2 E272.56365
G0 F18000 X-27.059 Y-23.6
G1 F720 X-3.421 Y-23.6 E273.74296
G0 F18000 X-3.421 Y-24
G1 F720 X-27.059 Y-24 E274.92226
G0 F18000 X-27.059 Y-24.4
G1 F720 X-3.421 Y-24.4 E276.10157
; Layer Change GCode
; LAYER:1
G1 F6600 E269.30157
G1 Z0.6
G0 F18000 X25.25 Y12.75 Z0.8
G0 X24.75 Y13.25
; TYPE:WALL-INNER
G1 Z0.5
G1 F6600 E276.20157
G1 F2400 X24.75 Y13.25 E276.20157
G1 X27.25 Y13.25 E276.30551
G1 X27.25 Y25.04 E276.79568
G1 X2.959 Y25.04 E277.80558
G1 X2.959 Y-25.039 E279.88762
G1 X27.25 Y-25.039 E280.89752
G1 X27.25 Y-13.249 E281.3877
G1 X24.75 Y-13.249 E281.49163
G1 X24.75 Y-3.249 E281.90739
G1 X20.75 Y-3.249 E282.07369
G1 X20.75 Y3.25 E282.34388
G1 X24.75 Y3.25 E282.51018
G1 X24.75 Y13.25 E282.92594
G0 F18000 X25.25 Y12.75
; TYPE:WALL-OUTER
G1 F2100 X25.25 Y12.75 E282.92594
G1 X27.75 Y12.75 E283.02987
G1 X27.75 Y25.54 E283.56162
G1 X2.459 Y25.54 E284.6131
G1 X2.459 Y-25.539 E286.73672
G1 X27.75 Y-25.539 E287.78819
G1 X27.75 Y-12.749 E288.31994
G1 X25.25 Y-12.749 E288.42388
G1 X25.25 Y-2.749 E288.83963
G1 X21.25 Y-2.749 E289.00593
G1 X21.25 Y2.75 E289.23455
G1 X25.25 Y2.75 E289.40085
G1 X25.25 Y12.75 E289.8166
G0 F18000 X25 Y13.689
; TYPE:FILL
G1 F2400 X25 Y24.599 E290.27019
G0 F18000 X25.5 Y24.599
G1 F2400 X25.5 Y13.689 E290.72377
G0 F18000 X26 Y13.689
G1 F2400 X26 Y24.599 E291.17736
G0 F18000 X26.5 Y24.599
G1 F2400 X26.5 Y13.689 E291.63094
G0 F18000 X24.5 Y13.689
G1 F2400 X24.5 Y24.599 E292.08453
G0 F18000 X24 Y24.599
G1 F2400 X24 Y3.689 E292.95387
G0 F18000 X23.5 Y3.689
G1 F2400 X23.5 Y24.599 E293.8232
G0 F18000 X23 Y24.599
G1 F2400 X23 Y3.689 E294.69254
G0 F18000 X22.5 Y3.689
G1 F2400 X22.5 Y24.599 E295.56188
G0 F18000 X22 Y24.599
G1 F2400 X22 Y3.689 E296.43121
G0 F18000 X21.5 Y3.689
G1 F2400 X21.5 Y24.599 E297.30055
G0 F18000 X21 Y24.599
G1 F2400 X21 Y3.689 E298.16989
G0 F18000 X20.5 Y3.689
G1 F2400 X20.5 Y24.599 E299.03922
G0 F18000 X20 Y24.599
G1 F2400 X19.999 Y-24.598 E301.0846
G0 F18000 X19.499 Y-24.598
G1 F2400 X19.5 Y24.599 E303.12997
G0 F18000 X19 Y24.599
G1 F2400 X18.999 Y-24.598 E305.17534
G0 F18000 X18.499 Y-24.598
G1 F2400 X18.5 Y24.599 E307.22072
G0 F18000 X18 Y24.599
G1 F2400 X17.999 Y-24.598 E309.26609
G0 F18000 X17.499 Y-24.598
G1 F2400 X17.5 Y24.599 E311.31147
G0 F18000 X17 Y24.599
G1 F2400 X16.999 Y-24.598 E313.35684
G0 F18000 X16.499 Y-24.598
G1 F2400 X16.5 Y24.599 E315.40221
G0 F18000 X16 Y24.599
G1 F2400 X15.999 Y-24.598 E317.44759
G0 F18000 X15.499 Y-24.598
G1 F2400 X15.5 Y24.599 E319.49296
G0 F18000 X15 Y24.599
G1 F2400 X14.999 Y-24.599 E321.53837
G0 F18000 X14.499 Y-24.599
G1 F2400 X14.5 Y24.6 E323.58383
G0 F18000 X14 Y24.6
G1 F2400 X13.999 Y-24.599 E325.62929
G0 F18000 X13.499 Y-24.599
G1 F2400 X13.5 Y24.6 E327.67475
G0 F18000 X13 Y24.6
G1 F2400 X12.999 Y-24.599 E329.7202
G0 F18000 X12.499 Y-24.599
G1 F2400 X12.5 Y24.6 E331.76566
G0 F18000 X12 Y24.6
G1 F2400 X11.999 Y-24.599 E333.81112
G0 F18000 X11.499 Y-24.599
G1 F2400 X11.5 Y24.6 E335.85657
G0 F18000 X11 Y24.6
G1 F2400 X10.999 Y-24.599 E337.90203
G0 F18000 X10.499 Y-24.599
G1 F2400 X10.5 Y24.6 E339.94749
G0 F18000 X10 Y24.6
G1 F2400 X9.999 Y-24.599 E341.99294
G0 F18000 X9.499 Y-24.599
G1 F2400 X9.5 Y24.6 E344.0384
G0 F18000 X9 Y24.6
G1 F2400 X8.999 Y-24.599 E346.08386
G0 F18000 X8.499 Y-24.599
G1 F2400 X8.5 Y24.6 E348.12931
G0 F18000 X8 Y24.6
G1 F2400 X7.999 Y-24.599 E350.17477
G0 F18000 X7.499 Y-24.599
G1 F2400 X7.5 Y24.6 E352.22023
G0 F18000 X7 Y24.6
G1 F2400 X6.999 Y-24.599 E354.26568
G0 F18000 X6.499 Y-24.599
G1 F2400 X6.5 Y24.6 E356.31114
G0 F18000 X6 Y24.6
G1 F2400 X5.999 Y-24.599 E358.3566
G0 F18000 X5.499 Y-24.599
G1 F2400 X5.5 Y24.6 E360.40205
G0 F18000 X5 Y24.6
G1 F2400 X4.999 Y-24.599 E362.44751
G0 F18000 X4.499 Y-24.599
G1 F2400 X4.5 Y24.6 E364.49297
G0 F18000 X4 Y24.6
G1 F2400 X3.999 Y-24.599 E366.53842
G0 F18000 X3.499 Y-24.599
G1 F2400 X3.5 Y24.6 E368.58388
G0 F18000 X20.5 Y-3.688
G0 X20.5 Y-3.688
G1 F2400 X20.499 Y-24.598 E369.45322
G0 F18000 X20.999 Y-24.598
G1 F2400 X21 Y-3.688 E370.32255
G0 F18000 X21.5 Y-3.688
G1 F2400 X21.499 Y-24.598 E371.19189
G0 F18000 X21.999 Y-24.598
G1 F2400 X22 Y-3.688 E372.06123
G0 F18000 X22.5 Y-3.688
G1 F2400 X22.499 Y-24.598 E372.93056
G0 F18000 X22.999 Y-24.598
G1 F2400 X23 Y-3.688 E373.7999
G0 F18000 X23.5 Y-3.688
G1 F2400 X23.499 Y-24.598 E374.66924
G0 F18000 X23.999 Y-24.598
G1 F2400 X24 Y-3.688 E375.53857
G0 F18000 X24.5 Y-13.688
G0 X24.5 Y-13.688
G1 F2400 X24.499 Y-24.598 E375.99216
G0 F18000 X24.999 Y-24.598
G1 F2400 X25 Y-13.688 E376.44574
G0 F18000 X25.5 Y-13.688
G1 F2400 X25.499 Y-24.598 E376.89933
G0 F18000 X25.999 Y-24.598
G1 F2400 X26 Y-13.688 E377.35291
G0 F18000 X26.5 Y-13.688
G1 F2400 X26.499 Y-24.598 E377.8065
G1 F6600 E371.0065
G1 Z0.8
G0 F18000 X-27.749 Y25.54
G0 X-27.249 Y25.04
; TYPE:WALL-INNER
G1 Z0.5
G1 F6600 E377.9065
G1 F2400 X-27.249 Y25.04 E377.9065
G1 X-27.249 Y-25.039 E379.98854
G1 X-2.98 Y-25.023 E380.99753
G1 X-2.959 Y-24.936 E381.00125
G1 X-2.959 Y24.937 E383.07473
G1 X-2.981 Y25.025 E383.0785
G1 X-27.249 Y25.04 E384.08745
G0 F18000 X-27.749 Y25.54
; TYPE:WALL-OUTER
G1 F2100 X-27.749 Y25.54 E384.08745
G1 X-27.749 Y-25.539 E386.21107
G1 X-2.932 Y-25.529 E387.24284
G1 X-2.764 Y-25.488 E387.25003
G1 X-2.593 Y-25.356 E387.25901
G1 X-2.492 Y-25.175 E387.26762
G1 X-2.459 Y-24.976 E387.27601
G1 X-2.459 Y24.977 E389.35282
G1 X-2.493 Y25.179 E389.36133
G1 X-2.575 Y25.339 E389.36881
G1 X-2.747 Y25.48 E389.37805
G1 X-2.932 Y25.53 E389.38602
G1 X-27.749 Y25.54 E390.41779
G0 F18000 X-27.399 Y25.28
G0 X-21.544 Y19.545
G0 X-21.544 Y19.545
; TYPE:WALL-INNER
G1 F2400 X-21.544 Y19.545 E390.41779
G1 X-19.627 Y21.016 E390.51825
G1 X-17.394 Y21.941 E390.61874
G1 X-14.999 Y22.256 E390.71917
G1 X-12.604 Y21.941 E390.8196
G1 X-10.371 Y21.016 E390.92009
G1 X-8.454 Y19.545 E391.02055
G1 X-6.983 Y17.628 E391.12101
G1 X-6.058 Y15.395 E391.22149
G1 X-5.743 Y13 E391.32192
G1 X-6.058 Y10.604 E391.4224
G1 X-6.983 Y8.372 E391.52284
G1 X-8.454 Y6.454 E391.62334
G1 X-10.371 Y4.983 E391.7238
G1 X-12.604 Y4.058 E391.82428
G1 X-14.999 Y3.744 E391.92471
G1 X-17.394 Y4.058 E392.02513
G1 X-19.627 Y4.983 E392.12562
G1 X-21.544 Y6.454 E392.22608
G1 X-23.015 Y8.372 E392.32657
G1 X-23.94 Y10.604 E392.42702
G1 X-24.255 Y13 E392.52749
G1 X-23.94 Y15.395 E392.62792
G1 X-23.015 Y17.628 E392.72841
G1 X-21.544 Y19.545 E392.82887
G0 F18000 X-20.892 Y19.8
G0 X-19.6 Y20.971
G0 X-17.38 Y21.89
G0 X-15.241 Y22.019
G0 X-15.045 Y22.098
G0 X-15.045 Y22.098
G0 X-14.999 Y21.752
; TYPE:WALL-OUTER
G1 F2100 X-14.999 Y21.752 E392.82887
G1 X-12.735 Y21.454 E392.92381
G1 X-10.623 Y20.579 E393.01885
G1 X-8.811 Y19.188 E393.11383
G1 X-7.42 Y17.376 E393.2088
G1 X-6.545 Y15.264 E393.30384
G1 X-6.247 Y13 E393.39878
G1 X-6.545 Y10.735 E393.49376
G1 X-7.42 Y8.624 E393.58877
G1 X-8.811 Y6.811 E393.68377
G1 X-10.623 Y5.42 E393.77874
G1 X-12.735 Y4.545 E393.87379
G1 X-14.999 Y4.248 E393.96872
G1 X-17.263 Y4.545 E394.06365
G1 X-19.375 Y5.42 E394.1587
G1 X-21.187 Y6.811 E394.25367
G1 X-22.578 Y8.624 E394.34867
G1 X-23.453 Y10.735 E394.44368
G1 X-23.751 Y13 E394.53866
G1 X-23.453 Y15.264 E394.6336
G1 X-22.578 Y17.376 E394.72864
G1 X-21.187 Y19.188 E394.82361
G1 X-19.375 Y20.579 E394.91858
G1 X-17.263 Y21.454 E395.01363
G1 X-14.999 Y21.752 E395.10857
G1 F6600 E388.30857
G1 Z0.8
G0 F18000 X-15.045 Y22.098
G0 X-15.044 Y22.209
G0 X-12.618 Y21.89
G0 X-10.398 Y20.971
G0 X-8.491 Y19.508
G0 X-7.028 Y17.601
G0 X-6.109 Y15.381
G0 X-5.795 Y13
G0 X-6.109 Y10.618
G0 X-7.028 Y8.399
G0 X-8.491 Y6.491
G0 X-10.398 Y5.028
G0 X-12.619 Y4.109
G0 X-15.011 Y3.794
G0 X-14.999 Y-3.743
G0 X-14.999 Y-3.743
; TYPE:WALL-INNER
G1 Z0.5
G1 F6600 E395.20857
G1 F2400 X-14.999 Y-3.743 E395.20857
G1 X-12.604 Y-4.057 E395.30899
G1 X-10.371 Y-4.982 E395.40948
G1 X-8.454 Y-6.453 E395.50994
G1 X-6.983 Y-8.371 E395.61043
G1 X-6.058 Y-10.603 E395.71088
G1 X-5.743 Y-12.999 E395.81135
G1 X-6.058 Y-15.394 E395.91178
G1 X-6.983 Y-17.627 E396.01227
G1 X-8.454 Y-19.544 E396.11273
G1 X-10.371 Y-21.015 E396.21319
G1 X-12.604 Y-21.94 E396.31368
G1 X-14.999 Y-22.255 E396.41411
G1 X-17.394 Y-21.94 E396.51454
G1 X-19.627 Y-21.015 E396.61502
G1 X-21.544 Y-19.544 E396.71548
G1 X-23.015 Y-17.627 E396.81594
G1 X-23.94 Y-15.394 E396.91643
G1 X-24.255 Y-12.999 E397.01686
G1 X-23.94 Y-10.603 E397.11733
G1 X-23.015 Y-8.371 E397.21778
G1 X-21.544 Y-6.453 E397.31828
G1 X-19.627 Y-4.982 E397.41874
G1 X-17.394 Y-4.057 E397.51922
G1 X-14.999 Y-3.743 E397.61965
G0 F18000 X-14.999 Y-4.247
; TYPE:WALL-OUTER
G1 F2100 X-14.999 Y-4.247 E397.61965
G1 X-12.735 Y-4.544 E397.71458
G1 X-10.623 Y-5.419 E397.80962
G1 X-8.811 Y-6.81 E397.9046
G1 X-7.42 Y-8.623 E397.9996
G1 X-6.545 Y-10.734 E398.09461
G1 X-6.247 Y-12.999 E398.18959
G1 X-6.545 Y-15.263 E398.28452
G1 X-7.42 Y-17.375 E398.37957
G1 X-8.811 Y-19.187 E398.47454
G1 X-10.623 Y-20.578 E398.56951
G1 X-12.735 Y-21.453 E398.66456
G1 X-14.999 Y-21.751 E398.75949
G1 X-17.263 Y-21.453 E398.85443
G1 X-19.375 Y-20.578 E398.94948
G1 X-21.187 Y-19.187 E399.04445
G1 X-22.578 Y-17.375 E399.13942
G1 X-23.453 Y-15.263 E399.23447
G1 X-23.751 Y-12.999 E399.3294
G1 X-23.453 Y-10.734 E399.42438
G1 X-22.578 Y-8.623 E399.51939
G1 X-21.187 Y-6.81 E399.61439
G1 X-19.375 Y-5.419 E399.70937
G1 X-17.263 Y-4.544 E399.80441
G1 X-14.999 Y-4.247 E399.89934
G0 F18000 X-15 Y-3.298
; TYPE:FILL
G1 F2400 X-15 Y3.299 E400.17361
G0 F18000 X-14.5 Y3.364
G1 F2400 X-14.5 Y-3.363 E400.45329
G0 F18000 X-14 Y-3.429
G1 F2400 X-14 Y3.43 E400.73845
G0 F18000 X-13.5 Y3.496
G1 F2400 X-13.5 Y-3.495 E401.02911
G0 F18000 X-13 Y-3.56
G1 F2400 X-13 Y3.561 E401.32516
G0 F18000 X-12.5 Y3.627
G1 F2400 X-12.5 Y-3.626 E401.62671
G0 F18000 X-12 Y-3.83
G1 F2400 X-12 Y3.831 E401.94521
G0 F18000 X-11.5 Y4.038
G1 F2400 X-11.5 Y-4.037 E402.28093
G0 F18000 X-11 Y-4.244
G1 F2400 X-11 Y4.245 E402.63387
G0 F18000 X-10.5 Y4.452
G1 F2400 X-10.5 Y-4.451 E403.00401
G0 F18000 X-10 Y-4.712
G1 F2400 X-10 Y4.713 E403.39586
G0 F18000 X-9.5 Y5.097
G1 F2400 X-9.5 Y-5.095 E403.81959
G0 F18000 X-9 Y-5.478
G1 F2400 X-9 Y5.48 E404.27517
G0 F18000 X-8.5 Y5.863
G1 F2400 X-8.5 Y-5.861 E404.7626
G0 F18000 X-8 Y-6.319
G1 F2400 X-7.999 Y6.322 E405.28815
G0 F18000 X-7.499 Y6.974
G1 F2400 X-7.5 Y-6.972 E405.86796
G0 F18000 X-7 Y-7.625
G1 F2400 X-6.999 Y7.627 E406.50206
G0 F18000 X-6.499 Y8.387
G1 F2400 X-6.5 Y-8.385 E407.19936
G0 F18000 X-6 Y-9.591
G1 F2400 X-5.999 Y9.594 E407.99698
G0 F18000 X-5.499 Y11.471
G0 X-5.499 Y11.471
G1 F2400 X-5.5 Y-11.462 E408.95042
G0 F18000 X-5.5 Y-14.535
G0 X-5.5 Y-14.535
G1 F2400 X-5.5 Y-24.584 E409.36821
G0 F18000 X-5 Y-24.584
G1 F2400 X-4.999 Y24.586 E411.41246
G0 F18000 X-5.499 Y24.586
G1 F2400 X-5.499 Y14.529 E411.83058
G0 F18000 X-5.999 Y16.405
G0 X-5.999 Y16.405
G1 F2400 X-5.999 Y24.587 E412.17075
G0 F18000 X-6.499 Y24.587
G1 F2400 X-6.499 Y17.612 E412.46074
G0 F18000 X-6.999 Y18.372
G1 F2400 X-6.999 Y24.587 E412.71913
G0 F18000 X-7.499 Y24.587
G1 F2400 X-7.499 Y19.024 E412.95041
G0 F18000 X-7.999 Y19.676
G1 F2400 X-7.999 Y24.588 E413.15463
G0 F18000 X-8.499 Y24.588
G1 F2400 X-8.499 Y20.135 E413.33976
G0 F18000 X-8.999 Y20.518
G1 F2400 X-8.999 Y24.588 E413.50897
G0 F18000 X-9.499 Y24.589
G1 F2400 X-9.499 Y20.901 E413.6623
G0 F18000 X-9.999 Y21.285
G1 F2400 X-9.999 Y24.589 E413.79967
G0 F18000 X-10.499 Y24.589
G1 F2400 X-10.499 Y21.546 E413.92618
G0 F18000 X-10.999 Y21.753
G1 F2400 X-10.999 Y24.59 E414.04413
G0 F18000 X-11.499 Y24.59
G1 F2400 X-11.499 Y21.96 E414.15347
G0 F18000 X-11.999 Y22.167
G1 F2400 X-11.999 Y24.59 E414.25421
G0 F18000 X-12.499 Y24.59
G1 F2400 X-12.499 Y22.371 E414.34646
G0 F18000 X-12.999 Y22.437
G1 F2400 X-12.999 Y24.591 E414.43602
G0 F18000 X-13.499 Y24.591
G1 F2400 X-13.499 Y22.503 E414.52283
G0 F18000 X-13.999 Y22.568
G1 F2400 X-13.999 Y24.591 E414.60693
G0 F18000 X-14.499 Y24.592
G1 F2400 X-14.499 Y22.634 E414.68834
G0 F18000 X-14.999 Y22.699
G1 F2400 X-14.999 Y24.592 E414.76704
G0 F18000 X-15.499 Y24.592
G1 F2400 X-15.499 Y22.633 E414.84848
G0 F18000 X-15.999 Y22.567
G1 F2400 X-15.999 Y24.593 E414.93272
G0 F18000 X-16.499 Y24.593
G1 F2400 X-16.499 Y22.502 E415.01965
G0 F18000 X-16.999 Y22.436
G1 F2400 X-16.999 Y24.593 E415.10933
G0 F18000 X-17.499 Y24.593
G1 F2400 X-17.499 Y22.37 E415.20175
G0 F18000 X-17.999 Y22.166
G1 F2400 X-17.999 Y24.594 E415.30269
G0 F18000 X-18.499 Y24.594
G1 F2400 X-18.499 Y21.958 E415.41228
G0 F18000 X-18.999 Y21.751
G1 F2400 X-18.999 Y24.594 E415.53048
G0 F18000 X-19.499 Y24.595
G1 F2400 X-19.499 Y21.544 E415.65733
G0 F18000 X-19.999 Y21.282
G1 F2400 X-19.999 Y24.595 E415.79507
G0 F18000 X-20.499 Y24.595
G1 F2400 X-20.499 Y20.899 E415.94873
G0 F18000 X-20.999 Y20.516
G1 F2400 X-20.999 Y24.596 E416.11836
G0 F18000 X-21.499 Y24.596
G1 F2400 X-21.499 Y20.132 E416.30395
G0 F18000 X-21.999 Y19.673
G1 F2400 X-21.999 Y24.596 E416.50862
G0 F18000 X-22.499 Y24.596
G1 F2400 X-22.499 Y19.02 E416.74045
G0 F18000 X-22.999 Y18.368
G1 F2400 X-22.999 Y24.597 E416.99942
G0 F18000 X-23.499 Y24.597
G1 F2400 X-23.499 Y17.606 E417.29007
G0 F18000 X-23.999 Y16.399
G1 F2400 X-23.999 Y24.597 E417.6309
G0 F18000 X-24.499 Y24.598
G1 F2400 X-24.5 Y14.513 E418.05019
G0 F18000 X-24.5 Y11.485
G0 X-24.5 Y11.485
G1 F2400 X-24.5 Y-11.484 E419.00513
G0 F18000 X-24 Y-9.597
G0 X-24 Y-9.597
G1 F2400 X-24 Y9.598 E419.80316
G0 F18000 X-23.5 Y8.392
G1 F2400 X-23.5 Y-8.391 E420.50092
G0 F18000 X-23 Y-7.629
G1 F2400 X-23 Y7.63 E421.13531
G0 F18000 X-22.5 Y6.977
G1 F2400 X-22.5 Y-6.976 E421.71541
G0 F18000 X-22 Y-6.323
G1 F2400 X-22 Y6.324 E422.24121
G0 F18000 X-21.5 Y5.865
G1 F2400 X-21.5 Y-5.864 E422.72885
G0 F18000 X-21 Y-5.48
G1 F2400 X-21 Y5.481 E423.18455
G0 F18000 X-20.5 Y5.098
G1 F2400 X-20.5 Y-5.097 E423.60841
G0 F18000 X-20 Y-4.714
G1 F2400 X-20 Y4.715 E424.00043
G0 F18000 X-19.5 Y4.453
G1 F2400 X-19.5 Y-4.452 E424.37065
G0 F18000 X-19 Y-4.245
G1 F2400 X-19 Y4.246 E424.72367
G0 F18000 X-18.5 Y4.039
G1 F2400 X-18.5 Y-4.038 E425.05947
G0 F18000 X-18 Y-3.831
G1 F2400 X-18 Y3.832 E425.37806
G0 F18000 X-17.5 Y3.627
G1 F2400 X-17.5 Y-3.626 E425.67961
G0 F18000 X-17 Y-3.56
G1 F2400 X-17 Y3.561 E425.97566
G0 F18000 X-16.5 Y3.496
G1 F2400 X-16.5 Y-3.495 E426.26631
G0 F18000 X-16 Y-3.429
G1 F2400 X-16 Y3.43 E426.55148
G0 F18000 X-15.5 Y3.365
G1 F2400 X-15.5 Y-3.364 E426.83124
G0 F18000 X-16.003 Y-3.988
G0 X-17.379 Y-4.108
G0 X-19.6 Y-5.027
G0 X-21.507 Y-6.49
G0 X-22.97 Y-8.398
G0 X-23.889 Y-10.617
G0 X-24.203 Y-12.999
G0 X-24.027 Y-13.922
G0 X-24.5 Y-14.507
G0 X-24.5 Y-14.507
G1 F2400 X-24.5 Y-24.596 E427.25069
G0 F18000 X-24 Y-24.596
G1 F2400 X-24 Y-16.396 E427.59161
G0 F18000 X-23.5 Y-17.603
G1 F2400 X-23.5 Y-24.596 E427.88234
G0 F18000 X-23 Y-24.595
G1 F2400 X-23 Y-18.366 E428.14131
G0 F18000 X-22.5 Y-19.018
G1 F2400 X-22.5 Y-24.595 E428.37318
G0 F18000 X-22 Y-24.595
G1 F2400 X-22 Y-19.67 E428.57794
G0 F18000 X-21.5 Y-20.131
G1 F2400 X-21.5 Y-24.594 E428.76349
G0 F18000 X-21 Y-24.594
G1 F2400 X-21 Y-20.514 E428.93311
G0 F18000 X-20.5 Y-20.897
G1 F2400 X-20.5 Y-24.594 E429.08682
G0 F18000 X-20 Y-24.593
G1 F2400 X-20 Y-21.28 E429.22455
G0 F18000 X-19.5 Y-21.543
G1 F2400 X-19.5 Y-24.593 E429.35136
G0 F18000 X-19 Y-24.593
G1 F2400 X-19 Y-21.75 E429.46956
G0 F18000 X-18.5 Y-21.957
G1 F2400 X-18.5 Y-24.592 E429.57911
G0 F18000 X-18 Y-24.592
G1 F2400 X-18 Y-22.164 E429.68005
G0 F18000 X-17.5 Y-22.369
G1 F2400 X-17.5 Y-24.592 E429.77247
G0 F18000 X-17 Y-24.591
G1 F2400 X-17 Y-22.435 E429.86211
G0 F18000 X-16.5 Y-22.501
G1 F2400 X-16.5 Y-24.591 E429.949
G0 F18000 X-16 Y-24.591
G1 F2400 X-16 Y-22.566 E430.03319
G0 F18000 X-15.5 Y-22.632
G1 F2400 X-15.5 Y-24.59 E430.11459
G0 F18000 X-15 Y-24.59
G1 F2400 X-15 Y-22.698 E430.19326
G0 F18000 X-14.5 Y-22.634
G1 F2400 X-14.5 Y-24.591 E430.27462
G0 F18000 X-14 Y-24.59
G1 F2400 X-14 Y-22.568 E430.35868
G0 F18000 X-13.5 Y-22.502
G1 F2400 X-13.5 Y-24.59 E430.44549
G0 F18000 X-13 Y-24.59
G1 F2400 X-13 Y-22.436 E430.53504
G0 F18000 X-12.5 Y-22.371
G1 F2400 X-12.5 Y-24.589 E430.62726
G0 F18000 X-12 Y-24.589
G1 F2400 X-12 Y-22.167 E430.72795
G0 F18000 X-11.5 Y-21.96
G1 F2400 X-11.5 Y-24.589 E430.83725
G0 F18000 X-11 Y-24.588
G1 F2400 X-11 Y-21.752 E430.95516
G0 F18000 X-10.5 Y-21.545
G1 F2400 X-10.5 Y-24.588 E431.08167
G0 F18000 X-10 Y-24.588
G1 F2400 X-10 Y-21.284 E431.21904
G0 F18000 X-9.5 Y-20.901
G1 F2400 X-9.5 Y-24.587 E431.37229
G0 F18000 X-9 Y-24.587
G1 F2400 X-9 Y-20.518 E431.54145
G0 F18000 X-8.5 Y-20.135
G1 F2400 X-8.5 Y-24.586 E431.72651
G0 F18000 X-8 Y-24.586
G1 F2400 X-8 Y-19.677 E431.9306
G0 F18000 X-7.5 Y-19.024
G1 F2400 X-7.5 Y-24.586 E432.16184
G0 F18000 X-7 Y-24.585
G1 F2400 X-7 Y-18.372 E432.42015
G0 F18000 X-6.5 Y-17.613
G1 F2400 X-6.5 Y-24.585 E432.71001
G0 F18000 X-6 Y-24.585
G1 F2400 X-6 Y-16.407 E433.05001
G0 F18000 X-4.5 Y-24.584
G0 X-4.5 Y-24.584
G1 F2400 X-4.499 Y24.586 E435.09426
G0 F18000 X-3.999 Y24.585
G1 F2400 X-4 Y-24.583 E437.13843
G0 F18000 X-3.5 Y-24.583
G1 F2400 X-3.499 Y24.585 E439.1826
G0 F18000 X-2.838 Y25.12
G1 F2400 X-2.807 Y25.195 E439.18542
G1 X-2.849 Y25.189 E439.18583
G0 F18000 X-24.999 Y24.598
G0 X-24.999 Y24.598
G1 F2400 X-25 Y-24.597 E441.23112
G0 F18000 X-25.5 Y-24.597
G1 F2400 X-25.499 Y24.598 E443.27641
G0 F18000 X-25.999 Y24.599
G1 F2400 X-26 Y-24.597 E445.32174
G0 F18000 X-26.5 Y-24.598
G1 F2400 X-26.499 Y24.599 E447.36711
G1 F6600 E440.56711
G1 Z0.8
G0 F18000 X-23.029 Y17.325
G0 X-23.889 Y15.381
G0 X-24.203 Y13
G0 X-23.889 Y10.618
G0 X-22.97 Y8.399
G0 X-21.507 Y6.491
G0 X-19.6 Y5.028
G0 X-17.379 Y4.109
G0 X-16.697 Y4.049
G0 X-12.812 Y-4.097
G0 X-10.398 Y-5.027
G0 X-8.491 Y-6.49
G0 X-7.028 Y-8.398
G0 X-6.109 Y-10.617
G0 X-5.795 Y-12.999
G0 X-6.109 Y-15.38
G0 X-6.752 Y-16.803
G0 X-2.835 Y-25.015
G0 X-2.663 Y-25.376
G0 X-2.792 Y-25.108
G0 X-2.792 Y-25.108
G1 Z0.5
G1 F6600 E447.46711
G1 F2400 X-2.802 Y-25.161 E447.46901
G1 X-2.831 Y-25.224 E447.46965
; Layer Change GCode
; LAYER:2
G4 P0
M106 S255
G0 F18000 X25.25 Y12.75 Z0.7
G0 X24.75 Y13.25
; TYPE:WALL-INNER
G1 F2400 X24.75 Y13.25 E447.46965
G1 X27.25 Y13.25 E447.57359
G1 X27.25 Y25.157 E448.06863
G1 X2.842 Y25.157 E449.08339
G1 X2.842 Y-25.156 E451.17517
G1 X27.25 Y-25.156 E452.18993
G1 X27.25 Y-13.249 E452.68497
G1 X24.75 Y-13.249 E452.78891
G1 X24.75 Y-3.249 E453.20466
G1 X20.75 Y-3.249 E453.37096
G1 X20.75 Y3.25 E453.64116
G1 X24.75 Y3.25 E453.80746
G1 X24.75 Y13.25 E454.22321
G0 F18000 X25.25 Y12.75
; TYPE:WALL-OUTER
G1 F2100 X25.25 Y12.75 E454.22321
G1 X27.75 Y12.75 E454.32715
G1 X27.75 Y25.657 E454.86376
G1 X2.342 Y25.657 E455.9201
G1 X2.342 Y-25.656 E458.05344
G1 X27.75 Y-25.656 E459.10979
G1 X27.75 Y-12.749 E459.6464
G1 X25.25 Y-12.749 E459.75034
G1 X25.25 Y-2.749 E460.16609
G1 X21.25 Y-2.749 E460.33239
G1 X21.25 Y2.75 E460.56101
G1 X25.25 Y2.75 E460.72731
G1 X25.25 Y12.75 E461.14306
G0 F18000 X24.31 Y12.999
; TYPE:FILL
G1 F2400 X3.281 Y13 E462.01735
G0 F18000 X3.281 Y13.5
G1 F2400 X24.31 Y13.499 E462.89163
G0 F18000 X24.31 Y12.499
G1 F2400 X3.281 Y12.5 E463.76591
G0 F18000 X3.281 Y12
G1 F2400 X24.31 Y11.999 E464.6402
G0 F18000 X24.31 Y11.499
G1 F2400 X3.281 Y11.5 E465.51448
G0 F18000 X3.281 Y11
G1 F2400 X24.31 Y10.999 E466.38877
G0 F18000 X24.31 Y10.499
G1 F2400 X3.281 Y10.5 E467.26305
G0 F18000 X3.281 Y10
G1 F2400 X24.31 Y9.999 E468.13734
G0 F18000 X24.31 Y9.499
G1 F2400 X3.281 Y9.5 E469.01162
G0 F18000 X3.281 Y9
G1 F2400 X24.31 Y8.999 E469.8859
G0 F18000 X24.31 Y8.499
G1 F2400 X3.281 Y8.5 E470.76019
G0 F18000 X3.281 Y8
G1 F2400 X24.31 Y7.999 E471.63447
G0 F18000 X24.31 Y7.499
G1 F2400 X3.281 Y7.5 E472.50876
G0 F18000 X3.281 Y7
G1 F2400 X24.31 Y6.999 E473.38304
G0 F18000 X24.31 Y6.499
G1 F2400 X3.281 Y6.5 E474.25733
G0 F18000 X3.281 Y6
G1 F2400 X24.31 Y5.999 E475.13161
G0 F18000 X24.31 Y5.499
G1 F2400 X3.281 Y5.5 E476.00589
G0 F18000 X3.281 Y5
G1 F2400 X24.31 Y4.999 E476.88018
G0 F18000 X24.31 Y4.499
G1 F2400 X3.281 Y4.5 E477.75446
G0 F18000 X3.281 Y4
G1 F2400 X24.31 Y3.999 E478.62875
G0 F18000 X20.31 Y3.499
G1 F2400 X3.281 Y3.5 E479.33673
G0 F18000 X3.281 Y3
G1 F2400 X20.31 Y2.999 E480.04471
G0 F18000 X20.31 Y2.499
G1 F2400 X3.281 Y2.5 E480.7527
G0 F18000 X3.281 Y1.999
G1 F2400 X20.31 Y1.999 E481.46068
G0 F18000 X20.31 Y1.499
G1 F2400 X3.281 Y1.499 E482.16866
G0 F18000 X3.281 Y0.999
G1 F2400 X20.31 Y0.999 E482.87665
G0 F18000 X20.31 Y0.499
G1 F2400 X3.281 Y0.499 E483.58463
G0 F18000 X3.282 Y0
G1 F2400 X20.31 Y0 E484.29257
G0 F18000 X20.31 Y-0.5
G1 F2400 X3.282 Y-0.5 E485.00052
G0 F18000 X3.282 Y-1
G1 F2400 X20.31 Y-1 E485.70846
G0 F18000 X20.31 Y-1.5
G1 F2400 X3.282 Y-1.5 E486.4164
G0 F18000 X3.282 Y-2
G1 F2400 X20.31 Y-2 E487.12434
G0 F18000 X20.31 Y-2.5
G1 F2400 X3.282 Y-2.5 E487.83228
G0 F18000 X3.282 Y-3
G1 F2400 X20.31 Y-3 E488.54023
G0 F18000 X20.31 Y-3.5
G1 F2400 X3.282 Y-3.5 E489.24817
G0 F18000 X3.281 Y-4
G1 F2400 X24.31 Y-4 E490.12245
G0 F18000 X24.31 Y-4.5
G1 F2400 X3.281 Y-4.5 E490.99674
G0 F18000 X3.281 Y-5
G1 F2400 X24.31 Y-5 E491.87102
G0 F18000 X24.31 Y-5.5
G1 F2400 X3.281 Y-5.5 E492.7453
G0 F18000 X3.281 Y-6
G1 F2400 X24.31 Y-6 E493.61959
G0 F18000 X24.31 Y-6.5
G1 F2400 X3.281 Y-6.5 E494.49387
G0 F18000 X3.281 Y-7
G1 F2400 X24.31 Y-7 E495.36816
G0 F18000 X24.31 Y-7.5
G1 F2400 X3.281 Y-7.5 E496.24244
G0 F18000 X3.281 Y-8
G1 F2400 X24.31 Y-8 E497.11673
G0 F18000 X24.31 Y-8.5
G1 F2400 X3.281 Y-8.5 E497.99101
G0 F18000 X3.281 Y-9
G1 F2400 X24.31 Y-9 E498.86529
G0 F18000 X24.31 Y-9.5
G1 F2400 X3.281 Y-9.5 E499.73958
G0 F18000 X3.281 Y-10
G1 F2400 X24.31 Y-10 E500.61386
G0 F18000 X24.31 Y-10.5
G1 F2400 X3.281 Y-10.5 E501.48815
G0 F18000 X3.281 Y-11
G1 F2400 X24.31 Y-11 E502.36243
G0 F18000 X24.31 Y-11.5
G1 F2400 X3.281 Y-11.5 E503.23671
G0 F18000 X3.281 Y-12
G1 F2400 X24.31 Y-12 E504.111
G0 F18000 X24.31 Y-12.5
G1 F2400 X3.281 Y-12.5 E504.98528
G0 F18000 X3.281 Y-13
G1 F2400 X24.31 Y-13 E505.85957
G0 F18000 X24.31 Y-13.5
G1 F2400 X3.281 Y-13.5 E506.73385
G0 F18000 X3.281 Y-14
G1 F2400 X26.81 Y-14 E507.71207
G0 F18000 X26.81 Y-14.5
G1 F2400 X3.281 Y-14.5 E508.6903
G0 F18000 X3.281 Y-15
G1 F2400 X26.81 Y-15 E509.66852
G0 F18000 X26.81 Y-15.5
G1 F2400 X3.281 Y-15.5 E510.64674
G0 F18000 X3.281 Y-16
G1 F2400 X26.81 Y-16 E511.62496
G0 F18000 X26.81 Y-16.5
G1 F2400 X3.281 Y-16.5 E512.60318
G0 F18000 X3.281 Y-17
G1 F2400 X26.81 Y-17 E513.58141
G0 F18000 X26.81 Y-17.5
G1 F2400 X3.281 Y-17.5 E514.55963
G0 F18000 X3.281 Y-18
G1 F2400 X26.81 Y-18 E515.53785
G0 F18000 X26.81 Y-18.5
G1 F2400 X3.281 Y-18.5 E516.51607
G0 F18000 X3.281 Y-19
G1 F2400 X26.81 Y-19 E517.4943
G0 F18000 X26.81 Y-19.5
G1 F2400 X3.281 Y-19.5 E518.47252
G0 F18000 X3.281 Y-20
G1 F2400 X26.81 Y-20 E519.45074
G0 F18000 X26.81 Y-20.5
G1 F2400 X3.281 Y-20.5 E520.42896
G0 F18000 X3.281 Y-21
G1 F2400 X26.81 Y-21 E521.40718
G0 F18000 X26.81 Y-21.5
G1 F2400 X3.281 Y-21.5 E522.38541
G0 F18000 X3.281 Y-22
G1 F2400 X26.81 Y-22 E523.36363
G0 F18000 X26.81 Y-22.5
G1 F2400 X3.281 Y-22.5 E524.34185
G0 F18000 X3.281 Y-23
G1 F2400 X26.81 Y-23 E525.32007
G0 F18000 X26.81 Y-23.5
G1 F2400 X3.281 Y-23.5 E526.29829
G0 F18000 X3.281 Y-24
G1 F2400 X26.81 Y-24 E527.27652
G0 F18000 X26.81 Y-24.5
G1 F2400 X3.281 Y-24.5 E528.25474
G0 F18000 X3.281 Y14
G0 X3.281 Y14
G1 F2400 X26.81 Y13.999 E529.23296
G0 F18000 X26.81 Y14.499
G1 F2400 X3.281 Y14.5 E530.21118
G0 F18000 X3.281 Y15
G1 F2400 X26.81 Y14.999 E531.18941
G0 F18000 X26.81 Y15.499
G1 F2400 X3.281 Y15.5 E532.16763
G0 F18000 X3.281 Y16
G1 F2400 X26.81 Y15.999 E533.14585
G0 F18000 X26.81 Y16.5
G1 F2400 X3.281 Y16.5 E534.12407
G0 F18000 X3.281 Y17
G1 F2400 X26.81 Y17 E535.10229
G0 F18000 X26.81 Y17.5
G1 F2400 X3.281 Y17.5 E536.08052
G0 F18000 X3.281 Y18
G1 F2400 X26.81 Y18 E537.05874
G0 F18000 X26.81 Y18.5
G1 F2400 X3.281 Y18.5 E538.03696
G0 F18000 X3.281 Y19
G1 F2400 X26.81 Y19 E539.01518
G0 F18000 X26.81 Y19.5
G1 F2400 X3.281 Y19.5 E539.9934
G0 F18000 X3.281 Y20
G1 F2400 X26.81 Y20 E540.97163
G0 F18000 X26.81 Y20.5
G1 F2400 X3.281 Y20.5 E541.94985
G0 F18000 X3.281 Y21
G1 F2400 X26.81 Y21 E542.92807
G0 F18000 X26.81 Y21.5
G1 F2400 X3.281 Y21.5 E543.90629
G0 F18000 X3.281 Y22
G1 F2400 X26.81 Y22 E544.88452
G0 F18000 X26.81 Y22.5
G1 F2400 X3.281 Y22.5 E545.86274
G0 F18000 X3.281 Y23
G1 F2400 X26.81 Y23 E546.84096
G0 F18000 X26.81 Y23.5
G1 F2400 X3.281 Y23.5 E547.81918
G0 F18000 X3.281 Y24
G1 F2400 X26.81 Y24 E548.7974
G0 F18000 X26.81 Y24.5
G1 F2400 X3.281 Y24.5 E549.77563
G1 F6600 E542.97563
G1 Z1
G0 F18000 X-27.749 Y25.657
G0 X-27.249 Y25.157
; TYPE:WALL-INNER
G1 Z0.7
G1 F6600 E549.87563
G1 F2400 X-27.249 Y25.157 E549.87563
G1 X-27.249 Y-25.156 E551.9674
G1 X-3.043 Y-25.156 E552.97377
G1 X-2.936 Y-25.14 E552.97826
G1 X-2.886 Y-25.101 E552.9809
G1 X-2.855 Y-25.038 E552.98382
G1 X-2.842 Y-24.945 E552.98772
G1 X-2.842 Y24.946 E555.06195
G1 X-2.871 Y25.085 E555.06785
G1 X-2.963 Y25.151 E555.07256
G1 X-27.249 Y25.157 E556.08226
G0 F18000 X-27.749 Y25.657
; TYPE:WALL-OUTER
G1 F2100 X-27.749 Y25.657 E556.08226
G1 X-27.749 Y-25.656 E558.2156
G1 X-3.017 Y-25.656 E559.24384
G1 X-2.828 Y-25.635 E559.25175
G1 X-2.711 Y-25.59 E559.25696
G1 X-2.582 Y-25.511 E559.26325
G1 X-2.467 Y-25.385 E559.27034
G1 X-2.371 Y-25.186 E559.27952
G1 X-2.342 Y-24.978 E559.28826
G1 X-2.342 Y24.979 E561.36523
G1 X-2.371 Y25.189 E561.37404
G1 X-2.447 Y25.361 E561.38186
G1 X-2.582 Y25.51 E561.39022
G1 X-2.79 Y25.627 E561.40014
G1 X-2.917 Y25.651 E561.40551
G1 X-27.749 Y25.657 E562.43791
G0 F18000 X-27.399 Y25.397
G0 X-21.544 Y19.545
G0 X-21.544 Y19.545
; TYPE:WALL-INNER
G1 F2400 X-21.544 Y19.545 E562.43791
G1 X-19.627 Y21.016 E562.53837
G1 X-17.394 Y21.941 E562.63885
G1 X-14.999 Y22.256 E562.73928
G1 X-12.604 Y21.941 E562.83971
G1 X-10.371 Y21.016 E562.9402
G1 X-8.454 Y19.545 E563.04066
G1 X-6.983 Y17.628 E563.14112
G1 X-6.058 Y15.395 E563.24161
G1 X-5.743 Y13 E563.34204
G1 X-6.058 Y10.604 E563.44251
G1 X-6.983 Y8.372 E563.54296
G1 X-8.454 Y6.454 E563.64345
G1 X-10.371 Y4.983 E563.74391
G1 X-12.604 Y4.058 E563.8444
G1 X-14.999 Y3.744 E563.94482
G1 X-17.394 Y4.058 E564.04525
G1 X-19.627 Y4.983 E564.14574
G1 X-21.544 Y6.454 E564.2462
G1 X-23.015 Y8.372 E564.34669
G1 X-23.94 Y10.604 E564.44714
G1 X-24.255 Y13 E564.54761
G1 X-23.94 Y15.395 E564.64804
G1 X-23.015 Y17.628 E564.74853
G1 X-21.544 Y19.545 E564.84899
G0 F18000 X-20.892 Y19.8
G0 X-19.6 Y20.971
G0 X-17.38 Y21.89
G0 X-15.241 Y22.019
G0 X-15.045 Y22.098
G0 X-15.045 Y22.098
G0 X-14.999 Y21.752
; TYPE:WALL-OUTER
G1 F2100 X-14.999 Y21.752 E564.84899
G1 X-12.735 Y21.454 E564.94393
G1 X-10.623 Y20.579 E565.03897
G1 X-8.811 Y19.188 E565.13394
G1 X-7.42 Y17.376 E565.22891
G1 X-6.545 Y15.264 E565.32396
G1 X-6.247 Y13 E565.4189
G1 X-6.545 Y10.735 E565.51388
G1 X-7.42 Y8.624 E565.60888
G1 X-8.811 Y6.811 E565.70389
G1 X-10.623 Y5.42 E565.79886
G1 X-12.735 Y4.545 E565.8939
G1 X-14.999 Y4.248 E565.98884
G1 X-17.263 Y4.545 E566.08377
G1 X-19.375 Y5.42 E566.17881
G1 X-21.187 Y6.811 E566.27378
G1 X-22.578 Y8.624 E566.36879
G1 X-23.453 Y10.735 E566.46379
G1 X-23.751 Y13 E566.55877
G1 X-23.453 Y15.264 E566.65371
G1 X-22.578 Y17.376 E566.74876
G1 X-21.187 Y19.188 E566.84373
G1 X-19.375 Y20.579 E566.9387
G1 X-17.263 Y21.454 E567.03374
G1 X-14.999 Y21.752 E567.12868
G1 F6600 E560.32868
G1 Z1
G0 F18000 X-15.045 Y22.098
G0 X-15.044 Y22.209
G0 X-12.618 Y21.89
G0 X-10.398 Y20.971
G0 X-8.491 Y19.508
G0 X-7.028 Y17.601
G0 X-6.109 Y15.381
G0 X-5.795 Y13
G0 X-6.109 Y10.618
G0 X-7.028 Y8.399
G0 X-8.491 Y6.491
G0 X-10.398 Y5.028
G0 X-12.619 Y4.109
G0 X-15.011 Y3.794
G0 X-14.999 Y-3.743
G0 X-14.999 Y-3.743
; TYPE:WALL-INNER
G1 Z0.7
G1 F6600 E567.22868
G1 F2400 X-14.999 Y-3.743 E567.22868
G1 X-12.604 Y-4.057 E567.32911
G1 X-10.371 Y-4.982 E567.42959
G1 X-8.454 Y-6.453 E567.53005
G1 X-6.983 Y-8.371 E567.63055
G1 X-6.058 Y-10.603 E567.731
G1 X-5.743 Y-12.999 E567.83147
G1 X-6.058 Y-15.394 E567.9319
G1 X-6.983 Y-17.627 E568.03239
G1 X-8.454 Y-19.544 E568.13285
G1 X-10.371 Y-21.015 E568.23331
G1 X-12.604 Y-21.94 E568.33379
G1 X-14.999 Y-22.255 E568.43422
G1 X-17.394 Y-21.94 E568.53465
G1 X-19.627 Y-21.015 E568.63514
G1 X-21.544 Y-19.544 E568.7356
G1 X-23.015 Y-17.627 E568.83606
G1 X-23.94 Y-15.394 E568.93655
G1 X-24.255 Y-12.999 E569.03698
G1 X-23.94 Y-10.603 E569.13745
G1 X-23.015 Y-8.371 E569.2379
G1 X-21.544 Y-6.453 E569.33839
G1 X-19.627 Y-4.982 E569.43885
G1 X-17.394 Y-4.057 E569.53934
G1 X-14.999 Y-3.743 E569.63976
G0 F18000 X-14.999 Y-4.247
; TYPE:WALL-OUTER
G1 F2100 X-14.999 Y-4.247 E569.63976
G1 X-12.735 Y-4.544 E569.7347
G1 X-10.623 Y-5.419 E569.82974
G1 X-8.811 Y-6.81 E569.92471
G1 X-7.42 Y-8.623 E570.01972
G1 X-6.545 Y-10.734 E570.11472
G1 X-6.247 Y-12.999 E570.2097
G1 X-6.545 Y-15.263 E570.30464
G1 X-7.42 Y-17.375 E570.39968
G1 X-8.811 Y-19.187 E570.49466
G1 X-10.623 Y-20.578 E570.58963
G1 X-12.735 Y-21.453 E570.68467
G1 X-14.999 Y-21.751 E570.77961
G1 X-17.263 Y-21.453 E570.87455
G1 X-19.375 Y-20.578 E570.96959
G1 X-21.187 Y-19.187 E571.06456
G1 X-22.578 Y-17.375 E571.15954
G1 X-23.453 Y-15.263 E571.25458
G1 X-23.751 Y-12.999 E571.34952
G1 X-23.453 Y-10.734 E571.4445
G1 X-22.578 Y-8.623 E571.5395
G1 X-21.187 Y-6.81 E571.63451
G1 X-19.375 Y-5.419 E571.72948
G1 X-17.263 Y-4.544 E571.82453
G1 X-14.999 Y-4.247 E571.91946
G0 F18000 X-15.045 Y-3.901
G0 X-16.532 Y-3.499
G0 X-16.532 Y-3.499
; TYPE:FILL
G1 F2400 X-26.809 Y-3.499 E572.34673
G0 F18000 X-26.809 Y-3.999
G1 F2400 X-18.406 Y-3.999 E572.69608
G0 F18000 X-19.613 Y-4.499
G1 F2400 X-26.809 Y-4.499 E572.99526
G0 F18000 X-26.809 Y-4.999
G1 F2400 X-20.372 Y-4.999 E573.26288
G0 F18000 X-21.024 Y-5.499
G1 F2400 X-26.809 Y-5.499 E573.50339
G0 F18000 X-26.809 Y-5.999
G1 F2400 X-21.677 Y-5.999 E573.71675
G0 F18000 X-22.135 Y-6.499
G1 F2400 X-26.809 Y-6.499 E573.91107
G0 F18000 X-26.809 Y-6.999
G1 F2400 X-22.518 Y-6.999 E574.08947
G0 F18000 X-22.901 Y-7.499
G1 F2400 X-26.809 Y-7.499 E574.25195
G0 F18000 X-26.809 Y-7.999
G1 F2400 X-23.284 Y-7.999 E574.3985
G0 F18000 X-23.545 Y-8.499
G1 F2400 X-26.809 Y-8.499 E574.5342
G0 F18000 X-26.809 Y-8.999
G1 F2400 X-23.752 Y-8.999 E574.6613
G0 F18000 X-23.959 Y-9.499
G1 F2400 X-26.809 Y-9.499 E574.77979
G0 F18000 X-26.809 Y-9.999
G1 F2400 X-24.167 Y-9.999 E574.88963
G0 F18000 X-24.371 Y-10.499
G1 F2400 X-26.809 Y-10.499 E574.99099
G0 F18000 X-26.809 Y-10.999
G1 F2400 X-24.436 Y-10.999 E575.08965
G0 F18000 X-24.502 Y-11.499
G1 F2400 X-26.809 Y-11.499 E575.18556
G0 F18000 X-26.809 Y-11.999
G1 F2400 X-24.568 Y-11.999 E575.27873
G0 F18000 X-24.633 Y-12.499
G1 F2400 X-26.809 Y-12.499 E575.3692
G0 F18000 X-26.809 Y-12.999
G1 F2400 X-24.699 Y-12.999 E575.45692
G0 F18000 X-24.633 Y-13.499
G1 F2400 X-26.809 Y-13.499 E575.54739
G0 F18000 X-26.809 Y-13.999
G1 F2400 X-24.567 Y-13.999 E575.6406
G0 F18000 X-24.502 Y-14.499
G1 F2400 X-26.809 Y-14.499 E575.73652
G0 F18000 X-26.809 Y-14.999
G1 F2400 X-24.436 Y-14.999 E575.83517
G0 F18000 X-24.37 Y-15.499
G1 F2400 X-26.809 Y-15.499 E575.93658
G0 F18000 X-26.809 Y-15.999
G1 F2400 X-24.166 Y-15.999 E576.04646
G0 F18000 X-23.958 Y-16.5
G1 F2400 X-26.809 Y-16.5 E576.16499
G0 F18000 X-26.809 Y-17
G1 F2400 X-23.751 Y-17 E576.29213
G0 F18000 X-23.544 Y-17.5
G1 F2400 X-26.809 Y-17.5 E576.42787
G0 F18000 X-26.809 Y-18
G1 F2400 X-23.282 Y-18 E576.5745
G0 F18000 X-22.899 Y-18.5
G1 F2400 X-26.809 Y-18.5 E576.73706
G0 F18000 X-26.809 Y-19
G1 F2400 X-22.516 Y-19 E576.91555
G0 F18000 X-22.132 Y-19.5
G1 F2400 X-26.809 Y-19.5 E577.10999
G0 F18000 X-26.809 Y-20
G1 F2400 X-21.673 Y-20 E577.32352
G0 F18000 X-21.02 Y-20.5
G1 F2400 X-26.809 Y-20.5 E577.5642
G0 F18000 X-26.809 Y-21
G1 F2400 X-20.368 Y-21 E577.83199
G0 F18000 X-19.606 Y-21.5
G1 F2400 X-26.809 Y-21.5 E578.13145
G0 F18000 X-26.809 Y-22
G1 F2400 X-18.399 Y-22 E578.4811
G0 F18000 X-16.512 Y-22.5
G0 X-16.512 Y-22.5
G1 F2400 X-26.809 Y-22.5 E578.9092
G0 F18000 X-26.809 Y-23
G1 F2400 X-3.281 Y-23 E579.88738
G0 F18000 X-3.281 Y-22.5
G1 F2400 X-13.484 Y-22.5 E580.31157
G0 F18000 X-11.598 Y-22
G0 X-11.598 Y-22
G1 F2400 X-3.281 Y-22 E580.65735
G0 F18000 X-3.281 Y-21.5
G1 F2400 X-10.391 Y-21.5 E580.95295
G0 F18000 X-9.629 Y-21
G1 F2400 X-3.281 Y-21 E581.21687
G0 F18000 X-3.281 Y-20.5
G1 F2400 X-8.977 Y-20.5 E581.45368
G0 F18000 X-8.324 Y-20
G1 F2400 X-3.281 Y-20 E581.66335
G0 F18000 X-3.281 Y-19.5
G1 F2400 X-7.865 Y-19.5 E581.85393
G0 F18000 X-7.481 Y-19
G1 F2400 X-3.281 Y-19 E582.02854
G0 F18000 X-3.281 Y-18.5
G1 F2400 X-7.098 Y-18.5 E582.18724
G0 F18000 X-6.715 Y-18
G1 F2400 X-3.281 Y-18 E582.33
G0 F18000 X-3.281 Y-17.5
G1 F2400 X-6.453 Y-17.5 E582.46188
G0 F18000 X-6.246 Y-17
G1 F2400 X-3.281 Y-17 E582.58515
G0 F18000 X-3.281 Y-16.5
G1 F2400 X-6.039 Y-16.5 E582.69982
G0 F18000 X-5.831 Y-16
G1 F2400 X-3.281 Y-16 E582.80583
G0 F18000 X-3.281 Y-15.5
G1 F2400 X-5.627 Y-15.5 E582.90337
G0 F18000 X-5.561 Y-15
G1 F2400 X-3.281 Y-15 E582.99816
G0 F18000 X-3.281 Y-14.5
G1 F2400 X-5.495 Y-14.5 E583.09021
G0 F18000 X-5.43 Y-14
G1 F2400 X-3.281 Y-14 E583.17955
G0 F18000 X-3.281 Y-13.5
G1 F2400 X-5.364 Y-13.5 E583.26615
G0 F18000 X-5.298 Y-13
G1 F2400 X-3.281 Y-13 E583.35001
G0 F18000 X-3.281 Y-12.5
G1 F2400 X-5.364 Y-12.5 E583.43661
G0 F18000 X-5.429 Y-12
G1 F2400 X-3.281 Y-12 E583.52591
G0 F18000 X-3.281 Y-11.5
G1 F2400 X-5.495 Y-11.5 E583.61796
G0 F18000 X-5.561 Y-11
G1 F2400 X-3.281 Y-11 E583.71275
G0 F18000 X-3.281 Y-10.5
G1 F2400 X-5.626 Y-10.5 E583.81025
G0 F18000 X-5.83 Y-10
G1 F2400 X-3.281 Y-10 E583.91622
G0 F18000 X-3.281 Y-9.5
G1 F2400 X-6.038 Y-9.5 E584.03084
G0 F18000 X-6.245 Y-9
G1 F2400 X-3.281 Y-9 E584.15407
G0 F18000 X-3.281 Y-8.5
G1 F2400 X-6.452 Y-8.5 E584.28591
G0 F18000 X-6.713 Y-8
G1 F2400 X-3.281 Y-8 E584.42859
G0 F18000 X-3.281 Y-7.5
G1 F2400 X-7.097 Y-7.5 E584.58725
G0 F18000 X-7.48 Y-6.999
G1 F2400 X-3.281 Y-7 E584.76182
G0 F18000 X-3.281 Y-6.5
G1 F2400 X-7.863 Y-6.499 E584.95232
G0 F18000 X-8.321 Y-5.999
G1 F2400 X-3.281 Y-6 E585.16186
G0 F18000 X-3.281 Y-5.5
G1 F2400 X-8.974 Y-5.499 E585.39854
G0 F18000 X-9.626 Y-4.999
G1 F2400 X-3.281 Y-5 E585.66234
G0 F18000 X-3.281 Y-4.5
G1 F2400 X-10.385 Y-4.499 E585.95769
G0 F18000 X-11.592 Y-3.999
G1 F2400 X-3.281 Y-4 E586.30322
G0 F18000 X-3.281 Y-3.5
G1 F2400 X-13.466 Y-3.499 E586.72666
G0 F18000 X-13.466 Y3.5
G0 X-13.466 Y3.5
G1 F2400 X-3.282 Y3.5 E587.15006
G0 F18000 X-3.282 Y3
G1 F2400 X-26.809 Y3 E588.1282
G0 F18000 X-26.809 Y2.5
G1 F2400 X-3.282 Y2.5 E589.10634
G0 F18000 X-3.282 Y2
G1 F2400 X-26.809 Y2 E590.08448
G0 F18000 X-26.809 Y1.5
G1 F2400 X-3.282 Y1.5 E591.06262
G0 F18000 X-3.282 Y1
G1 F2400 X-26.809 Y1 E592.04076
G0 F18000 X-26.809 Y0.5
G1 F2400 X-3.282 Y0.5 E593.0189
G0 F18000 X-3.282 Y0
G1 F2400 X-26.809 Y0 E593.99704
G0 F18000 X-26.809 Y-0.499
G1 F2400 X-3.281 Y-0.499 E594.97522
G0 F18000 X-3.281 Y-0.999
G1 F2400 X-26.809 Y-0.999 E595.9534
G0 F18000 X-26.809 Y-1.499
G1 F2400 X-3.281 Y-1.499 E596.93158
G0 F18000 X-3.281 Y-1.999
G1 F2400 X-26.809 Y-1.999 E597.90976
G0 F18000 X-26.809 Y-2.499
G1 F2400 X-3.281 Y-2.5 E598.88794
G0 F18000 X-3.281 Y-3
G1 F2400 X-26.809 Y-2.999 E599.86612
G0 F18000 X-26.809 Y3.5
G0 X-26.809 Y3.5
G1 F2400 X-16.532 Y3.5 E600.29339
G0 F18000 X-18.406 Y4
G0 X-18.406 Y4
G1 F2400 X-26.809 Y4 E600.64274
G0 F18000 X-26.809 Y4.5
G1 F2400 X-19.613 Y4.5 E600.94192
G0 F18000 X-20.372 Y5
G1 F2400 X-26.809 Y5 E601.20954
G0 F18000 X-26.809 Y5.5
G1 F2400 X-21.024 Y5.5 E601.45005
G0 F18000 X-21.677 Y6
G1 F2400 X-26.809 Y6 E601.66341
G0 F18000 X-26.809 Y6.5
G1 F2400 X-22.135 Y6.5 E601.85774
G0 F18000 X-22.518 Y7
G1 F2400 X-26.809 Y7 E602.03614
G0 F18000 X-26.809 Y7.5
G1 F2400 X-22.901 Y7.5 E602.19861
G0 F18000 X-23.284 Y8
G1 F2400 X-26.809 Y8 E602.34516
G0 F18000 X-26.809 Y8.5
G1 F2400 X-23.545 Y8.5 E602.48087
G0 F18000 X-23.752 Y9
G1 F2400 X-26.809 Y9 E602.60796
G0 F18000 X-26.809 Y9.5
G1 F2400 X-23.959 Y9.5 E602.72645
G0 F18000 X-24.167 Y10
G1 F2400 X-26.809 Y10 E602.83629
G0 F18000 X-26.809 Y10.5
G1 F2400 X-24.371 Y10.5 E602.93765
G0 F18000 X-24.436 Y11
G1 F2400 X-26.809 Y11 E603.03631
G0 F18000 X-26.809 Y11.5
G1 F2400 X-24.502 Y11.5 E603.13222
G0 F18000 X-24.568 Y12
G1 F2400 X-26.809 Y12 E603.22539
G0 F18000 X-26.809 Y12.5
G1 F2400 X-24.633 Y12.5 E603.31586
G0 F18000 X-24.699 Y13
G1 F2400 X-26.809 Y13 E603.40358
G0 F18000 X-26.809 Y13.5
G1 F2400 X-24.633 Y13.5 E603.49405
G0 F18000 X-24.567 Y14
G1 F2400 X-26.809 Y14 E603.58726
G0 F18000 X-26.809 Y14.5
G1 F2400 X-24.502 Y14.5 E603.68318
G0 F18000 X-24.436 Y15
G1 F2400 X-26.809 Y15 E603.78184
G0 F18000 X-26.809 Y15.5
G1 F2400 X-24.37 Y15.5 E603.88324
G0 F18000 X-24.166 Y16
G1 F2400 X-26.809 Y16 E603.99312
G0 F18000 X-26.809 Y16.5
G1 F2400 X-23.959 Y16.5 E604.11161
G0 F18000 X-23.751 Y17
G1 F2400 X-26.809 Y17 E604.23875
G0 F18000 X-26.809 Y17.5
G1 F2400 X-23.544 Y17.5 E604.37449
G0 F18000 X-23.283 Y18
G1 F2400 X-26.809 Y18 E604.52108
G0 F18000 X-26.809 Y18.5
G1 F2400 X-22.9 Y18.5 E604.6836
G0 F18000 X-22.516 Y19
G1 F2400 X-26.809 Y19 E604.86208
G0 F18000 X-26.809 Y19.5
G1 F2400 X-22.133 Y19.5 E605.05649
G0 F18000 X-21.674 Y20
G1 F2400 X-26.809 Y20 E605.26998
G0 F18000 X-26.809 Y20.5
G1 F2400 X-21.022 Y20.5 E605.51057
G0 F18000 X-20.369 Y21
G1 F2400 X-26.809 Y21 E605.77832
G0 F18000 X-26.809 Y21.5
G1 F2400 X-19.609 Y21.5 E606.07766
G0 F18000 X-18.402 Y22
G1 F2400 X-26.809 Y22 E606.42718
G0 F18000 X-26.809 Y22.5
G1 F2400 X-16.52 Y22.5 E606.85495
G0 F18000 X-13.477 Y22.5
G0 X-13.477 Y22.5
G1 F2400 X-3.281 Y22.5 E607.27885
G0 F18000 X-3.281 Y22
G1 F2400 X-11.595 Y22 E607.6245
G0 F18000 X-10.388 Y21.5
G1 F2400 X-3.281 Y21.5 E607.91998
G0 F18000 X-3.281 Y21
G1 F2400 X-9.628 Y21 E608.18386
G0 F18000 X-8.975 Y20.5
G1 F2400 X-3.281 Y20.5 E608.42059
G0 F18000 X-3.281 Y20
G1 F2400 X-8.323 Y20 E608.63021
G0 F18000 X-7.864 Y19.5
G1 F2400 X-3.281 Y19.5 E608.82075
G0 F18000 X-3.281 Y19
G1 F2400 X-7.481 Y19 E608.99536
G0 F18000 X-7.097 Y18.5
G1 F2400 X-3.281 Y18.5 E609.15401
G0 F18000 X-3.281 Y18
G1 F2400 X-6.714 Y18 E609.29674
G0 F18000 X-6.453 Y17.5
G1 F2400 X-3.281 Y17.5 E609.42862
G0 F18000 X-3.281 Y17
G1 F2400 X-6.245 Y17 E609.55185
G0 F18000 X-6.038 Y16.5
G1 F2400 X-3.281 Y16.5 E609.66647
G0 F18000 X-3.281 Y16
G1 F2400 X-5.831 Y16 E609.77248
G0 F18000 X-5.627 Y15.5
G1 F2400 X-3.281 Y15.5 E609.87002
G0 F18000 X-3.281 Y15
G1 F2400 X-5.561 Y15 E609.96481
G0 F18000 X-5.495 Y14.5
G1 F2400 X-3.281 Y14.5 E610.05686
G0 F18000 X-3.281 Y14
G1 F2400 X-5.429 Y14 E610.14616
G0 F18000 X-5.364 Y13.5
G1 F2400 X-3.281 Y13.5 E610.23276
G0 F18000 X-3.281 Y13
G1 F2400 X-5.298 Y13 E610.31662
G0 F18000 X-5.364 Y12.5
G1 F2400 X-3.281 Y12.5 E610.40322
G0 F18000 X-3.281 Y12
G1 F2400 X-5.429 Y12 E610.49253
G0 F18000 X-5.495 Y11.5
G1 F2400 X-3.281 Y11.5 E610.58457
G0 F18000 X-3.281 Y11
G1 F2400 X-5.561 Y11 E610.67936
G0 F18000 X-5.627 Y10.5
G1 F2400 X-3.281 Y10.5 E610.7769
G0 F18000 X-3.281 Y10
G1 F2400 X-5.831 Y10 E610.88292
G0 F18000 X-6.038 Y9.5
G1 F2400 X-3.281 Y9.5 E610.99754
G0 F18000 X-3.281 Y9
G1 F2400 X-6.245 Y9 E611.12077
G0 F18000 X-6.453 Y8.5
G1 F2400 X-3.281 Y8.5 E611.25264
G0 F18000 X-3.281 Y8
G1 F2400 X-6.714 Y8 E611.39537
G0 F18000 X-7.097 Y7.5
G1 F2400 X-3.281 Y7.5 E611.55402
G0 F18000 X-3.281 Y7
G1 F2400 X-7.481 Y7 E611.72864
G0 F18000 X-7.864 Y6.5
G1 F2400 X-3.281 Y6.5 E611.91918
G0 F18000 X-3.281 Y6
G1 F2400 X-8.321 Y6 E612.12872
G0 F18000 X-8.974 Y5.5
G1 F2400 X-3.281 Y5.5 E612.3654
G0 F18000 X-3.281 Y5
G1 F2400 X-9.626 Y5 E612.6292
G0 F18000 X-10.385 Y4.5
G1 F2400 X-3.281 Y4.5 E612.92455
G0 F18000 X-3.281 Y4
G1 F2400 X-11.592 Y4 E613.27008
G1 F6600 E606.47008
G1 Z1
G0 F18000 X-11.272 Y4.729
G0 X-10.398 Y5.028
G0 X-8.491 Y6.491
G0 X-7.028 Y8.399
G0 X-6.109 Y10.618
G0 X-5.795 Y13
G0 X-6.109 Y15.381
G0 X-6.383 Y15.905
G0 X-3.281 Y23
G0 X-3.281 Y23
G1 Z0.7
G1 F6600 E613.37008
G1 F2400 X-26.809 Y23 E614.34826
G0 F18000 X-26.809 Y23.5
G1 F2400 X-3.281 Y23.5 E615.32644
G0 F18000 X-3.281 Y24
G1 F2400 X-26.809 Y24 E616.30462
G0 F18000 X-26.809 Y24.5
G1 F2400 X-3.281 Y24.5 E617.2828
G0 F18000 X-2.665 Y25.139
G1 F2400 X-2.667 Y25.219 E617.28458
G1 X-2.771 Y25.283 E617.28662
G1 X-2.809 Y25.35 E617.28765
G0 F18000 X-3.281 Y-23.5
G0 X-3.281 Y-23.5
G1 F2400 X-26.809 Y-23.5 E618.26583
G0 F18000 X-26.809 Y-24
G1 F2400 X-3.281 Y-24 E619.24401
G0 F18000 X-3.281 Y-24.5
G1 F2400 X-26.809 Y-24.5 E620.22219
G0 F18000 X-2.879 Y-25.244
G0 X-2.48 Y-25.257
G0 X-2.751 Y-25.249
G0 X-2.751 Y-25.249
G1 F2400 X-2.713 Y-25.258 E620.22448
G1 X-2.687 Y-25.153 E620.22677
G1 X-2.644 Y-25.176 E620.22738
G0 F18000 X-3.551 Y-24.406
; Layer Change GCode
; LAYER:3
G1 F6600 E613.42738
G1 Z1
G0 F18000 X25.25 Y12.75 Z1.2
G0 X24.75 Y13.25
; TYPE:WALL-INNER
G1 Z0.9
G1 F6600 E620.32738
G1 F2400 X24.75 Y13.25 E620.32738
G1 X27.25 Y13.25 E620.43131
G1 X27.25 Y25.223 E620.92909
G1 X2.776 Y25.223 E621.9466
G1 X2.776 Y-25.222 E624.04386
G1 X27.25 Y-25.214 E625.06138
G1 X27.25 Y-13.249 E625.55882
G1 X24.75 Y-13.249 E625.66276
G1 X24.75 Y-3.249 E626.07851
G1 X20.75 Y-3.249 E626.24481
G1 X20.75 Y3.25 E626.51501
G1 X24.75 Y3.25 E626.68131
G1 X24.75 Y13.25 E627.09706
G0 F18000 X25.25 Y12.75
; TYPE:WALL-OUTER
G1 F2100 X25.25 Y12.75 E627.09706
G1 X27.75 Y12.75 E627.201
G1 X27.75 Y25.723 E627.74035
G1 X2.276 Y25.723 E628.79944
G1 X2.276 Y-25.722 E630.93827
G1 X27.75 Y-25.714 E631.99736
G1 X27.75 Y-12.749 E632.53638
G1 X25.25 Y-12.749 E632.64032
G1 X25.25 Y-2.749 E633.05607
G1 X21.25 Y-2.749 E633.22237
G1 X21.25 Y2.75 E633.45099
G1 X25.25 Y2.75 E633.6173
G1 X25.25 Y12.75 E634.03305
G0 F18000 X25 Y13.689
; TYPE:FILL
G1 F2400 X25 Y24.782 E634.49424
G0 F18000 X25.5 Y24.782
G1 F2400 X25.5 Y13.689 E634.95543
G0 F18000 X26 Y13.689
G1 F2400 X26 Y24.782 E635.41663
G0 F18000 X26.5 Y24.782
G1 F2400 X26.5 Y13.689 E635.87782
G0 F18000 X24.5 Y13.689
G1 F2400 X24.5 Y24.782 E636.33901
G0 F18000 X24 Y24.782
G1 F2400 X24 Y3.689 E637.21596
G0 F18000 X23.5 Y3.689
G1 F2400 X23.5 Y24.782 E638.0929
G0 F18000 X23 Y24.782
G1 F2400 X23 Y3.689 E638.96985
G0 F18000 X22.5 Y3.689
G1 F2400 X22.5 Y24.782 E639.84679
G0 F18000 X22 Y24.782
G1 F2400 X22 Y3.689 E640.72374
G0 F18000 X21.5 Y3.689
G1 F2400 X21.5 Y24.782 E641.60068
G0 F18000 X21 Y24.782
G1 F2400 X21 Y3.689 E642.47763
G0 F18000 X20.5 Y3.689
G1 F2400 X20.5 Y24.782 E643.35457
G0 F18000 X20 Y24.782
G1 F2400 X19.999 Y-24.776 E645.41496
G0 F18000 X19.499 Y-24.776
G1 F2400 X19.5 Y24.782 E647.47534
G0 F18000 X19 Y24.782
G1 F2400 X18.999 Y-24.776 E649.53572
G0 F18000 X18.499 Y-24.776
G1 F2400 X18.5 Y24.782 E651.5961
G0 F18000 X18 Y24.782
G1 F2400 X17.999 Y-24.776 E653.65649
G0 F18000 X17.499 Y-24.777
G1 F2400 X17.5 Y24.782 E655.71691
G0 F18000 X17 Y24.782
G1 F2400 X16.999 Y-24.777 E657.77733
G0 F18000 X16.499 Y-24.777
G1 F2400 X16.5 Y24.782 E659.83776
G0 F18000 X16 Y24.782
G1 F2400 X15.999 Y-24.777 E661.89818
G0 F18000 X15.499 Y-24.777
G1 F2400 X15.5 Y24.782 E663.9586
G0 F18000 X15 Y24.782
G1 F2400 X14.999 Y-24.778 E666.01907
G0 F18000 X14.499 Y-24.778
G1 F2400 X14.5 Y24.783 E668.07958
G0 F18000 X14 Y24.783
G1 F2400 X13.999 Y-24.778 E670.14008
G0 F18000 X13.499 Y-24.778
G1 F2400 X13.5 Y24.783 E672.20059
G0 F18000 X13 Y24.783
G1 F2400 X12.999 Y-24.778 E674.2611
G0 F18000 X12.499 Y-24.778
G1 F2400 X12.5 Y24.783 E676.3216
G0 F18000 X12 Y24.783
G1 F2400 X11.999 Y-24.779 E678.38215
G0 F18000 X11.499 Y-24.779
G1 F2400 X11.5 Y24.783 E680.4427
G0 F18000 X11 Y24.783
G1 F2400 X10.999 Y-24.779 E682.50325
G0 F18000 X10.499 Y-24.779
G1 F2400 X10.5 Y24.783 E684.5638
G0 F18000 X10 Y24.783
G1 F2400 X9.999 Y-24.779 E686.62435
G0 F18000 X9.499 Y-24.78
G1 F2400 X9.5 Y24.783 E688.68494
G0 F18000 X9 Y24.783
G1 F2400 X8.999 Y-24.78 E690.74553
G0 F18000 X8.499 Y-24.78
G1 F2400 X8.5 Y24.783 E692.80612
G0 F18000 X8 Y24.783
G1 F2400 X7.999 Y-24.78 E694.86671
G0 F18000 X7.499 Y-24.78
G1 F2400 X7.5 Y24.783 E696.9273
G0 F18000 X7 Y24.783
G1 F2400 X6.999 Y-24.781 E698.98793
G0 F18000 X6.499 Y-24.781
G1 F2400 X6.5 Y24.783 E701.04856
G0 F18000 X6 Y24.783
G1 F2400 X5.999 Y-24.781 E703.10919
G0 F18000 X5.499 Y-24.781
G1 F2400 X5.5 Y24.783 E705.16982
G0 F18000 X5 Y24.783
G1 F2400 X4.999 Y-24.781 E707.23046
G0 F18000 X4.499 Y-24.782
G1 F2400 X4.5 Y24.783 E709.29113
G0 F18000 X4 Y24.783
G1 F2400 X3.999 Y-24.782 E711.3518
G0 F18000 X3.499 Y-24.782
G1 F2400 X3.5 Y24.783 E713.41248
G0 F18000 X20.5 Y-3.688
G0 X20.5 Y-3.688
G1 F2400 X20.499 Y-24.775 E714.28917
G0 F18000 X20.999 Y-24.775
G1 F2400 X21 Y-3.688 E715.16587
G0 F18000 X21.5 Y-3.688
G1 F2400 X21.499 Y-24.775 E716.04256
G0 F18000 X21.999 Y-24.775
G1 F2400 X22 Y-3.688 E716.91926
G0 F18000 X22.5 Y-3.688
G1 F2400 X22.499 Y-24.775 E717.79595
G0 F18000 X22.999 Y-24.774
G1 F2400 X23 Y-3.688 E718.67261
G0 F18000 X23.5 Y-3.688
G1 F2400 X23.499 Y-24.774 E719.54926
G0 F18000 X23.999 Y-24.774
G1 F2400 X24 Y-3.688 E720.42592
G0 F18000 X24.5 Y-13.688
G0 X24.5 Y-13.688
G1 F2400 X24.499 Y-24.774 E720.88682
G0 F18000 X24.999 Y-24.774
G1 F2400 X25 Y-13.688 E721.34772
G0 F18000 X25.5 Y-13.688
G1 F2400 X25.499 Y-24.773 E721.80858
G0 F18000 X25.999 Y-24.773
G1 F2400 X26 Y-13.688 E722.26944
G0 F18000 X26.5 Y-13.688
G1 F2400 X26.499 Y-24.773 E722.7303
G1 F6600 E715.9303
G1 Z1.2
G0 F18000 X-27.749 Y25.716
G0 X-27.249 Y25.216
; TYPE:WALL-INNER
G1 Z0.9
G1 F6600 E722.8303
G1 F2400 X-27.249 Y25.216 E722.8303
G1 X-27.249 Y-25.222 E724.92727
G1 X-2.962 Y-25.214 E725.93701
G1 X-2.845 Y-25.157 E725.94242
G1 X-2.79 Y-25.054 E725.94727
G1 X-2.776 Y24.948 E728.02611
G1 X-2.806 Y25.099 E728.03251
G1 X-2.892 Y25.191 E728.03775
G1 X-2.961 Y25.215 E728.04079
G1 X-27.249 Y25.216 E729.05057
G0 F18000 X-27.749 Y25.716
; TYPE:WALL-OUTER
G1 F2100 X-27.749 Y25.716 E729.05057
G1 X-27.749 Y-25.722 E731.18911
G1 X-2.88 Y-25.714 E732.22304
G1 X-2.661 Y-25.64 E732.23265
G1 X-2.496 Y-25.522 E732.24109
G1 X-2.394 Y-25.393 E732.24792
G1 X-2.303 Y-25.188 E732.25725
G1 X-2.284 Y-25.041 E732.26341
G1 X-2.276 Y24.982 E734.34313
G1 X-2.304 Y25.193 E734.35197
G1 X-2.368 Y25.348 E734.35895
G1 X-2.5 Y25.526 E734.36816
G1 X-2.661 Y25.641 E734.37639
G1 X-2.88 Y25.715 E734.386
G1 X-27.749 Y25.716 E735.41993
G0 F18000 X-27.399 Y25.456
G0 X-21.544 Y19.545
G0 X-21.544 Y19.545
; TYPE:WALL-INNER
G1 F2400 X-21.544 Y19.545 E735.41993
G1 X-19.627 Y21.016 E735.52039
G1 X-17.394 Y21.941 E735.62088
G1 X-14.999 Y22.256 E735.72131
G1 X-12.604 Y21.941 E735.82174
G1 X-10.371 Y21.016 E735.92222
G1 X-8.454 Y19.545 E736.02268
G1 X-6.983 Y17.628 E736.12314
G1 X-6.058 Y15.395 E736.22363
G1 X-5.743 Y13 E736.32406
G1 X-6.058 Y10.604 E736.42453
G1 X-6.983 Y8.372 E736.52498
G1 X-8.454 Y6.454 E736.62547
G1 X-10.371 Y4.983 E736.72593
G1 X-12.604 Y4.058 E736.82642
G1 X-14.999 Y3.744 E736.92685
G1 X-17.394 Y4.058 E737.02727
G1 X-19.627 Y4.983 E737.12776
G1 X-21.544 Y6.454 E737.22822
G1 X-23.015 Y8.372 E737.32871
G1 X-23.94 Y10.604 E737.42916
G1 X-24.255 Y13 E737.52963
G1 X-23.94 Y15.395 E737.63006
G1 X-23.015 Y17.628 E737.73055
G1 X-21.544 Y19.545 E737.83101
G0 F18000 X-20.892 Y19.8
G0 X-19.6 Y20.971
G0 X-17.38 Y21.89
G0 X-15.241 Y22.019
G0 X-15.045 Y22.098
G0 X-15.045 Y22.098
G0 X-14.999 Y21.752
; TYPE:WALL-OUTER
G1 F2100 X-14.999 Y21.752 E737.83101
G1 X-12.735 Y21.454 E737.92595
G1 X-10.623 Y20.579 E738.02099
G1 X-8.811 Y19.188 E738.11596
G1 X-7.42 Y17.376 E738.21094
G1 X-6.545 Y15.264 E738.30598
G1 X-6.247 Y13 E738.40092
G1 X-6.545 Y10.735 E738.4959
G1 X-7.42 Y8.624 E738.5909
G1 X-8.811 Y6.811 E738.68591
G1 X-10.623 Y5.42 E738.78088
G1 X-12.735 Y4.545 E738.87592
G1 X-14.999 Y4.248 E738.97086
G1 X-17.263 Y4.545 E739.06579
G1 X-19.375 Y5.42 E739.16083
G1 X-21.187 Y6.811 E739.25581
G1 X-22.578 Y8.624 E739.35081
G1 X-23.453 Y10.735 E739.44582
G1 X-23.751 Y13 E739.5408
G1 X-23.453 Y15.264 E739.63573
G1 X-22.578 Y17.376 E739.73078
G1 X-21.187 Y19.188 E739.82575
G1 X-19.375 Y20.579 E739.92072
G1 X-17.263 Y21.454 E740.01577
G1 X-14.999 Y21.752 E740.1107
G1 F6600 E733.3107
G1 Z1.2
G0 F18000 X-15.045 Y22.098
G0 X-15.044 Y22.209
G0 X-12.618 Y21.89
G0 X-10.398 Y20.971
G0 X-8.491 Y19.508
G0 X-7.028 Y17.601
G0 X-6.109 Y15.381
G0 X-5.795 Y13
G0 X-6.109 Y10.618
G0 X-7.028 Y8.399
G0 X-8.491 Y6.491
G0 X-10.398 Y5.028
G0 X-12.619 Y4.109
G0 X-15.011 Y3.794
G0 X-14.999 Y-3.743
G0 X-14.999 Y-3.743
; TYPE:WALL-INNER
G1 Z0.9
G1 F6600 E740.2107
G1 F2400 X-14.999 Y-3.743 E740.2107
G1 X-12.604 Y-4.057 E740.31113
G1 X-10.371 Y-4.982 E740.41162
G1 X-8.454 Y-6.453 E740.51208
G1 X-6.983 Y-8.371 E740.61257
G1 X-6.058 Y-10.603 E740.71302
G1 X-5.743 Y-12.999 E740.81349
G1 X-6.058 Y-15.394 E740.91392
G1 X-6.983 Y-17.627 E741.01441
G1 X-8.454 Y-19.544 E741.11487
G1 X-10.371 Y-21.015 E741.21533
G1 X-12.604 Y-21.94 E741.31581
G1 X-14.999 Y-22.255 E741.41624
G1 X-17.394 Y-21.94 E741.51667
G1 X-19.627 Y-21.015 E741.61716
G1 X-21.544 Y-19.544 E741.71762
G1 X-23.015 Y-17.627 E741.81808
G1 X-23.94 Y-15.394 E741.91857
G1 X-24.255 Y-12.999 E742.019
G1 X-23.94 Y-10.603 E742.11947
G1 X-23.015 Y-8.371 E742.21992
G1 X-21.544 Y-6.453 E742.32041
G1 X-19.627 Y-4.982 E742.42087
G1 X-17.394 Y-4.057 E742.52136
G1 X-14.999 Y-3.743 E742.62178
G0 F18000 X-14.999 Y-4.247
; TYPE:WALL-OUTER
G1 F2100 X-14.999 Y-4.247 E742.62178
G1 X-12.735 Y-4.544 E742.71672
G1 X-10.623 Y-5.419 E742.81176
G1 X-8.811 Y-6.81 E742.90673
G1 X-7.42 Y-8.623 E743.00174
G1 X-6.545 Y-10.734 E743.09674
G1 X-6.247 Y-12.999 E743.19172
G1 X-6.545 Y-15.263 E743.28666
G1 X-7.42 Y-17.375 E743.38171
G1 X-8.811 Y-19.187 E743.47668
G1 X-10.623 Y-20.578 E743.57165
G1 X-12.735 Y-21.453 E743.66669
G1 X-14.999 Y-21.751 E743.76163
G1 X-17.263 Y-21.453 E743.85657
G1 X-19.375 Y-20.578 E743.95161
G1 X-21.187 Y-19.187 E744.04659
G1 X-22.578 Y-17.375 E744.14156
G1 X-23.453 Y-15.263 E744.2366
G1 X-23.751 Y-12.999 E744.33154
G1 X-23.453 Y-10.734 E744.42652
G1 X-22.578 Y-8.623 E744.52153
G1 X-21.187 Y-6.81 E744.61653
G1 X-19.375 Y-5.419 E744.7115
G1 X-17.263 Y-4.544 E744.80655
G1 X-14.999 Y-4.247 E744.90148
G0 F18000 X-15 Y-3.298
; TYPE:FILL
G1 F2400 X-15 Y3.299 E745.17575
G0 F18000 X-14.5 Y3.364
G1 F2400 X-14.5 Y-3.363 E745.45543
G0 F18000 X-14 Y-3.429
G1 F2400 X-14 Y3.43 E745.74059
G0 F18000 X-13.5 Y3.496
G1 F2400 X-13.5 Y-3.495 E746.03124
G0 F18000 X-13 Y-3.56
G1 F2400 X-13 Y3.561 E746.3273
G0 F18000 X-12.5 Y3.627
G1 F2400 X-12.5 Y-3.626 E746.62884
G0 F18000 X-12 Y-3.83
G1 F2400 X-12 Y3.831 E746.94735
G0 F18000 X-11.5 Y4.038
G1 F2400 X-11.5 Y-4.037 E747.28307
G0 F18000 X-11 Y-4.244
G1 F2400 X-11 Y4.245 E747.636
G0 F18000 X-10.5 Y4.452
G1 F2400 X-10.5 Y-4.451 E748.00615
G0 F18000 X-10 Y-4.712
G1 F2400 X-10 Y4.713 E748.39799
G0 F18000 X-9.5 Y5.097
G1 F2400 X-9.5 Y-5.095 E748.82173
G0 F18000 X-9 Y-5.478
G1 F2400 X-9 Y5.48 E749.27731
G0 F18000 X-8.5 Y5.863
G1 F2400 X-8.5 Y-5.861 E749.76473
G0 F18000 X-8 Y-6.319
G1 F2400 X-7.999 Y6.322 E750.29029
G0 F18000 X-7.499 Y6.974
G1 F2400 X-7.5 Y-6.972 E750.87009
G0 F18000 X-7 Y-7.625
G1 F2400 X-6.999 Y7.627 E751.5042
G0 F18000 X-6.499 Y8.387
G1 F2400 X-6.5 Y-8.385 E752.2015
G0 F18000 X-6 Y-9.591
G1 F2400 X-5.999 Y9.594 E752.99912
G0 F18000 X-5.499 Y11.471
G0 X-5.499 Y11.471
G1 F2400 X-5.5 Y-11.462 E753.95256
G0 F18000 X-5.5 Y-14.535
G0 X-5.5 Y-14.535
G1 F2400 X-5.5 Y-24.775 E754.37829
G0 F18000 X-6 Y-24.775
G1 F2400 X-6 Y-16.407 E754.72619
G0 F18000 X-6.5 Y-17.613
G1 F2400 X-6.5 Y-24.775 E755.02395
G0 F18000 X-7 Y-24.775
G1 F2400 X-7 Y-18.372 E755.29016
G0 F18000 X-7.5 Y-19.024
G1 F2400 X-7.5 Y-24.775 E755.52926
G0 F18000 X-8 Y-24.776
G1 F2400 X-8 Y-19.677 E755.74125
G0 F18000 X-8.5 Y-20.135
G1 F2400 X-8.5 Y-24.776 E755.9342
G0 F18000 X-9 Y-24.776
G1 F2400 X-9 Y-20.518 E756.11123
G0 F18000 X-9.5 Y-20.901
G1 F2400 X-9.5 Y-24.776 E756.27233
G0 F18000 X-10 Y-24.776
G1 F2400 X-10 Y-21.284 E756.41751
G0 F18000 X-10.5 Y-21.545
G1 F2400 X-10.5 Y-24.776 E756.55184
G0 F18000 X-11 Y-24.777
G1 F2400 X-11 Y-21.752 E756.6776
G0 F18000 X-11.5 Y-21.96
G1 F2400 X-11.5 Y-24.777 E756.79472
G0 F18000 X-12 Y-24.777
G1 F2400 X-12 Y-22.167 E756.90323
G0 F18000 X-12.5 Y-22.371
G1 F2400 X-12.5 Y-24.777 E757.00326
G0 F18000 X-13 Y-24.777
G1 F2400 X-13 Y-22.436 E757.10059
G0 F18000 X-13.5 Y-22.502
G1 F2400 X-13.5 Y-24.777 E757.19517
G0 F18000 X-14 Y-24.778
G1 F2400 X-14 Y-22.568 E757.28705
G0 F18000 X-14.5 Y-22.634
G1 F2400 X-14.5 Y-24.778 E757.37619
G0 F18000 X-15 Y-24.777
G1 F2400 X-15 Y-22.698 E757.46263
G0 F18000 X-15.5 Y-22.632
G1 F2400 X-15.5 Y-24.777 E757.55181
G0 F18000 X-16 Y-24.777
G1 F2400 X-16 Y-22.566 E757.64373
G0 F18000 X-16.5 Y-22.501
G1 F2400 X-16.5 Y-24.778 E757.73839
G0 F18000 X-17 Y-24.778
G1 F2400 X-17 Y-22.435 E757.83581
G0 F18000 X-17.5 Y-22.369
G1 F2400 X-17.5 Y-24.778 E757.93596
G0 F18000 X-18 Y-24.778
G1 F2400 X-18 Y-22.164 E758.04464
G0 F18000 X-18.5 Y-21.957
G1 F2400 X-18.5 Y-24.778 E758.16192
G0 F18000 X-19 Y-24.778
G1 F2400 X-19 Y-21.75 E758.28781
G0 F18000 X-19.5 Y-21.543
G1 F2400 X-19.5 Y-24.779 E758.42235
G0 F18000 X-20 Y-24.779
G1 F2400 X-20 Y-21.28 E758.56782
G0 F18000 X-20.5 Y-20.897
G1 F2400 X-20.5 Y-24.779 E758.72921
G0 F18000 X-21 Y-24.779
G1 F2400 X-21 Y-20.514 E758.90653
G0 F18000 X-21.5 Y-20.131
G1 F2400 X-21.5 Y-24.779 E759.09977
G0 F18000 X-22 Y-24.779
G1 F2400 X-22 Y-19.67 E759.31218
G0 F18000 X-22.5 Y-19.018
G1 F2400 X-22.5 Y-24.78 E759.55174
G0 F18000 X-23 Y-24.78
G1 F2400 X-23 Y-18.366 E759.8184
G0 F18000 X-23.5 Y-17.603
G1 F2400 X-23.5 Y-24.78 E760.11679
G0 F18000 X-24 Y-24.78
G1 F2400 X-24 Y-16.396 E760.46535
G0 F18000 X-24.5 Y-14.507
G0 X-24.5 Y-14.507
G1 F2400 X-24.5 Y-24.78 E760.89245
G0 F18000 X-25 Y-24.78
G1 F2400 X-24.999 Y24.775 E762.95271
G0 F18000 X-24.499 Y24.775
G1 F2400 X-24.5 Y14.513 E763.37936
G0 F18000 X-23.999 Y16.399
G0 X-23.999 Y16.399
G1 F2400 X-23.999 Y24.775 E763.72759
G0 F18000 X-23.499 Y24.775
G1 F2400 X-23.499 Y17.606 E764.02564
G0 F18000 X-22.999 Y18.368
G1 F2400 X-22.999 Y24.775 E764.29201
G0 F18000 X-22.499 Y24.775
G1 F2400 X-22.499 Y19.02 E764.53128
G0 F18000 X-21.999 Y19.673
G1 F2400 X-21.999 Y24.775 E764.7434
G0 F18000 X-21.499 Y24.775
G1 F2400 X-21.499 Y20.132 E764.93643
G0 F18000 X-20.999 Y20.516
G1 F2400 X-20.999 Y24.775 E765.1135
G0 F18000 X-20.499 Y24.775
G1 F2400 X-20.499 Y20.899 E765.27464
G0 F18000 X-19.999 Y21.282
G1 F2400 X-19.999 Y24.775 E765.41986
G0 F18000 X-19.499 Y24.775
G1 F2400 X-19.499 Y21.544 E765.55419
G0 F18000 X-18.999 Y21.751
G1 F2400 X-18.999 Y24.775 E765.67992
G0 F18000 X-18.499 Y24.775
G1 F2400 X-18.499 Y21.958 E765.79703
G0 F18000 X-17.999 Y22.166
G1 F2400 X-17.999 Y24.775 E765.9055
G0 F18000 X-17.499 Y24.775
G1 F2400 X-17.499 Y22.37 E766.00549
G0 F18000 X-16.999 Y22.436
G1 F2400 X-16.999 Y24.775 E766.10274
G0 F18000 X-16.499 Y24.775
G1 F2400 X-16.499 Y22.502 E766.19724
G0 F18000 X-15.999 Y22.567
G1 F2400 X-15.999 Y24.775 E766.28904
G0 F18000 X-15.499 Y24.775
G1 F2400 X-15.499 Y22.633 E766.37809
G0 F18000 X-14.999 Y22.699
G1 F2400 X-14.999 Y24.775 E766.4644
G0 F18000 X-14.499 Y24.775
G1 F2400 X-14.499 Y22.634 E766.55341
G0 F18000 X-13.999 Y22.568
G1 F2400 X-13.999 Y24.775 E766.64517
G0 F18000 X-13.499 Y24.775
G1 F2400 X-13.499 Y22.503 E766.73963
G0 F18000 X-12.999 Y22.437
G1 F2400 X-12.999 Y24.775 E766.83683
G0 F18000 X-12.499 Y24.775
G1 F2400 X-12.499 Y22.371 E766.93678
G0 F18000 X-11.999 Y22.167
G1 F2400 X-11.999 Y24.775 E767.0452
G0 F18000 X-11.499 Y24.775
G1 F2400 X-11.499 Y21.96 E767.16224
G0 F18000 X-10.999 Y21.753
G1 F2400 X-10.999 Y24.775 E767.28788
G0 F18000 X-10.499 Y24.775
G1 F2400 X-10.499 Y21.546 E767.42212
G0 F18000 X-9.999 Y21.285
G1 F2400 X-9.999 Y24.775 E767.56722
G0 F18000 X-9.499 Y24.775
G1 F2400 X-9.499 Y20.901 E767.72828
G0 F18000 X-8.999 Y20.518
G1 F2400 X-8.999 Y24.775 E767.90527
G0 F18000 X-8.499 Y24.775
G1 F2400 X-8.499 Y20.135 E768.09818
G0 F18000 X-7.999 Y19.676
G1 F2400 X-7.999 Y24.775 E768.31017
G0 F18000 X-7.499 Y24.775
G1 F2400 X-7.499 Y19.024 E768.54927
G0 F18000 X-6.999 Y18.372
G1 F2400 X-6.999 Y24.775 E768.81548
G0 F18000 X-6.499 Y24.775
G1 F2400 X-6.499 Y17.612 E769.11328
G0 F18000 X-5.999 Y16.405
G1 F2400 X-5.999 Y24.775 E769.46126
G0 F18000 X-5.499 Y24.775
G1 F2400 X-5.499 Y14.529 E769.88724
G0 F18000 X-4.999 Y24.775
G0 X-4.999 Y24.775
G1 F2400 X-5 Y-24.775 E771.94729
G0 F18000 X-4.5 Y-24.774
G1 F2400 X-4.499 Y24.775 E774.0073
G0 F18000 X-3.999 Y24.775
G1 F2400 X-4 Y-24.774 E776.06731
G0 F18000 X-3.5 Y-24.774
G1 F2400 X-3.499 Y24.775 E778.12732
G0 F18000 X-2.753 Y25.345
G1 F2400 X-2.694 Y25.327 E778.12916
G1 X-2.6 Y25.231 E778.13049
G1 X-2.601 Y25.155 E778.13115
G0 F18000 X-25.499 Y24.775
G0 X-25.499 Y24.775
G1 F2400 X-25.5 Y-24.781 E780.19145
G0 F18000 X-26 Y-24.781
G1 F2400 X-25.999 Y24.775 E782.25175
G0 F18000 X-26.499 Y24.775
G1 F2400 X-26.5 Y-24.781 E784.31205
G0 F18000 X-24.5 Y-11.484
G0 X-24.5 Y-11.484
G1 F2400 X-24.5 Y11.485 E785.26699
G0 F18000 X-24 Y9.598
G0 X-24 Y9.598
G1 F2400 X-24 Y-9.597 E786.06502
G0 F18000 X-23.5 Y-8.391
G1 F2400 X-23.5 Y8.392 E786.76278
G0 F18000 X-23 Y7.63
G1 F2400 X-23 Y-7.629 E787.39717
G0 F18000 X-22.5 Y-6.976
G1 F2400 X-22.5 Y6.977 E787.97727
G0 F18000 X-22 Y6.324
G1 F2400 X-22 Y-6.323 E788.50307
G0 F18000 X-21.5 Y-5.864
G1 F2400 X-21.5 Y5.865 E788.99071
G0 F18000 X-21 Y5.481
G1 F2400 X-21 Y-5.48 E789.44641
G0 F18000 X-20.5 Y-5.097
G1 F2400 X-20.5 Y5.098 E789.87027
G0 F18000 X-20 Y4.715
G1 F2400 X-20 Y-4.714 E790.26228
G0 F18000 X-19.5 Y-4.452
G1 F2400 X-19.5 Y4.453 E790.63251
G0 F18000 X-19 Y4.246
G1 F2400 X-19 Y-4.245 E790.98553
G0 F18000 X-18.5 Y-4.038
G1 F2400 X-18.5 Y4.039 E791.32133
G0 F18000 X-18 Y3.832
G1 F2400 X-18 Y-3.831 E791.63992
G0 F18000 X-17.5 Y-3.626
G1 F2400 X-17.5 Y3.627 E791.94146
G0 F18000 X-17 Y3.561
G1 F2400 X-17 Y-3.56 E792.23752
G0 F18000 X-16.5 Y-3.495
G1 F2400 X-16.5 Y3.496 E792.52817
G0 F18000 X-16 Y3.43
G1 F2400 X-16 Y-3.429 E792.81334
G0 F18000 X-15.5 Y-3.364
G1 F2400 X-15.5 Y3.365 E793.0931
G1 F6600 E786.2931
G1 Z1.2
G0 F18000 X-11.972 Y-4.441
G0 X-10.398 Y-5.027
G0 X-8.491 Y-6.49
G0 X-7.028 Y-8.398
G0 X-6.109 Y-10.617
G0 X-5.795 Y-12.999
G0 X-6.109 Y-15.38
G0 X-6.579 Y-16.378
G0 X-2.647 Y-25.082
G0 X-2.482 Y-25.446
G0 X-2.603 Y-25.182
G0 X-2.603 Y-25.182
G1 Z0.9
G1 F6600 E793.1931
G1 F2400 X-2.619 Y-25.23 E793.19423
G1 X-2.681 Y-25.339 E793.19582
G1 X-2.763 Y-25.361 E793.19673
; Layer Change GCode
; LAYER:4
G0 F18000 X25.25 Y12.75 Z1.1
G0 X24.75 Y13.25
; TYPE:WALL-INNER
G1 F2400 X24.75 Y13.25 E793.19673
G1 X27.25 Y13.25 E793.30066
G1 X27.25 Y25.25 E793.79957
G1 X2.75 Y25.25 E794.81816
G1 X2.75 Y-25.249 E796.91766
G1 X27.25 Y-25.249 E797.93625
G1 X27.25 Y-13.249 E798.43516
G1 X24.75 Y-13.249 E798.53909
G1 X24.75 Y-3.249 E798.95485
G1 X20.75 Y-3.249 E799.12115
G1 X20.75 Y3.25 E799.39134
G1 X24.75 Y3.25 E799.55764
G1 X24.75 Y13.25 E799.9734
G0 F18000 X25.25 Y12.75
; TYPE:WALL-OUTER
G1 F2100 X25.25 Y12.75 E799.9734
G1 X27.75 Y12.75 E800.07733
G1 X27.75 Y25.75 E800.61781
G1 X2.25 Y25.75 E801.67798
G1 X2.25 Y-25.749 E803.81906
G1 X27.75 Y-25.749 E804.87922
G1 X27.75 Y-12.749 E805.4197
G1 X25.25 Y-12.749 E805.52364
G1 X25.25 Y-2.749 E805.93939
G1 X21.25 Y-2.749 E806.10569
G1 X21.25 Y2.75 E806.33431
G1 X25.25 Y2.75 E806.50061
G1 X25.25 Y12.75 E806.91637
G0 F18000 X24.31 Y12.999
; TYPE:FILL
G1 F2400 X3.189 Y13 E807.79448
G0 F18000 X3.189 Y13.5
G1 F2400 X24.31 Y13.499 E808.67258
G0 F18000 X24.31 Y12.499
G1 F2400 X3.189 Y12.5 E809.55069
G0 F18000 X3.189 Y12
G1 F2400 X24.31 Y11.999 E810.4288
G0 F18000 X24.31 Y11.499
G1 F2400 X3.189 Y11.5 E811.30691
G0 F18000 X3.189 Y11
G1 F2400 X24.31 Y10.999 E812.18502
G0 F18000 X24.31 Y10.499
G1 F2400 X3.189 Y10.5 E813.06313
G0 F18000 X3.189 Y10
G1 F2400 X24.31 Y9.999 E813.94124
G0 F18000 X24.31 Y9.499
G1 F2400 X3.189 Y9.5 E814.81935
G0 F18000 X3.189 Y9
G1 F2400 X24.31 Y8.999 E815.69746
G0 F18000 X24.31 Y8.499
G1 F2400 X3.189 Y8.5 E816.57557
G0 F18000 X3.189 Y8
G1 F2400 X24.31 Y7.999 E817.45368
G0 F18000 X24.31 Y7.499
G1 F2400 X3.189 Y7.5 E818.33179
G0 F18000 X3.189 Y7
G1 F2400 X24.31 Y6.999 E819.20989
G0 F18000 X24.31 Y6.499
G1 F2400 X3.189 Y6.5 E820.088
G0 F18000 X3.189 Y6
G1 F2400 X24.31 Y5.999 E820.96611
G0 F18000 X24.31 Y5.499
G1 F2400 X3.189 Y5.5 E821.84422
G0 F18000 X3.189 Y5
G1 F2400 X24.31 Y4.999 E822.72233
G0 F18000 X24.31 Y4.499
G1 F2400 X3.189 Y4.5 E823.60044
G0 F18000 X3.189 Y4
G1 F2400 X24.31 Y3.999 E824.47855
G0 F18000 X20.31 Y3.499
G1 F2400 X3.189 Y3.5 E825.19036
G0 F18000 X3.189 Y3
G1 F2400 X20.31 Y2.999 E825.90217
G0 F18000 X20.31 Y2.499
G1 F2400 X3.189 Y2.5 E826.61397
G0 F18000 X3.189 Y1.999
G1 F2400 X20.31 Y1.999 E827.32578
G0 F18000 X20.31 Y1.499
G1 F2400 X3.189 Y1.499 E828.03759
G0 F18000 X3.189 Y0.999
G1 F2400 X20.31 Y0.999 E828.7494
G0 F18000 X20.31 Y0.499
G1 F2400 X3.189 Y0.499 E829.46121
G0 F18000 X3.19 Y0
G1 F2400 X20.31 Y0 E830.17298
G0 F18000 X20.31 Y-0.5
G1 F2400 X3.19 Y-0.5 E830.88474
G0 F18000 X3.19 Y-1
G1 F2400 X20.31 Y-1 E831.59651
G0 F18000 X20.31 Y-1.5
G1 F2400 X3.19 Y-1.5 E832.30828
G0 F18000 X3.19 Y-2
G1 F2400 X20.31 Y-2 E833.02004
G0 F18000 X20.31 Y-2.5
G1 F2400 X3.19 Y-2.5 E833.73181
G0 F18000 X3.19 Y-3
G1 F2400 X20.31 Y-3 E834.44358
G0 F18000 X20.31 Y-3.5
G1 F2400 X3.19 Y-3.5 E835.15534
G0 F18000 X3.189 Y-4
G1 F2400 X24.31 Y-4 E836.03345
G0 F18000 X24.31 Y-4.5
G1 F2400 X3.189 Y-4.5 E836.91156
G0 F18000 X3.189 Y-5
G1 F2400 X24.31 Y-5 E837.78967
G0 F18000 X24.31 Y-5.5
G1 F2400 X3.189 Y-5.5 E838.66778
G0 F18000 X3.189 Y-6
G1 F2400 X24.31 Y-6 E839.54589
G0 F18000 X24.31 Y-6.5
G1 F2400 X3.189 Y-6.5 E840.424
G0 F18000 X3.189 Y-7
G1 F2400 X24.31 Y-7 E841.30211
G0 F18000 X24.31 Y-7.5
G1 F2400 X3.189 Y-7.5 E842.18022
G0 F18000 X3.189 Y-8
G1 F2400 X24.31 Y-8 E843.05833
G0 F18000 X24.31 Y-8.5
G1 F2400 X3.189 Y-8.5 E843.93643
G0 F18000 X3.189 Y-9
G1 F2400 X24.31 Y-9 E844.81454
G0 F18000 X24.31 Y-9.5
G1 F2400 X3.189 Y-9.5 E845.69265
G0 F18000 X3.189 Y-10
G1 F2400 X24.31 Y-10 E846.57076
G0 F18000 X24.31 Y-10.5
G1 F2400 X3.189 Y-10.5 E847.44887
G0 F18000 X3.189 Y-11
G1 F2400 X24.31 Y-11 E848.32698
G0 F18000 X24.31 Y-11.5
G1 F2400 X3.189 Y-11.5 E849.20509
G0 F18000 X3.189 Y-12
G1 F2400 X24.31 Y-12 E850.0832
G0 F18000 X24.31 Y-12.5
G1 F2400 X3.189 Y-12.5 E850.96131
G0 F18000 X3.189 Y-13
G1 F2400 X24.31 Y-13 E851.83942
G0 F18000 X24.31 Y-13.5
G1 F2400 X3.189 Y-13.5 E852.71753
G0 F18000 X3.189 Y-14
G1 F2400 X26.81 Y-14 E853.69957
G0 F18000 X26.81 Y-14.5
G1 F2400 X3.189 Y-14.5 E854.68162
G0 F18000 X3.189 Y-15
G1 F2400 X26.81 Y-15 E855.66367
G0 F18000 X26.81 Y-15.5
G1 F2400 X3.189 Y-15.5 E856.64571
G0 F18000 X3.189 Y-16
G1 F2400 X26.81 Y-16 E857.62776
G0 F18000 X26.81 Y-16.5
G1 F2400 X3.189 Y-16.5 E858.60981
G0 F18000 X3.189 Y-17
G1 F2400 X26.81 Y-17 E859.59186
G0 F18000 X26.81 Y-17.5
G1 F2400 X3.189 Y-17.5 E860.5739
G0 F18000 X3.189 Y-18
G1 F2400 X26.81 Y-18 E861.55595
G0 F18000 X26.81 Y-18.5
G1 F2400 X3.189 Y-18.5 E862.538
G0 F18000 X3.189 Y-19
G1 F2400 X26.81 Y-19 E863.52004
G0 F18000 X26.81 Y-19.5
G1 F2400 X3.189 Y-19.5 E864.50209
G0 F18000 X3.189 Y-20
G1 F2400 X26.81 Y-20 E865.48414
G0 F18000 X26.81 Y-20.5
G1 F2400 X3.189 Y-20.5 E866.46619
G0 F18000 X3.189 Y-21
G1 F2400 X26.81 Y-21 E867.44823
G0 F18000 X26.81 Y-21.5
G1 F2400 X3.189 Y-21.5 E868.43028
G0 F18000 X3.189 Y-22
G1 F2400 X26.81 Y-22 E869.41233
G0 F18000 X26.81 Y-22.5
G1 F2400 X3.189 Y-22.5 E870.39437
G0 F18000 X3.189 Y-23
G1 F2400 X26.81 Y-23 E871.37642
G0 F18000 X26.81 Y-23.5
G1 F2400 X3.189 Y-23.5 E872.35847
G0 F18000 X3.189 Y-24
G1 F2400 X26.81 Y-24 E873.34051
G0 F18000 X26.81 Y-24.5
G1 F2400 X3.189 Y-24.5 E874.32256
G0 F18000 X3.189 Y14
G0 X3.189 Y14
G1 F2400 X26.81 Y13.999 E875.30461
G0 F18000 X26.81 Y14.499
G1 F2400 X3.189 Y14.5 E876.28666
G0 F18000 X3.189 Y15
G1 F2400 X26.81 Y14.999 E877.2687
G0 F18000 X26.81 Y15.499
G1 F2400 X3.189 Y15.5 E878.25075
G0 F18000 X3.189 Y16
G1 F2400 X26.81 Y15.999 E879.2328
G0 F18000 X26.81 Y16.5
G1 F2400 X3.189 Y16.5 E880.21484
G0 F18000 X3.189 Y17
G1 F2400 X26.81 Y17 E881.19689
G0 F18000 X26.81 Y17.5
G1 F2400 X3.189 Y17.5 E882.17894
G0 F18000 X3.189 Y18
G1 F2400 X26.81 Y18 E883.16099
G0 F18000 X26.81 Y18.5
G1 F2400 X3.189 Y18.5 E884.14303
G0 F18000 X3.189 Y19
G1 F2400 X26.81 Y19 E885.12508
G0 F18000 X26.81 Y19.5
G1 F2400 X3.189 Y19.5 E886.10713
G0 F18000 X3.189 Y20
G1 F2400 X26.81 Y20 E887.08917
G0 F18000 X26.81 Y20.5
G1 F2400 X3.189 Y20.5 E888.07122
G0 F18000 X3.189 Y21
G1 F2400 X26.81 Y21 E889.05327
G0 F18000 X26.81 Y21.5
G1 F2400 X3.189 Y21.5 E890.03531
G0 F18000 X3.189 Y22
G1 F2400 X26.81 Y22 E891.01736
G0 F18000 X26.81 Y22.5
G1 F2400 X3.189 Y22.5 E891.99941
G0 F18000 X3.189 Y23
G1 F2400 X26.81 Y23 E892.98146
G0 F18000 X26.81 Y23.5
G1 F2400 X3.189 Y23.5 E893.9635
G0 F18000 X3.189 Y24
G1 F2400 X26.81 Y24 E894.94555
G0 F18000 X26.81 Y24.5
G1 F2400 X3.189 Y24.5 E895.9276
G1 F6600 E889.1276
G1 Z1.4
G0 F18000 X-27.749 Y25.75
G0 X-27.249 Y25.25
; TYPE:WALL-INNER
G1 Z1.1
G1 F6600 E896.0276
G1 F2400 X-27.249 Y25.25 E896.0276
G1 X-27.249 Y-25.249 E898.1271
G1 X-3.048 Y-25.249 E899.13326
G1 X-2.937 Y-25.234 E899.13792
G1 X-2.827 Y-25.171 E899.14319
G1 X-2.764 Y-25.061 E899.14846
G1 X-2.749 Y-24.95 E899.15312
G1 X-2.749 Y24.951 E901.22776
G1 X-2.764 Y25.062 E901.23242
G1 X-2.827 Y25.172 E901.23769
G1 X-2.937 Y25.235 E901.24296
G1 X-3.048 Y25.25 E901.24761
G1 X-27.249 Y25.25 E902.25377
G0 F18000 X-27.749 Y25.75
; TYPE:WALL-OUTER
G1 F2100 X-27.749 Y25.75 E902.25377
G1 X-27.749 Y-25.749 E904.39485
G1 X-3.018 Y-25.749 E905.42305
G1 X-2.804 Y-25.72 E905.43203
G1 X-2.624 Y-25.646 E905.44012
G1 X-2.47 Y-25.528 E905.44818
G1 X-2.352 Y-25.374 E905.45625
G1 X-2.278 Y-25.194 E905.46434
G1 X-2.249 Y-24.98 E905.47332
G1 X-2.249 Y24.981 E907.55046
G1 X-2.278 Y25.195 E907.55944
G1 X-2.352 Y25.375 E907.56753
G1 X-2.47 Y25.529 E907.57559
G1 X-2.624 Y25.647 E907.58366
G1 X-2.804 Y25.721 E907.59175
G1 X-3.018 Y25.75 E907.60073
G1 X-27.749 Y25.75 E908.62892
G0 F18000 X-27.489 Y25.4
G0 X-21.544 Y19.545
G0 X-21.544 Y19.545
; TYPE:WALL-INNER
G1 F2400 X-21.544 Y19.545 E908.62892
G1 X-19.627 Y21.016 E908.72938
G1 X-17.394 Y21.941 E908.82987
G1 X-14.999 Y22.256 E908.9303
G1 X-12.604 Y21.941 E909.03073
G1 X-10.371 Y21.016 E909.13122
G1 X-8.454 Y19.545 E909.23168
G1 X-6.983 Y17.628 E909.33214
G1 X-6.058 Y15.395 E909.43263
G1 X-5.743 Y13 E909.53306
G1 X-6.058 Y10.604 E909.63353
G1 X-6.983 Y8.372 E909.73398
G1 X-8.454 Y6.454 E909.83447
G1 X-10.371 Y4.983 E909.93493
G1 X-12.604 Y4.058 E910.03542
G1 X-14.999 Y3.744 E910.13584
G1 X-17.394 Y4.058 E910.23627
G1 X-19.627 Y4.983 E910.33675
G1 X-21.544 Y6.454 E910.43721
G1 X-23.015 Y8.372 E910.53771
G1 X-23.94 Y10.604 E910.63816
G1 X-24.255 Y13 E910.73863
G1 X-23.94 Y15.395 E910.83906
G1 X-23.015 Y17.628 E910.93954
G1 X-21.544 Y19.545 E911.04
G0 F18000 X-20.892 Y19.8
G0 X-19.6 Y20.971
G0 X-17.38 Y21.89
G0 X-15.241 Y22.019
G0 X-15.045 Y22.098
G0 X-15.045 Y22.098
G0 X-14.999 Y21.752
; TYPE:WALL-OUTER
G1 F2100 X-14.999 Y21.752 E911.04
G1 X-12.735 Y21.454 E911.13494
G1 X-10.623 Y20.579 E911.22999
G1 X-8.811 Y19.188 E911.32496
G1 X-7.42 Y17.376 E911.41993
G1 X-6.545 Y15.264 E911.51497
G1 X-6.247 Y13 E911.60991
G1 X-6.545 Y10.735 E911.70489
G1 X-7.42 Y8.624 E911.7999
G1 X-8.811 Y6.811 E911.8949
G1 X-10.623 Y5.42 E911.98987
G1 X-12.735 Y4.545 E912.08492
G1 X-14.999 Y4.248 E912.17985
G1 X-17.263 Y4.545 E912.27478
G1 X-19.375 Y5.42 E912.36983
G1 X-21.187 Y6.811 E912.4648
G1 X-22.578 Y8.624 E912.55981
G1 X-23.453 Y10.735 E912.65481
G1 X-23.751 Y13 E912.74979
G1 X-23.453 Y15.264 E912.84473
G1 X-22.578 Y17.376 E912.93977
G1 X-21.187 Y19.188 E913.03474
G1 X-19.375 Y20.579 E913.12972
G1 X-17.263 Y21.454 E913.22476
G1 X-14.999 Y21.752 E913.3197
G1 F6600 E906.5197
G1 Z1.4
G0 F18000 X-15.045 Y22.098
G0 X-15.044 Y22.209
G0 X-12.618 Y21.89
G0 X-10.398 Y20.971
G0 X-8.491 Y19.508
G0 X-7.028 Y17.601
G0 X-6.109 Y15.381
G0 X-5.795 Y13
G0 X-6.109 Y10.618
G0 X-7.028 Y8.399
G0 X-8.491 Y6.491
G0 X-10.398 Y5.028
G0 X-12.619 Y4.109
G0 X-15.011 Y3.794
G0 X-14.999 Y-3.743
G0 X-14.999 Y-3.743
; TYPE:WALL-INNER
G1 Z1.1
G1 F6600 E913.4197
G1 F2400 X-14.999 Y-3.743 E913.4197
G1 X-12.604 Y-4.057 E913.52012
G1 X-10.371 Y-4.982 E913.62061
G1 X-8.454 Y-6.453 E913.72107
G1 X-6.983 Y-8.371 E913.82156
G1 X-6.058 Y-10.603 E913.92201
G1 X-5.743 Y-12.999 E914.02248
G1 X-6.058 Y-15.394 E914.12291
G1 X-6.983 Y-17.627 E914.2234
G1 X-8.454 Y-19.544 E914.32386
G1 X-10.371 Y-21.015 E914.42432
G1 X-12.604 Y-21.94 E914.52481
G1 X-14.999 Y-22.255 E914.62524
G1 X-17.394 Y-21.94 E914.72567
G1 X-19.627 Y-21.015 E914.82616
G1 X-21.544 Y-19.544 E914.92662
G1 X-23.015 Y-17.627 E915.02708
G1 X-23.94 Y-15.394 E915.12756
G1 X-24.255 Y-12.999 E915.22799
G1 X-23.94 Y-10.603 E915.32847
G1 X-23.015 Y-8.371 E915.42891
G1 X-21.544 Y-6.453 E915.52941
G1 X-19.627 Y-4.982 E915.62987
G1 X-17.394 Y-4.057 E915.73035
G1 X-14.999 Y-3.743 E915.83078
G0 F18000 X-14.999 Y-4.247
; TYPE:WALL-OUTER
G1 F2100 X-14.999 Y-4.247 E915.83078
G1 X-12.735 Y-4.544 E915.92571
G1 X-10.623 Y-5.419 E916.02076
G1 X-8.811 Y-6.81 E916.11573
G1 X-7.42 Y-8.623 E916.21073
G1 X-6.545 Y-10.734 E916.30574
G1 X-6.247 Y-12.999 E916.40072
G1 X-6.545 Y-15.263 E916.49566
G1 X-7.42 Y-17.375 E916.5907
G1 X-8.811 Y-19.187 E916.68567
G1 X-10.623 Y-20.578 E916.78064
G1 X-12.735 Y-21.453 E916.87569
G1 X-14.999 Y-21.751 E916.97063
G1 X-17.263 Y-21.453 E917.06556
G1 X-19.375 Y-20.578 E917.16061
G1 X-21.187 Y-19.187 E917.25558
G1 X-22.578 Y-17.375 E917.35055
G1 X-23.453 Y-15.263 E917.4456
G1 X-23.751 Y-12.999 E917.54054
G1 X-23.453 Y-10.734 E917.63551
G1 X-22.578 Y-8.623 E917.73052
G1 X-21.187 Y-6.81 E917.82553
G1 X-19.375 Y-5.419 E917.9205
G1 X-17.263 Y-4.544 E918.01554
G1 X-14.999 Y-4.247 E918.11047
G0 F18000 X-15.045 Y-3.901
G0 X-16.532 Y-3.499
G0 X-16.532 Y-3.499
; TYPE:FILL
G1 F2400 X-26.809 Y-3.499 E918.53774
G0 F18000 X-26.809 Y-3.999
G1 F2400 X-18.406 Y-3.999 E918.8871
G0 F18000 X-19.613 Y-4.499
G1 F2400 X-26.809 Y-4.499 E919.18627
G0 F18000 X-26.809 Y-4.999
G1 F2400 X-20.372 Y-4.999 E919.45389
G0 F18000 X-21.024 Y-5.499
G1 F2400 X-26.809 Y-5.499 E919.69441
G0 F18000 X-26.809 Y-5.999
G1 F2400 X-21.677 Y-5.999 E919.90777
G0 F18000 X-22.135 Y-6.499
G1 F2400 X-26.809 Y-6.499 E920.10209
G0 F18000 X-26.809 Y-6.999
G1 F2400 X-22.518 Y-6.999 E920.28049
G0 F18000 X-22.901 Y-7.499
G1 F2400 X-26.809 Y-7.499 E920.44297
G0 F18000 X-26.809 Y-7.999
G1 F2400 X-23.284 Y-7.999 E920.58952
G0 F18000 X-23.545 Y-8.499
G1 F2400 X-26.809 Y-8.499 E920.72522
G0 F18000 X-26.809 Y-8.999
G1 F2400 X-23.752 Y-8.999 E920.85232
G0 F18000 X-23.959 Y-9.499
G1 F2400 X-26.809 Y-9.499 E920.9708
G0 F18000 X-26.809 Y-9.999
G1 F2400 X-24.167 Y-9.999 E921.08065
G0 F18000 X-24.371 Y-10.499
G1 F2400 X-26.809 Y-10.499 E921.18201
G0 F18000 X-26.809 Y-10.999
G1 F2400 X-24.436 Y-10.999 E921.28066
G0 F18000 X-24.502 Y-11.499
G1 F2400 X-26.809 Y-11.499 E921.37658
G0 F18000 X-26.809 Y-11.999
G1 F2400 X-24.568 Y-11.999 E921.46975
G0 F18000 X-24.633 Y-12.499
G1 F2400 X-26.809 Y-12.499 E921.56022
G0 F18000 X-26.809 Y-12.999
G1 F2400 X-24.699 Y-12.999 E921.64794
G0 F18000 X-24.633 Y-13.499
G1 F2400 X-26.809 Y-13.499 E921.73841
G0 F18000 X-26.809 Y-13.999
G1 F2400 X-24.567 Y-13.999 E921.83162
G0 F18000 X-24.502 Y-14.499
G1 F2400 X-26.809 Y-14.499 E921.92753
G0 F18000 X-26.809 Y-14.999
G1 F2400 X-24.436 Y-14.999 E922.02619
G0 F18000 X-24.37 Y-15.499
G1 F2400 X-26.809 Y-15.499 E922.12759
G0 F18000 X-26.809 Y-15.999
G1 F2400 X-24.166 Y-15.999 E922.23747
G0 F18000 X-23.958 Y-16.5
G1 F2400 X-26.809 Y-16.5 E922.35601
G0 F18000 X-26.809 Y-17
G1 F2400 X-23.751 Y-17 E922.48314
G0 F18000 X-23.544 Y-17.5
G1 F2400 X-26.809 Y-17.5 E922.61889
G0 F18000 X-26.809 Y-18
G1 F2400 X-23.282 Y-18 E922.76552
G0 F18000 X-22.899 Y-18.5
G1 F2400 X-26.809 Y-18.5 E922.92808
G0 F18000 X-26.809 Y-19
G1 F2400 X-22.516 Y-19 E923.10656
G0 F18000 X-22.132 Y-19.5
G1 F2400 X-26.809 Y-19.5 E923.30101
G0 F18000 X-26.809 Y-20
G1 F2400 X-21.673 Y-20 E923.51454
G0 F18000 X-21.02 Y-20.5
G1 F2400 X-26.809 Y-20.5 E923.75522
G0 F18000 X-26.809 Y-21
G1 F2400 X-20.368 Y-21 E924.023
G0 F18000 X-19.606 Y-21.5
G1 F2400 X-26.809 Y-21.5 E924.32247
G0 F18000 X-26.809 Y-22
G1 F2400 X-18.399 Y-22 E924.67212
G0 F18000 X-16.512 Y-22.5
G0 X-16.512 Y-22.5
G1 F2400 X-26.809 Y-22.5 E925.10022
G0 F18000 X-26.809 Y-23
G1 F2400 X-3.188 Y-23 E926.08226
G0 F18000 X-3.188 Y-22.5
G1 F2400 X-13.484 Y-22.5 E926.51032
G0 F18000 X-11.598 Y-22
G0 X-11.598 Y-22
G1 F2400 X-3.188 Y-22 E926.85997
G0 F18000 X-3.188 Y-21.5
G1 F2400 X-10.391 Y-21.5 E927.15943
G0 F18000 X-9.629 Y-21
G1 F2400 X-3.188 Y-21 E927.42722
G0 F18000 X-3.188 Y-20.5
G1 F2400 X-8.977 Y-20.5 E927.6679
G0 F18000 X-8.324 Y-20
G1 F2400 X-3.188 Y-20 E927.88143
G0 F18000 X-3.188 Y-19.5
G1 F2400 X-7.865 Y-19.5 E928.07588
G0 F18000 X-7.481 Y-19
G1 F2400 X-3.188 Y-19 E928.25436
G0 F18000 X-3.188 Y-18.5
G1 F2400 X-7.098 Y-18.5 E928.41692
G0 F18000 X-6.715 Y-18
G1 F2400 X-3.188 Y-18 E928.56355
G0 F18000 X-3.188 Y-17.5
G1 F2400 X-6.453 Y-17.5 E928.6993
G0 F18000 X-6.246 Y-17
G1 F2400 X-3.188 Y-17 E928.82643
G0 F18000 X-3.188 Y-16.5
G1 F2400 X-6.039 Y-16.5 E928.94496
G0 F18000 X-5.831 Y-16
G1 F2400 X-3.188 Y-16 E929.05485
G0 F18000 X-3.188 Y-15.5
G1 F2400 X-5.627 Y-15.5 E929.15625
G0 F18000 X-5.561 Y-15
G1 F2400 X-3.188 Y-15 E929.25491
G0 F18000 X-3.188 Y-14.5
G1 F2400 X-5.495 Y-14.5 E929.35082
G0 F18000 X-5.43 Y-14
G1 F2400 X-3.188 Y-14 E929.44403
G0 F18000 X-3.188 Y-13.5
G1 F2400 X-5.364 Y-13.5 E929.5345
G0 F18000 X-5.298 Y-13
G1 F2400 X-3.188 Y-13 E929.62222
G0 F18000 X-3.188 Y-12.5
G1 F2400 X-5.364 Y-12.5 E929.71269
G0 F18000 X-5.429 Y-12
G1 F2400 X-3.188 Y-12 E929.80586
G0 F18000 X-3.188 Y-11.5
G1 F2400 X-5.495 Y-11.5 E929.90177
G0 F18000 X-5.561 Y-11
G1 F2400 X-3.188 Y-11 E930.00043
G0 F18000 X-3.188 Y-10.5
G1 F2400 X-5.626 Y-10.5 E930.10179
G0 F18000 X-5.83 Y-10
G1 F2400 X-3.188 Y-10 E930.21163
G0 F18000 X-3.188 Y-9.5
G1 F2400 X-6.038 Y-9.5 E930.33012
G0 F18000 X-6.245 Y-9
G1 F2400 X-3.188 Y-9 E930.45722
G0 F18000 X-3.188 Y-8.5
G1 F2400 X-6.452 Y-8.5 E930.59292
G0 F18000 X-6.713 Y-8
G1 F2400 X-3.188 Y-8 E930.73947
G0 F18000 X-3.188 Y-7.5
G1 F2400 X-7.097 Y-7.5 E930.90199
G0 F18000 X-7.48 Y-6.999
G1 F2400 X-3.188 Y-7 E931.08043
G0 F18000 X-3.188 Y-6.5
G1 F2400 X-7.863 Y-6.499 E931.27479
G0 F18000 X-8.321 Y-5.999
G1 F2400 X-3.188 Y-6 E931.4882
G0 F18000 X-3.188 Y-5.5
G1 F2400 X-8.974 Y-5.499 E931.72875
G0 F18000 X-9.626 Y-4.999
G1 F2400 X-3.188 Y-5 E931.99641
G0 F18000 X-3.188 Y-4.5
G1 F2400 X-10.385 Y-4.499 E932.29563
G0 F18000 X-11.592 Y-3.999
G1 F2400 X-3.188 Y-4 E932.64503
G0 F18000 X-3.188 Y-3.5
G1 F2400 X-13.466 Y-3.499 E933.07234
G0 F18000 X-13.466 Y3.5
G0 X-13.466 Y3.5
G1 F2400 X-3.189 Y3.5 E933.49961
G0 F18000 X-3.189 Y3
G1 F2400 X-26.809 Y3 E934.48161
G0 F18000 X-26.809 Y2.5
G1 F2400 X-3.189 Y2.5 E935.46362
G0 F18000 X-3.189 Y2
G1 F2400 X-26.809 Y2 E936.44562
G0 F18000 X-26.809 Y1.5
G1 F2400 X-3.189 Y1.5 E937.42763
G0 F18000 X-3.189 Y1
G1 F2400 X-26.809 Y1 E938.40963
G0 F18000 X-26.809 Y0.5
G1 F2400 X-3.189 Y0.5 E939.39164
G0 F18000 X-3.188 Y0
G1 F2400 X-26.809 Y0 E940.37369
G0 F18000 X-26.809 Y-0.499
G1 F2400 X-3.188 Y-0.499 E941.35573
G0 F18000 X-3.188 Y-0.999
G1 F2400 X-26.809 Y-0.999 E942.33778
G0 F18000 X-26.809 Y-1.499
G1 F2400 X-3.188 Y-1.499 E943.31983
G0 F18000 X-3.188 Y-1.999
G1 F2400 X-26.809 Y-1.999 E944.30187
G0 F18000 X-26.809 Y-2.499
