; Generated with MatterSlice 1.0
; filamentDiameter = 1.75
; extrusionWidth = 0.5
; firstLayerExtrusionWidth = 0.4
; layerThickness = 0.2
; firstLayerThickness = 0.3
; automatic settings before start_gcode
G21 ; set units to millimeters
M107 ; fan off
T0 ; set the active extruder to 0
; settings from start_gcode
M104 S190
M190 S60
M109 S190
G28
; automatic settings after start_gcode
T0 ; set the active extruder to 0
G90 ; use absolute coordinates
G92 E0 ; reset the expected extruder position
M82 ; use absolute distance for extrusion
; Layer count: 39
; Layer Change GCode
; LAYER:0
G4 P0
M107
G0 F18000 X13.987 Y-28.747 Z0.6
; TYPE:SKIRT
G1 Z0.3
G1 F6600 E0
G1 F720 X15.653 Y-27.192 E0.1137
G1 X16.122 Y-25.481 E0.20221
G1 X16.117 Y25.523 E2.74681
G1 X15.643 Y27.205 E2.83399
G1 X13.987 Y28.75 E2.94698
G1 X12.422 Y29.122 E3.02724
G1 X-16.598 Y29.122 E4.47505
G1 X-16.598 Y-29.119 E7.38071
G1 X12.422 Y-29.119 E8.82852
G1 X13.987 Y-28.747 E8.90877
G0 F18000 X13.791 Y-28.382
G1 F720 X15.297 Y-26.977 E9.01153
G1 X15.722 Y-25.428 E9.09166
G1 X15.717 Y25.468 E11.63088
G1 X15.288 Y26.989 E11.70972
G1 X13.791 Y28.385 E11.81184
G1 X12.375 Y28.722 E11.88446
G1 X-16.198 Y28.722 E13.30997
G1 X-16.198 Y-28.719 E16.17571
G1 X12.375 Y-28.719 E17.60123
G1 X13.791 Y-28.382 E17.67384
G1 F6600 E10.87384
G1 Z0.6
G0 F18000 X-12.798 Y25.322
; TYPE:WALL-OUTER
G1 Z0.3
G1 F6600 E17.77384
G1 F720 X-12.798 Y25.322 E17.77384
G1 X-12.798 Y-25.319 E20.30033
G1 X11.975 Y-25.319 E21.53626
G1 X12.131 Y-25.282 E21.54426
G1 X12.273 Y-25.149 E21.55397
G1 X12.322 Y-24.97 E21.56323
G1 X12.317 Y24.999 E24.05619
G1 X12.274 Y25.151 E24.06407
G1 X12.131 Y25.285 E24.07385
G1 X11.975 Y25.322 E24.08185
G1 X-12.798 Y25.322 E25.31778
G0 F18000 X-12.398 Y24.922
; TYPE:WALL-INNER
G1 F720 X-12.398 Y24.922 E25.31778
G1 X-12.398 Y-24.919 E27.80436
G1 X11.921 Y-24.919 E29.01764
G1 X11.917 Y24.922 E31.50421
G1 X-12.398 Y24.922 E32.71729
G0 F18000 X-0.038 Y21.999
G0 X-0.038 Y21.999
G0 X0 Y21.703
; TYPE:WALL-OUTER
G1 F720 X0 Y21.703 E32.71729
G1 X2.251 Y21.406 E32.83057
G1 X4.35 Y20.537 E32.94391
G1 X6.153 Y19.154 E33.05728
G1 X7.536 Y17.352 E33.1706
G1 X8.405 Y15.252 E33.28399
G1 X8.701 Y13.001 E33.39726
G1 X8.405 Y10.749 E33.51058
G1 X7.536 Y8.65 E33.62392
G1 X6.153 Y6.847 E33.73728
G1 X4.351 Y5.464 E33.85061
G1 X2.251 Y4.595 E33.964
G1 X0 Y4.299 E34.07727
G1 X-2.251 Y4.595 E34.19054
G1 X-4.35 Y5.464 E34.30388
G1 X-6.153 Y6.847 E34.41724
G1 X-7.536 Y8.65 E34.53061
G1 X-8.405 Y10.749 E34.64395
G1 X-8.701 Y13.001 E34.75727
G1 X-8.405 Y15.252 E34.87054
G1 X-7.536 Y17.351 E34.98388
G1 X-6.153 Y19.154 E35.09725
G1 X-4.351 Y20.537 E35.21057
G1 X-2.251 Y21.406 E35.32396
G1 X0 Y21.703 E35.43723
G0 F18000 X0 Y22.106
; TYPE:WALL-INNER
G1 F720 X0 Y22.106 E35.43723
G1 X2.356 Y21.796 E35.55579
G1 X4.552 Y20.886 E35.67438
G1 X6.438 Y19.439 E35.79298
G1 X7.885 Y17.554 E35.91153
G1 X8.795 Y15.356 E36.03022
G1 X9.104 Y13.001 E36.14872
G1 X8.795 Y10.644 E36.26732
G1 X7.885 Y8.448 E36.38591
G1 X6.438 Y6.562 E36.5045
G1 X4.553 Y5.115 E36.62306
G1 X2.355 Y4.205 E36.74175
G1 X0 Y3.896 E36.86024
G1 X-2.356 Y4.205 E36.97879
G1 X-4.552 Y5.115 E37.09739
G1 X-6.438 Y6.562 E37.21598
G1 X-7.885 Y8.448 E37.33458
G1 X-8.795 Y10.644 E37.45317
G1 X-9.104 Y13.001 E37.57177
G1 X-8.795 Y15.357 E37.69032
G1 X-7.885 Y17.553 E37.80891
G1 X-6.438 Y19.439 E37.92751
G1 X-4.553 Y20.886 E38.04606
G1 X-2.356 Y21.796 E38.1647
G1 X0 Y22.106 E38.28326
G1 F6600 E31.48326
G1 Z0.6
G0 F18000 X0 Y22.103
G0 X2.354 Y21.794
G0 X4.55 Y20.884
G0 X6.436 Y19.437
G0 X7.883 Y17.553
G0 X8.793 Y15.355
G0 X9.102 Y13.001
G0 X8.793 Y10.646
G0 X7.883 Y8.45
G0 X6.436 Y6.564
G0 X4.552 Y5.117
G0 X2.354 Y4.207
G0 X-0.026 Y3.894
G0 X-0.037 Y-3.889
G0 X-0.038 Y-4.289
G0 X-0.038 Y-4
G0 X-0.038 Y-4
G0 X0 Y-4.296
; TYPE:WALL-OUTER
G1 Z0.3
G1 F6600 E38.38326
G1 F720 X0 Y-4.296 E38.38326
G1 X2.251 Y-4.593 E38.49653
G1 X4.351 Y-5.462 E38.60992
G1 X6.153 Y-6.845 E38.72325
G1 X7.536 Y-8.647 E38.83657
G1 X8.405 Y-10.747 E38.94996
G1 X8.702 Y-12.999 E39.06328
G1 X8.405 Y-15.25 E39.17656
G1 X7.536 Y-17.35 E39.28995
G1 X6.153 Y-19.152 E39.40327
G1 X4.351 Y-20.535 E39.5166
G1 X2.251 Y-21.404 E39.62999
G1 X0 Y-21.701 E39.74326
G1 X-2.251 Y-21.404 E39.85654
G1 X-4.35 Y-20.535 E39.96988
G1 X-6.153 Y-19.152 E40.08324
G1 X-7.536 Y-17.35 E40.19657
G1 X-8.405 Y-15.25 E40.30996
G1 X-8.702 Y-12.999 E40.42323
G1 X-8.405 Y-10.747 E40.53656
G1 X-7.536 Y-8.648 E40.6499
G1 X-6.153 Y-6.845 E40.76327
G1 X-4.351 Y-5.462 E40.87659
G1 X-2.251 Y-4.593 E40.98998
G1 X0 Y-4.296 E41.10325
G0 F18000 X0 Y-3.893
; TYPE:WALL-INNER
G1 F720 X0 Y-3.893 E41.10325
G1 X2.356 Y-4.203 E41.22181
G1 X4.553 Y-5.113 E41.34045
G1 X6.438 Y-6.56 E41.45901
G1 X7.885 Y-8.445 E41.57756
G1 X8.795 Y-10.642 E41.6962
G1 X9.105 Y-12.999 E41.8148
G1 X8.795 Y-15.355 E41.93336
G1 X7.885 Y-17.552 E42.052
G1 X6.438 Y-19.437 E42.17055
G1 X4.553 Y-20.884 E42.28911
G1 X2.356 Y-21.794 E42.40775
G1 X0 Y-22.104 E42.5263
G1 X-2.356 Y-21.794 E42.64486
G1 X-4.552 Y-20.884 E42.76345
G1 X-6.438 Y-19.437 E42.88205
G1 X-7.885 Y-17.552 E43.00061
G1 X-8.795 Y-15.355 E43.11924
G1 X-9.105 Y-12.999 E43.2378
G1 X-8.795 Y-10.642 E43.3564
G1 X-7.885 Y-8.446 E43.475
G1 X-6.438 Y-6.56 E43.59359
G1 X-4.553 Y-5.113 E43.71215
G1 X-2.356 Y-4.203 E43.83079
G1 X0 Y-3.893 E43.94934
G1 F6600 E37.14934
G1 Z0.6
G0 F18000 X0.025 Y-3.936
G0 X2.354 Y-4.205
G0 X4.552 Y-5.115
G0 X6.436 Y-6.562
G0 X7.883 Y-8.446
G0 X8.793 Y-10.644
G0 X9.103 Y-12.999
G0 X8.793 Y-15.353
G0 X7.883 Y-17.551
G0 X7.815 Y-17.616
G0 X11.979 Y-24.928
G0 X12.177 Y-25.275
G0 X12.037 Y-25.03
G0 X12.037 Y-25.03
; TYPE:FILL
G1 Z0.3
G1 F6600 E44.04934
G1 F720 X12.063 Y-25.071 E44.04986
G0 F18000 X12.035 Y25.045
G0 X12.035 Y25.045
G1 F720 X12.064 Y25.073 E44.05029
G0 F18000 X11.576 Y24.4
; TYPE:BOTTOM-FILL
G1 F720 X-12.057 Y24.4 E45.22935
G0 F18000 X-12.057 Y24
G1 F720 X11.576 Y24 E46.4084
G0 F18000 X11.576 Y23.6
G1 F720 X-12.057 Y23.6 E47.58746
G0 F18000 X-12.057 Y23.2
G1 F720 X11.576 Y23.2 E48.76651
G0 F18000 X11.576 Y22.8
G1 F720 X-12.057 Y22.8 E49.94557
G0 F18000 X-12.057 Y22.4
G1 F720 X-0.372 Y22.4 E50.52854
G0 F18000 X0.373 Y22.4
G1 F720 X11.576 Y22.4 E51.08746
G0 F18000 X11.576 Y22
G1 F720 X2.752 Y22 E51.52769
G0 F18000 X3.716 Y21.6
G1 F720 X11.576 Y21.6 E51.91982
G0 F18000 X11.576 Y21.2
G1 F720 X4.68 Y21.2 E52.26387
G0 F18000 X5.22 Y20.8
G1 F720 X11.576 Y20.8 E52.58097
G0 F18000 X11.576 Y20.4
G1 F720 X5.741 Y20.4 E52.87208
G0 F18000 X6.263 Y20
G1 F720 X11.576 Y20 E53.13715
G0 F18000 X11.577 Y19.6
G1 F720 X6.741 Y19.6 E53.37841
G0 F18000 X7.048 Y19.2
G1 F720 X11.577 Y19.2 E53.60437
G0 F18000 X11.577 Y18.8
G1 F720 X7.355 Y18.8 E53.815
G0 F18000 X7.662 Y18.4
G1 F720 X11.577 Y18.4 E54.01032
G0 F18000 X11.577 Y18
G1 F720 X7.969 Y18 E54.19033
G0 F18000 X8.233 Y17.6
G1 F720 X11.577 Y17.6 E54.35716
G0 F18000 X11.577 Y17.2
G1 F720 X8.398 Y17.2 E54.51576
G0 F18000 X8.564 Y16.8
G1 F720 X11.577 Y16.8 E54.66608
G0 F18000 X11.577 Y16.4
G1 F720 X8.73 Y16.4 E54.80812
G0 F18000 X8.896 Y16
G1 F720 X11.577 Y16 E54.94187
G0 F18000 X11.577 Y15.6
G1 F720 X9.061 Y15.6 E55.0674
G0 F18000 X9.158 Y15.2
G1 F720 X11.577 Y15.2 E55.18808
G0 F18000 X11.577 Y14.8
G1 F720 X9.211 Y14.8 E55.30612
G0 F18000 X9.263 Y14.4
G1 F720 X11.577 Y14.4 E55.42157
G0 F18000 X11.577 Y14
G1 F720 X9.316 Y14 E55.53437
G0 F18000 X9.368 Y13.6
G1 F720 X11.577 Y13.6 E55.64458
G0 F18000 X11.577 Y13.2
G1 F720 X9.421 Y13.2 E55.75214
G0 F18000 X9.421 Y12.8
G1 F720 X11.577 Y12.8 E55.8597
G0 F18000 X11.577 Y12.4
G1 F720 X9.368 Y12.4 E55.96991
G0 F18000 X9.316 Y12
G1 F720 X11.577 Y12 E56.08271
G0 F18000 X11.577 Y11.6
G1 F720 X9.264 Y11.6 E56.19811
G0 F18000 X9.211 Y11.2
G1 F720 X11.577 Y11.2 E56.31615
G0 F18000 X11.577 Y10.8
G1 F720 X9.159 Y10.8 E56.43678
G0 F18000 X9.062 Y10.4
G1 F720 X11.577 Y10.4 E56.56226
G0 F18000 X11.577 Y10
G1 F720 X8.896 Y10 E56.69601
G0 F18000 X8.73 Y9.6
G1 F720 X11.578 Y9.6 E56.8381
G0 F18000 X11.578 Y9.2
G1 F720 X8.564 Y9.2 E56.98847
G0 F18000 X8.398 Y8.8
G1 F720 X11.578 Y8.8 E57.14712
G0 F18000 X11.578 Y8.4
G1 F720 X8.232 Y8.4 E57.31405
G0 F18000 X7.967 Y7.999
G1 F720 X11.578 Y7.999 E57.49421
G0 F18000 X11.578 Y7.599
G1 F720 X7.661 Y7.599 E57.68963
G0 F18000 X7.354 Y7.2
G1 F720 X11.578 Y7.199 E57.90036
G0 F18000 X11.578 Y6.799
G1 F720 X7.048 Y6.8 E58.12637
G0 F18000 X6.741 Y6.4
G1 F720 X11.578 Y6.399 E58.36768
G0 F18000 X11.578 Y5.999
G1 F720 X6.263 Y6 E58.63285
G0 F18000 X5.742 Y5.6
G1 F720 X11.578 Y5.599 E58.92401
G0 F18000 X11.578 Y5.199
G1 F720 X5.22 Y5.2 E59.24121
G0 F18000 X4.68 Y4.8
G1 F720 X11.578 Y4.799 E59.58535
G0 F18000 X11.578 Y4.399
G1 F720 X3.714 Y4.4 E59.97769
G0 F18000 X2.749 Y4
G1 F720 X11.578 Y3.999 E60.41817
G0 F18000 X11.578 Y3.599
G1 F720 X0.359 Y3.6 E60.97789
G0 F18000 X-0.358 Y3.6
G1 F720 X-12.058 Y3.6 E61.56161
G0 F18000 X-12.058 Y4
G1 F720 X-2.749 Y4 E62.02603
G0 F18000 X-3.714 Y4.4
G1 F720 X-12.058 Y4.4 E62.44232
G0 F18000 X-12.058 Y4.8
G1 F720 X-4.679 Y4.8 E62.81046
G0 F18000 X-5.219 Y5.2
G1 F720 X-12.058 Y5.2 E63.15166
G0 F18000 X-12.058 Y5.6
G1 F720 X-5.741 Y5.6 E63.46681
G0 F18000 X-6.263 Y6
G1 F720 X-12.058 Y6 E63.75593
G0 F18000 X-12.058 Y6.4
G1 F720 X-6.741 Y6.4 E64.02119
G0 F18000 X-7.048 Y6.8
G1 F720 X-12.058 Y6.8 E64.27114
G0 F18000 X-12.058 Y7.2
G1 F720 X-7.355 Y7.2 E64.50578
G0 F18000 X-7.661 Y7.6
G1 F720 X-12.058 Y7.6 E64.72514
G0 F18000 X-12.058 Y8
G1 F720 X-7.967 Y8 E64.92924
G0 F18000 X-8.233 Y8.4
G1 F720 X-12.058 Y8.4 E65.12007
G0 F18000 X-12.058 Y8.8
G1 F720 X-8.399 Y8.8 E65.30262
G0 F18000 X-8.565 Y9.2
G1 F720 X-12.058 Y9.2 E65.47689
G0 F18000 X-12.058 Y9.6
G1 F720 X-8.73 Y9.6 E65.64292
G0 F18000 X-8.896 Y10
G1 F720 X-12.058 Y10 E65.80068
G0 F18000 X-12.058 Y10.4
G1 F720 X-9.062 Y10.4 E65.95015
G0 F18000 X-9.159 Y10.8
G1 F720 X-12.058 Y10.8 E66.09478
G0 F18000 X-12.058 Y11.2
G1 F720 X-9.211 Y11.2 E66.23682
G0 F18000 X-9.264 Y11.6
G1 F720 X-12.058 Y11.6 E66.37621
G0 F18000 X-12.058 Y12
G1 F720 X-9.316 Y12 E66.51301
G0 F18000 X-9.368 Y12.4
G1 F720 X-12.058 Y12.4 E66.64721
G0 F18000 X-12.058 Y12.8
G1 F720 X-9.421 Y12.8 E66.77877
G0 F18000 X-9.421 Y13.2
G1 F720 X-12.058 Y13.2 E66.91033
G0 F18000 X-12.058 Y13.6
G1 F720 X-9.369 Y13.6 E67.04449
G0 F18000 X-9.316 Y14
G1 F720 X-12.058 Y14 E67.18129
G0 F18000 X-12.058 Y14.4
G1 F720 X-9.264 Y14.4 E67.32068
G0 F18000 X-9.211 Y14.8
G1 F720 X-12.058 Y14.8 E67.46272
G0 F18000 X-12.057 Y15.2
G1 F720 X-9.158 Y15.2 E67.60735
G0 F18000 X-9.062 Y15.6
G1 F720 X-12.057 Y15.6 E67.75677
G0 F18000 X-12.057 Y16
G1 F720 X-8.896 Y16 E67.91447
G0 F18000 X-8.73 Y16.4
G1 F720 X-12.057 Y16.4 E68.08046
G0 F18000 X-12.057 Y16.8
G1 F720 X-8.564 Y16.8 E68.25473
G0 F18000 X-8.398 Y17.2
G1 F720 X-12.057 Y17.2 E68.43727
G0 F18000 X-12.057 Y17.6
G1 F720 X-8.232 Y17.6 E68.6281
G0 F18000 X-7.968 Y18
G1 F720 X-12.057 Y18 E68.8321
G0 F18000 X-12.057 Y18.4
G1 F720 X-7.661 Y18.4 E69.05142
G0 F18000 X-7.355 Y18.8
G1 F720 X-12.057 Y18.8 E69.28601
G0 F18000 X-12.057 Y19.2
G1 F720 X-7.048 Y19.2 E69.53591
G0 F18000 X-6.741 Y19.6
G1 F720 X-12.057 Y19.6 E69.80112
G0 F18000 X-12.057 Y20
G1 F720 X-6.263 Y20 E70.09019
G0 F18000 X-5.742 Y20.4
G1 F720 X-12.057 Y20.4 E70.40524
G0 F18000 X-12.057 Y20.8
G1 F720 X-5.221 Y20.8 E70.74629
G0 F18000 X-4.681 Y21.2
G1 F720 X-12.057 Y21.2 E71.11428
G0 F18000 X-12.057 Y21.6
G1 F720 X-3.717 Y21.6 E71.53037
G0 F18000 X-2.752 Y22
G1 F720 X-12.057 Y22 E71.99459
G0 F18000 X-12.058 Y3.2
G0 X-12.058 Y3.2
G1 F720 X11.578 Y3.199 E73.1738
G0 F18000 X11.578 Y2.799
G1 F720 X-12.058 Y2.8 E74.353
G0 F18000 X-12.058 Y2.4
G1 F720 X11.578 Y2.399 E75.53221
G0 F18000 X11.578 Y1.999
G1 F720 X-12.058 Y2 E76.71141
G0 F18000 X-12.058 Y1.6
G1 F720 X11.578 Y1.599 E77.89062
G0 F18000 X11.578 Y1.199
G1 F720 X-12.058 Y1.2 E79.06982
G0 F18000 X-12.058 Y0.8
G1 F720 X11.578 Y0.799 E80.24903
G0 F18000 X11.578 Y0.399
G1 F720 X-12.058 Y0.4 E81.42823
G0 F18000 X-12.057 Y0
G1 F720 X11.579 Y0 E82.60744
G0 F18000 X11.579 Y-0.4
G1 F720 X-12.057 Y-0.399 E83.78664
G0 F18000 X-12.057 Y-0.799
G1 F720 X11.579 Y-0.8 E84.96585
G0 F18000 X11.579 Y-1.2
G1 F720 X-12.057 Y-1.199 E86.14505
G0 F18000 X-12.057 Y-1.599
G1 F720 X11.579 Y-1.6 E87.32426
G0 F18000 X11.579 Y-2
G1 F720 X-12.057 Y-1.999 E88.50346
G0 F18000 X-12.057 Y-2.399
G1 F720 X11.579 Y-2.4 E89.68267
G0 F18000 X11.579 Y-2.8
G1 F720 X-12.057 Y-2.799 E90.86187
G0 F18000 X-12.057 Y-3.199
G1 F720 X11.579 Y-3.2 E92.04108
G0 F18000 X11.579 Y-3.6
G1 F720 X0.38 Y-3.6 E92.5998
G0 F18000 X-0.381 Y-3.6
G1 F720 X-12.057 Y-3.599 E93.18232
G0 F18000 X-12.057 Y-3.999
G1 F720 X-2.754 Y-4 E93.64644
G0 F18000 X-3.72 Y-4.4
G1 F720 X-12.057 Y-4.399 E94.06238
G0 F18000 X-12.057 Y-4.799
G1 F720 X-4.685 Y-4.8 E94.43017
G0 F18000 X-5.223 Y-5.2
G1 F720 X-12.057 Y-5.199 E94.77112
G0 F18000 X-12.057 Y-5.599
G1 F720 X-5.744 Y-5.6 E95.08608
G0 F18000 X-6.266 Y-6
G1 F720 X-12.057 Y-5.999 E95.37499
G0 F18000 X-12.057 Y-6.399
G1 F720 X-6.743 Y-6.4 E95.64011
G0 F18000 X-7.049 Y-6.8
G1 F720 X-12.057 Y-6.799 E95.88996
G0 F18000 X-12.057 Y-7.199
G1 F720 X-7.356 Y-7.2 E96.12449
G0 F18000 X-7.662 Y-7.599
G1 F720 X-12.057 Y-7.599 E96.34376
G0 F18000 X-12.057 Y-7.999
G1 F720 X-7.969 Y-7.999 E96.54771
G0 F18000 X-8.233 Y-8.4
G1 F720 X-12.057 Y-8.4 E96.73849
G0 F18000 X-12.057 Y-8.8
G1 F720 X-8.399 Y-8.8 E96.92099
G0 F18000 X-8.565 Y-9.2
G1 F720 X-12.057 Y-9.2 E97.0952
G0 F18000 X-12.057 Y-9.6
G1 F720 X-8.731 Y-9.6 E97.26114
G0 F18000 X-8.897 Y-10
G1 F720 X-12.057 Y-10 E97.41879
G0 F18000 X-12.057 Y-10.4
G1 F720 X-9.063 Y-10.4 E97.56816
G0 F18000 X-9.159 Y-10.8
G1 F720 X-12.057 Y-10.8 E97.71274
G0 F18000 X-12.057 Y-11.2
G1 F720 X-9.212 Y-11.2 E97.85468
G0 F18000 X-9.264 Y-11.6
G1 F720 X-12.057 Y-11.6 E97.99403
G0 F18000 X-12.057 Y-12
G1 F720 X-9.317 Y-12 E98.13072
G0 F18000 X-9.369 Y-12.4
G1 F720 X-12.057 Y-12.4 E98.26483
G0 F18000 X-12.057 Y-12.8
G1 F720 X-9.422 Y-12.8 E98.39629
G0 F18000 X-9.422 Y-13.2
G1 F720 X-12.057 Y-13.2 E98.52775
G0 F18000 X-12.057 Y-13.6
G1 F720 X-9.369 Y-13.6 E98.66186
G0 F18000 X-9.316 Y-14
G1 F720 X-12.057 Y-14 E98.79861
G0 F18000 X-12.057 Y-14.4
G1 F720 X-9.263 Y-14.4 E98.938
G0 F18000 X-9.211 Y-14.8
G1 F720 X-12.057 Y-14.8 E99.07999
G0 F18000 X-12.057 Y-15.2
G1 F720 X-9.158 Y-15.2 E99.22462
G0 F18000 X-9.061 Y-15.6
G1 F720 X-12.057 Y-15.6 E99.37409
G0 F18000 X-12.057 Y-16
G1 F720 X-8.895 Y-16 E99.53184
G0 F18000 X-8.729 Y-16.4
G1 F720 X-12.057 Y-16.4 E99.69788
G0 F18000 X-12.057 Y-16.8
G1 F720 X-8.563 Y-16.8 E99.87219
G0 F18000 X-8.398 Y-17.2
G1 F720 X-12.057 Y-17.2 E100.05474
G0 F18000 X-12.057 Y-17.6
G1 F720 X-8.232 Y-17.6 E100.24557
G0 F18000 X-7.967 Y-18
G1 F720 X-12.057 Y-18 E100.44962
G0 F18000 X-12.057 Y-18.4
G1 F720 X-7.66 Y-18.4 E100.66899
G0 F18000 X-7.353 Y-18.8
G1 F720 X-12.057 Y-18.8 E100.90367
G0 F18000 X-12.057 Y-19.2
G1 F720 X-7.047 Y-19.2 E101.15362
G0 F18000 X-6.74 Y-19.6
G1 F720 X-12.057 Y-19.6 E101.41889
G0 F18000 X-12.057 Y-20
G1 F720 X-6.26 Y-20 E101.7081
G0 F18000 X-5.739 Y-20.4
G1 F720 X-12.057 Y-20.4 E102.02331
G0 F18000 X-12.057 Y-20.8
G1 F720 X-5.217 Y-20.8 E102.36456
G0 F18000 X-4.676 Y-21.2
G1 F720 X-12.057 Y-21.2 E102.7328
G0 F18000 X-12.057 Y-21.6
G1 F720 X-3.711 Y-21.6 E103.14918
G0 F18000 X-2.747 Y-22
G1 F720 X-12.057 Y-22 E103.61366
G0 F18000 X-12.057 Y-22.4
G1 F720 X-0.358 Y-22.4 E104.19732
G0 F18000 X0.357 Y-22.4
G1 F720 X11.58 Y-22.4 E104.75724
G0 F18000 X11.58 Y-22
G1 F720 X2.747 Y-22 E105.19792
G0 F18000 X3.712 Y-21.6
G1 F720 X11.58 Y-21.6 E105.59046
G0 F18000 X11.58 Y-21.2
G1 F720 X4.677 Y-21.2 E105.93485
G0 F18000 X5.218 Y-20.8
G1 F720 X11.58 Y-20.8 E106.25225
G0 F18000 X11.58 Y-20.4
G1 F720 X5.739 Y-20.4 E106.54366
G0 F18000 X6.261 Y-20
G1 F720 X11.58 Y-20 E106.80903
G0 F18000 X11.579 Y-19.6
G1 F720 X6.74 Y-19.6 E107.05044
G0 F18000 X7.047 Y-19.2
G1 F720 X11.579 Y-19.2 E107.27655
G0 F18000 X11.579 Y-18.8
G1 F720 X7.353 Y-18.8 E107.48738
G0 F18000 X7.66 Y-18.4
G1 F720 X11.579 Y-18.4 E107.6829
G0 F18000 X11.579 Y-18
G1 F720 X7.967 Y-18 E107.86311
G0 F18000 X8.232 Y-17.6
G1 F720 X11.579 Y-17.6 E108.03009
G0 F18000 X11.579 Y-17.2
G1 F720 X8.398 Y-17.2 E108.18879
G0 F18000 X8.563 Y-16.8
G1 F720 X11.579 Y-16.8 E108.33926
G0 F18000 X11.579 Y-16.4
G1 F720 X8.729 Y-16.4 E108.48145
G0 F18000 X8.895 Y-16
G1 F720 X11.579 Y-16 E108.61535
G0 F18000 X11.579 Y-15.6
G1 F720 X9.061 Y-15.6 E108.74097
G0 F18000 X9.158 Y-15.2
G1 F720 X11.579 Y-15.2 E108.86176
G0 F18000 X11.58 Y-14.8
G1 F720 X9.211 Y-14.8 E108.97995
G0 F18000 X9.264 Y-14.4
G1 F720 X11.58 Y-14.4 E109.09549
G0 F18000 X11.58 Y-14
G1 F720 X9.317 Y-14 E109.2084
G0 F18000 X9.369 Y-13.6
G1 F720 X11.58 Y-13.6 E109.3187
G0 F18000 X11.58 Y-13.2
G1 F720 X9.422 Y-13.2 E109.42637
G0 F18000 X9.422 Y-12.8
G1 F720 X11.58 Y-12.8 E109.53403
G0 F18000 X11.58 Y-12.4
G1 F720 X9.369 Y-12.4 E109.64434
G0 F18000 X9.317 Y-12
G1 F720 X11.58 Y-12 E109.75724
G0 F18000 X11.58 Y-11.6
G1 F720 X9.264 Y-11.6 E109.87278
G0 F18000 X9.212 Y-11.2
G1 F720 X11.58 Y-11.2 E109.99092
G0 F18000 X11.58 Y-10.8
G1 F720 X9.159 Y-10.8 E110.11171
G0 F18000 X9.063 Y-10.4
G1 F720 X11.58 Y-10.4 E110.23728
G0 F18000 X11.58 Y-10
G1 F720 X8.897 Y-10 E110.37114
G0 F18000 X8.731 Y-9.6
G1 F720 X11.579 Y-9.6 E110.51322
G0 F18000 X11.579 Y-9.2
G1 F720 X8.566 Y-9.2 E110.66354
G0 F18000 X8.4 Y-8.8
G1 F720 X11.579 Y-8.8 E110.82214
G0 F18000 X11.579 Y-8.4
G1 F720 X8.234 Y-8.4 E110.98903
G0 F18000 X7.969 Y-8
G1 F720 X11.579 Y-8 E111.16913
G0 F18000 X11.579 Y-7.6
G1 F720 X7.663 Y-7.6 E111.3645
G0 F18000 X7.357 Y-7.2
G1 F720 X11.579 Y-7.2 E111.57514
G0 F18000 X11.579 Y-6.8
G1 F720 X7.05 Y-6.8 E111.80109
G0 F18000 X6.743 Y-6.4
G1 F720 X11.579 Y-6.4 E112.04236
G0 F18000 X11.579 Y-6
G1 F720 X6.266 Y-6 E112.30743
G0 F18000 X5.744 Y-5.6
G1 F720 X11.579 Y-5.6 E112.59853
G0 F18000 X11.579 Y-5.2
G1 F720 X5.223 Y-5.2 E112.91564
G0 F18000 X4.685 Y-4.8
G1 F720 X11.579 Y-4.8 E113.25958
G0 F18000 X11.579 Y-4.4
G1 F720 X3.719 Y-4.4 E113.65172
G0 F18000 X2.754 Y-4
G1 F720 X11.579 Y-4 E114.092
G0 F18000 X11.58 Y-22.8
G0 X11.58 Y-22.8
G1 F720 X-12.057 Y-22.8 E115.27125
G0 F18000 X-12.057 Y-23.2
G1 F720 X11.58 Y-23.2 E116.45051
G0 F18000 X11.58 Y-23.6
G1 F720 X-12.057 Y-23.6 E117.62976
G0 F18000 X-12.057 Y-24
G1 F720 X11.58 Y-24 E118.80902
G0 F18000 X11.58 Y-24.4
G1 F720 X-12.057 Y-24.4 E119.98827
; Layer Change GCode
; LAYER:1
G0 F18000 X-12.396 Y25.09 Z0.5
G0 X-12.399 Y25.49
G0 X-12.398 Y25.281
G0 X-12.398 Y25.281
G0 X-12.748 Y25.541
G0 X-12.748 Y25.541
G0 X-12.248 Y25.041
; TYPE:WALL-INNER
G1 F2400 X-12.248 Y25.041 E119.98827
G1 X-12.248 Y-25.038 E122.07031
G1 X12.019 Y-25.023 E123.07922
G1 X12.04 Y-24.934 E123.08302
G1 X12.04 Y24.938 E125.15646
G1 X12.018 Y25.026 E125.16023
G1 X-12.248 Y25.041 E126.16909
G0 F18000 X-12.748 Y25.541
; TYPE:WALL-OUTER
G1 F2100 X-12.748 Y25.541 E126.16909
G1 X-12.748 Y-25.538 E128.29271
G1 X12.067 Y-25.528 E129.3244
G1 X12.252 Y-25.478 E129.33237
G1 X12.424 Y-25.337 E129.34161
G1 X12.506 Y-25.177 E129.34909
G1 X12.54 Y-24.974 E129.35764
G1 X12.54 Y24.978 E131.43441
G1 X12.507 Y25.177 E131.44279
G1 X12.406 Y25.357 E131.45137
G1 X12.235 Y25.49 E131.46038
G1 X12.067 Y25.531 E131.46757
G1 X-12.748 Y25.541 E132.49926
G0 F18000 X-12.398 Y25.281
G0 X-6.545 Y19.546
G0 X-6.545 Y19.546
; TYPE:WALL-INNER
G1 F2400 X-6.545 Y19.546 E132.49926
G1 X-4.628 Y21.017 E132.59972
G1 X-2.395 Y21.942 E132.70021
G1 X0 Y22.257 E132.80064
G1 X2.395 Y21.942 E132.90107
G1 X4.627 Y21.017 E133.00152
G1 X6.545 Y19.546 E133.10201
G1 X8.016 Y17.629 E133.20247
G1 X8.941 Y15.396 E133.30296
G1 X9.255 Y13.001 E133.40338
G1 X8.941 Y10.605 E133.50385
G1 X8.016 Y8.373 E133.60429
G1 X6.545 Y6.455 E133.70479
G1 X4.628 Y4.984 E133.80525
G1 X2.395 Y4.059 E133.90574
G1 X0 Y3.745 E134.00616
G1 X-2.395 Y4.059 E134.10658
G1 X-4.627 Y4.984 E134.20703
G1 X-6.545 Y6.455 E134.30753
G1 X-8.016 Y8.373 E134.40802
G1 X-8.941 Y10.605 E134.50847
G1 X-9.255 Y13.001 E134.60893
G1 X-8.941 Y15.396 E134.70936
G1 X-8.016 Y17.628 E134.80981
G1 X-6.545 Y19.546 E134.9103
G0 F18000 X-5.891 Y19.802
G0 X-4.601 Y20.972
G0 X-2.381 Y21.891
G0 X-0.243 Y22.02
G0 X-0.046 Y22.099
G0 X-0.046 Y22.099
G0 X0 Y21.753
; TYPE:WALL-OUTER
G1 F2100 X0 Y21.753 E134.9103
G1 X2.264 Y21.455 E135.00524
G1 X4.375 Y20.58 E135.10025
G1 X6.188 Y19.189 E135.19525
G1 X7.579 Y17.377 E135.29022
G1 X8.454 Y15.265 E135.38527
G1 X8.751 Y13.001 E135.4802
G1 X8.454 Y10.736 E135.57517
G1 X7.579 Y8.625 E135.67018
G1 X6.188 Y6.812 E135.76518
G1 X4.376 Y5.421 E135.86016
G1 X2.264 Y4.546 E135.9552
G1 X0 Y4.249 E136.05013
G1 X-2.264 Y4.546 E136.14506
G1 X-4.375 Y5.421 E136.24007
G1 X-6.188 Y6.812 E136.33508
G1 X-7.579 Y8.625 E136.43008
G1 X-8.454 Y10.736 E136.52509
G1 X-8.751 Y13.001 E136.62006
G1 X-8.454 Y15.265 E136.71499
G1 X-7.579 Y17.376 E136.81
G1 X-6.188 Y19.189 E136.905
G1 X-4.376 Y20.58 E136.99998
G1 X-2.264 Y21.455 E137.09502
G1 X0 Y21.753 E137.18996
G1 F6600 E130.38996
G1 Z0.8
G0 F18000 X-0.046 Y22.099
G0 X-0.045 Y22.209
G0 X2.381 Y21.891
G0 X4.6 Y20.972
G0 X6.508 Y19.509
G0 X7.971 Y17.602
G0 X8.89 Y15.381
G0 X9.203 Y13.001
G0 X8.89 Y10.62
G0 X7.971 Y8.4
G0 X6.508 Y6.492
G0 X4.601 Y5.029
G0 X2.38 Y4.11
G0 X-0.012 Y3.794
G0 X0 Y-3.742
G0 X0 Y-3.742
; TYPE:WALL-INNER
G1 Z0.5
G1 F6600 E137.28996
G1 F2400 X0 Y-3.742 E137.28996
G1 X2.395 Y-4.057 E137.39039
G1 X4.628 Y-4.982 E137.49088
G1 X6.545 Y-6.453 E137.59134
G1 X8.016 Y-8.37 E137.6918
G1 X8.941 Y-10.603 E137.79228
G1 X9.256 Y-12.999 E137.89275
G1 X8.941 Y-15.394 E137.99318
G1 X8.016 Y-17.627 E138.09367
G1 X6.545 Y-19.544 E138.19413
G1 X4.628 Y-21.015 E138.29459
G1 X2.395 Y-21.94 E138.39508
G1 X0 Y-22.255 E138.49551
G1 X-2.395 Y-21.94 E138.59594
G1 X-4.627 Y-21.015 E138.69639
G1 X-6.545 Y-19.544 E138.79688
G1 X-8.016 Y-17.627 E138.89734
G1 X-8.941 Y-15.394 E138.99783
G1 X-9.256 Y-12.999 E139.09826
G1 X-8.941 Y-10.603 E139.19873
G1 X-8.016 Y-8.371 E139.29918
G1 X-6.545 Y-6.453 E139.39967
G1 X-4.628 Y-4.982 E139.50013
G1 X-2.395 Y-4.057 E139.60062
G1 X0 Y-3.742 E139.70105
G0 F18000 X0 Y-4.246
; TYPE:WALL-OUTER
G1 F2100 X0 Y-4.246 E139.70105
G1 X2.264 Y-4.544 E139.79599
G1 X4.376 Y-5.419 E139.89103
G1 X6.188 Y-6.81 E139.986
G1 X7.579 Y-8.622 E140.08098
G1 X8.454 Y-10.734 E140.17602
G1 X8.752 Y-12.999 E140.271
G1 X8.454 Y-15.263 E140.36594
G1 X7.579 Y-17.375 E140.46098
G1 X6.188 Y-19.187 E140.55595
G1 X4.376 Y-20.578 E140.65093
G1 X2.264 Y-21.453 E140.74597
G1 X0 Y-21.751 E140.84091
G1 X-2.264 Y-21.453 E140.93585
G1 X-4.375 Y-20.578 E141.03085
G1 X-6.188 Y-19.187 E141.12586
G1 X-7.579 Y-17.375 E141.22083
G1 X-8.454 Y-15.263 E141.31587
G1 X-8.752 Y-12.999 E141.41081
G1 X-8.454 Y-10.734 E141.50579
G1 X-7.579 Y-8.623 E141.6008
G1 X-6.188 Y-6.81 E141.6958
G1 X-4.376 Y-5.419 E141.79077
G1 X-2.264 Y-4.544 E141.88582
G1 X0 Y-4.246 E141.98076
G0 F18000 X0 Y-3.298
; TYPE:FILL
G1 F2400 X0 Y3.301 E142.25511
G0 F18000 X-0.499 Y3.366
G1 F2400 X-0.5 Y-3.364 E142.53491
G0 F18000 X-1 Y-3.43
G1 F2400 X-0.999 Y3.432 E142.8202
G0 F18000 X-1.499 Y3.497
G1 F2400 X-1.5 Y-3.495 E143.11089
G0 F18000 X-2 Y-3.56
G1 F2400 X-1.999 Y3.562 E143.40699
G0 F18000 X-2.499 Y3.628
G1 F2400 X-2.5 Y-3.626 E143.70858
G0 F18000 X-3 Y-3.83
G1 F2400 X-2.999 Y3.832 E144.02713
G0 F18000 X-3.499 Y4.04
G1 F2400 X-3.5 Y-4.038 E144.36297
G0 F18000 X-4 Y-4.245
G1 F2400 X-3.999 Y4.247 E144.71603
G0 F18000 X-4.499 Y4.454
G1 F2400 X-4.5 Y-4.452 E145.0863
G0 F18000 X-5 Y-4.714
G1 F2400 X-4.999 Y4.716 E145.47835
G0 F18000 X-5.499 Y5.099
G1 F2400 X-5.5 Y-5.097 E145.90225
G0 F18000 X-6 Y-5.48
G1 F2400 X-5.999 Y5.482 E146.358
G0 F18000 X-6.499 Y5.865
G1 F2400 X-6.5 Y-5.864 E146.84563
G0 F18000 X-7 Y-6.323
G1 F2400 X-6.999 Y6.324 E147.37143
G0 F18000 X-7.499 Y6.977
G1 F2400 X-7.5 Y-6.976 E147.95153
G0 F18000 X-8 Y-7.629
G1 F2400 X-7.999 Y7.629 E148.58589
G0 F18000 X-8.499 Y8.39
G1 F2400 X-8.5 Y-8.391 E149.28356
G0 F18000 X-9 Y-9.597
G1 F2400 X-8.999 Y9.597 E150.08155
G0 F18000 X-9.499 Y11.482
G0 X-9.499 Y11.482
G1 F2400 X-9.5 Y-11.484 E151.03637
G0 F18000 X-9.5 Y-14.512
G0 X-9.5 Y-14.512
G1 F2400 X-9.5 Y-24.597 E151.45565
G0 F18000 X-10 Y-24.597
G1 F2400 X-9.999 Y24.6 E153.50103
G0 F18000 X-9.499 Y24.6
G1 F2400 X-9.499 Y14.518 E153.92019
G0 F18000 X-8.999 Y16.402
G0 X-8.999 Y16.402
G1 F2400 X-8.999 Y24.599 E154.26098
G0 F18000 X-8.499 Y24.599
G1 F2400 X-8.499 Y17.609 E154.55159
G0 F18000 X-7.999 Y18.371
G1 F2400 X-7.999 Y24.599 E154.81052
G0 F18000 X-7.499 Y24.598
G1 F2400 X-7.499 Y19.023 E155.0423
G0 F18000 X-6.999 Y19.676
G1 F2400 X-6.999 Y24.598 E155.24693
G0 F18000 X-6.499 Y24.598
G1 F2400 X-6.499 Y20.135 E155.43248
G0 F18000 X-5.999 Y20.518
G1 F2400 X-5.999 Y24.597 E155.60207
G0 F18000 X-5.499 Y24.597
G1 F2400 X-5.499 Y20.902 E155.75569
G0 F18000 X-4.999 Y21.285
G1 F2400 X-4.999 Y24.597 E155.89339
G0 F18000 X-4.499 Y24.596
G1 F2400 X-4.499 Y21.546 E156.02019
G0 F18000 X-3.999 Y21.754
G1 F2400 X-3.999 Y24.596 E156.13835
G0 F18000 X-3.499 Y24.596
G1 F2400 X-3.499 Y21.961 E156.2479
G0 F18000 X-2.999 Y22.168
G1 F2400 X-2.999 Y24.595 E156.3488
G0 F18000 X-2.499 Y24.595
G1 F2400 X-2.499 Y22.372 E156.44122
G0 F18000 X-1.999 Y22.438
G1 F2400 X-1.999 Y24.595 E156.5309
G0 F18000 X-1.499 Y24.594
G1 F2400 X-1.499 Y22.504 E156.61779
G0 F18000 X-0.999 Y22.57
G1 F2400 X-0.999 Y24.594 E156.70194
G0 F18000 X-0.499 Y24.594
G1 F2400 X-0.499 Y22.635 E156.78339
G0 F18000 X0 Y22.701
G1 F2400 X0 Y24.593 E156.86205
G0 F18000 X0.5 Y24.593
G1 F2400 X0.5 Y22.635 E156.94345
G0 F18000 X1 Y22.569
G1 F2400 X1 Y24.593 E157.0276
G0 F18000 X1.5 Y24.592
G1 F2400 X1.5 Y22.504 E157.11441
G0 F18000 X2 Y22.438
G1 F2400 X2 Y24.592 E157.20396
G0 F18000 X2.5 Y24.592
G1 F2400 X2.5 Y22.372 E157.29626
G0 F18000 X3 Y22.167
G1 F2400 X3 Y24.592 E157.39708
G0 F18000 X3.5 Y24.591
G1 F2400 X3.5 Y21.96 E157.50646
G0 F18000 X4 Y21.753
G1 F2400 X4 Y24.591 E157.62445
G0 F18000 X4.5 Y24.591
G1 F2400 X4.5 Y21.546 E157.75105
G0 F18000 X5 Y21.283
G1 F2400 X5 Y24.59 E157.88854
G0 F18000 X5.5 Y24.59
G1 F2400 X5.5 Y20.9 E158.04195
G0 F18000 X6 Y20.517
G1 F2400 X6 Y24.59 E158.21129
G0 F18000 X6.5 Y24.589
G1 F2400 X6.5 Y20.134 E158.3965
G0 F18000 X7 Y19.675
G1 F2400 X7 Y24.589 E158.6008
G0 F18000 X7.5 Y24.589
G1 F2400 X7.5 Y19.022 E158.83225
G0 F18000 X8 Y18.37
G1 F2400 X8 Y24.588 E159.09077
G0 F18000 X8.5 Y24.588
G1 F2400 X8.5 Y17.608 E159.38096
G0 F18000 X9 Y16.401
G1 F2400 X9 Y24.588 E159.72134
G0 F18000 X9.5 Y24.587
G1 F2400 X9.5 Y14.51 E160.14029
G0 F18000 X9.5 Y11.489
G0 X9.5 Y11.489
G1 F2400 X9.499 Y-11.477 E161.09511
G0 F18000 X8.999 Y-9.595
G0 X8.999 Y-9.595
G1 F2400 X9 Y9.6 E161.89314
G0 F18000 X8.5 Y8.393
G1 F2400 X8.499 Y-8.388 E162.59081
G0 F18000 X7.999 Y-7.627
G1 F2400 X8 Y7.631 E163.22517
G0 F18000 X7.5 Y6.978
G1 F2400 X7.499 Y-6.974 E163.80522
G0 F18000 X6.999 Y-6.322
G1 F2400 X7 Y6.325 E164.33103
G0 F18000 X6.5 Y5.866
G1 F2400 X6.499 Y-5.863 E164.81866
G0 F18000 X5.999 Y-5.48
G1 F2400 X6 Y5.482 E165.27441
G0 F18000 X5.5 Y5.099
G1 F2400 X5.499 Y-5.096 E165.69827
G0 F18000 X4.999 Y-4.713
G1 F2400 X5 Y4.716 E166.09028
G0 F18000 X4.5 Y4.454
G1 F2400 X4.499 Y-4.452 E166.46055
G0 F18000 X3.999 Y-4.244
G1 F2400 X4 Y4.247 E166.81356
G0 F18000 X3.5 Y4.04
G1 F2400 X3.499 Y-4.037 E167.14936
G0 F18000 X2.999 Y-3.83
G1 F2400 X3 Y3.833 E167.46795
G0 F18000 X2.5 Y3.628
G1 F2400 X2.499 Y-3.626 E167.76954
G0 F18000 X1.999 Y-3.56
G1 F2400 X2 Y3.562 E168.06564
G0 F18000 X1.5 Y3.498
G1 F2400 X1.499 Y-3.495 E168.35637
G0 F18000 X0.999 Y-3.429
G1 F2400 X1 Y3.432 E168.64162
G0 F18000 X0.5 Y3.367
G1 F2400 X0.499 Y-3.364 E168.92146
G0 F18000 X1.001 Y-3.985
G0 X2.381 Y-4.108
G0 X4.601 Y-5.027
G0 X6.508 Y-6.49
G0 X7.971 Y-8.397
G0 X8.89 Y-10.617
G0 X9.204 Y-12.999
G0 X9.026 Y-13.932
G0 X9.499 Y-14.519
G0 X9.499 Y-14.519
G1 F2400 X9.499 Y-24.584 E169.33992
G0 F18000 X9.999 Y-24.584
G1 F2400 X10 Y24.587 E171.38421
G0 F18000 X10.5 Y24.587
G1 F2400 X10.499 Y-24.584 E173.4285
G0 F18000 X10.999 Y-24.583
G1 F2400 X11 Y24.586 E175.47271
G0 F18000 X11.5 Y24.586
G1 F2400 X11.499 Y-24.583 E177.51692
G0 F18000 X12.149 Y-25.186
G1 F2400 X12.18 Y-25.213 E177.51732
G0 F18000 X8.999 Y-24.585
G1 F2400 X8.999 Y-16.401 E177.85757
G0 F18000 X8.499 Y-17.608
G1 F2400 X8.499 Y-24.585 E178.14764
G0 F18000 X7.999 Y-24.585
G1 F2400 X7.999 Y-18.369 E178.40607
G0 F18000 X7.499 Y-19.022
G1 F2400 X7.499 Y-24.586 E178.6374
G0 F18000 X6.999 Y-24.586
G1 F2400 X6.999 Y-19.674 E178.84161
G0 F18000 X6.499 Y-20.133
G1 F2400 X6.499 Y-24.586 E179.02675
G0 F18000 X5.999 Y-24.587
G1 F2400 X5.999 Y-20.516 E179.196
G0 F18000 X5.499 Y-20.9
G1 F2400 X5.499 Y-24.587 E179.34929
G0 F18000 X4.999 Y-24.587
G1 F2400 X4.999 Y-21.283 E179.48665
G0 F18000 X4.499 Y-21.544
G1 F2400 X4.499 Y-24.588 E179.61321
G0 F18000 X3.999 Y-24.588
G1 F2400 X3.999 Y-21.752 E179.73111
G0 F18000 X3.499 Y-21.959
G1 F2400 X3.499 Y-24.588 E179.84041
G0 F18000 X2.999 Y-24.589
G1 F2400 X2.999 Y-22.166 E179.94115
G0 F18000 X2.499 Y-22.37
G1 F2400 X2.499 Y-24.589 E180.03341
G0 F18000 X1.999 Y-24.589
G1 F2400 X1.999 Y-22.436 E180.12292
G0 F18000 X1.499 Y-22.502
G1 F2400 X1.499 Y-24.589 E180.20969
G0 F18000 X0.999 Y-24.59
G1 F2400 X0.999 Y-22.568 E180.29375
G0 F18000 X0.499 Y-22.633
G1 F2400 X0.499 Y-24.59 E180.37511
G0 F18000 X0 Y-24.59
G1 F2400 X0 Y-22.699 E180.45373
G0 F18000 X-0.5 Y-22.633
G1 F2400 X-0.5 Y-24.591 E180.53514
G0 F18000 X-1 Y-24.591
G1 F2400 X-1 Y-22.567 E180.61928
G0 F18000 X-1.5 Y-22.502
G1 F2400 X-1.5 Y-24.591 E180.70613
G0 F18000 X-2 Y-24.592
G1 F2400 X-2 Y-22.436 E180.79577
G0 F18000 X-2.5 Y-22.37
G1 F2400 X-2.5 Y-24.592 E180.88815
G0 F18000 X-3 Y-24.592
G1 F2400 X-3 Y-22.165 E180.98905
G0 F18000 X-3.5 Y-21.958
G1 F2400 X-3.5 Y-24.593 E181.0986
G0 F18000 X-4 Y-24.593
G1 F2400 X-4 Y-21.751 E181.21676
G0 F18000 X-4.5 Y-21.544
G1 F2400 X-4.5 Y-24.593 E181.34352
G0 F18000 X-5 Y-24.594
G1 F2400 X-5 Y-21.281 E181.48126
G0 F18000 X-5.5 Y-20.898
G1 F2400 X-5.5 Y-24.594 E181.63492
G0 F18000 X-6 Y-24.594
G1 F2400 X-6 Y-20.515 E181.80451
G0 F18000 X-6.5 Y-20.132
G1 F2400 X-6.5 Y-24.595 E181.99006
G0 F18000 X-7 Y-24.595
G1 F2400 X-7 Y-19.673 E182.19469
G0 F18000 X-7.5 Y-19.02
G1 F2400 X-7.5 Y-24.595 E182.42647
G0 F18000 X-8 Y-24.596
G1 F2400 X-8 Y-18.368 E182.6854
G0 F18000 X-8.5 Y-17.606
G1 F2400 X-8.5 Y-24.596 E182.97601
G0 F18000 X-9 Y-24.596
G1 F2400 X-9 Y-16.399 E183.31681
G0 F18000 X-10.5 Y-24.597
G0 X-10.5 Y-24.597
G1 F2400 X-10.499 Y24.6 E185.36218
G0 F18000 X-10.999 Y24.6
G1 F2400 X-11 Y-24.597 E187.40755
G0 F18000 X-11.5 Y-24.598
G1 F2400 X-11.499 Y24.601 E189.45301
G0 F18000 X12.018 Y25.181
G0 X12.417 Y25.191
G0 X12.154 Y25.185
G0 X12.154 Y25.185
G1 F2400 X12.203 Y25.183 E189.4548
G1 X12.206 Y25.11 E189.45552
; Layer Change GCode
; LAYER:2
G4 P0
M106 S255
G0 F18000 X-12.298 Y25.306 Z0.7
G0 X-12.698 Y25.309
G0 X-12.488 Y25.308
G0 X-12.488 Y25.308
G0 X-12.748 Y25.658
G0 X-12.748 Y25.658
G0 X-12.248 Y25.158
; TYPE:WALL-INNER
G1 F2400 X-12.248 Y25.158 E189.45552
G1 X-12.248 Y-25.155 E191.54729
G1 X12.036 Y-25.149 E192.5569
G1 X12.127 Y-25.083 E192.56158
G1 X12.157 Y-24.944 E192.56749
G1 X12.157 Y24.947 E194.64171
G1 X12.127 Y25.086 E194.64763
G1 X12.051 Y25.143 E194.65158
G1 X11.946 Y25.158 E194.65599
G1 X-12.248 Y25.158 E195.66186
G0 F18000 X-12.748 Y25.658
; TYPE:WALL-OUTER
G1 F2100 X-12.748 Y25.658 E195.66186
G1 X-12.748 Y-25.655 E197.7952
G1 X12.087 Y-25.649 E198.82772
G1 X12.205 Y-25.628 E198.8327
G1 X12.418 Y-25.508 E198.84287
G1 X12.551 Y-25.359 E198.85117
G1 X12.628 Y-25.188 E198.85897
G1 X12.657 Y-24.977 E198.86782
G1 X12.657 Y24.98 E200.94479
G1 X12.628 Y25.192 E200.95369
G1 X12.551 Y25.362 E200.96145
G1 X12.418 Y25.511 E200.96975
G1 X12.214 Y25.625 E200.97947
G1 X11.979 Y25.658 E200.98933
G1 X-12.748 Y25.658 E202.01736
G0 F18000 X-12.488 Y25.308
G0 X-6.545 Y19.546
G0 X-6.545 Y19.546
; TYPE:WALL-INNER
G1 F2400 X-6.545 Y19.546 E202.01736
G1 X-4.628 Y21.017 E202.11782
G1 X-2.395 Y21.942 E202.21831
G1 X0 Y22.257 E202.31874
G1 X2.395 Y21.942 E202.41917
G1 X4.627 Y21.017 E202.51962
G1 X6.545 Y19.546 E202.62011
G1 X8.016 Y17.629 E202.72057
G1 X8.941 Y15.396 E202.82106
G1 X9.255 Y13.001 E202.92149
G1 X8.941 Y10.605 E203.02195
G1 X8.016 Y8.373 E203.1224
G1 X6.545 Y6.455 E203.22289
G1 X4.628 Y4.984 E203.32335
G1 X2.395 Y4.059 E203.42384
G1 X0 Y3.745 E203.52427
G1 X-2.395 Y4.059 E203.62469
G1 X-4.627 Y4.984 E203.72514
G1 X-6.545 Y6.455 E203.82563
G1 X-8.016 Y8.373 E203.92612
G1 X-8.941 Y10.605 E204.02657
G1 X-9.255 Y13.001 E204.12704
G1 X-8.941 Y15.396 E204.22746
G1 X-8.016 Y17.628 E204.32791
G1 X-6.545 Y19.546 E204.42841
G0 F18000 X-5.891 Y19.802
G0 X-4.601 Y20.972
G0 X-2.381 Y21.891
G0 X-0.243 Y22.02
G0 X-0.046 Y22.099
G0 X-0.046 Y22.099
G0 X0 Y21.753
; TYPE:WALL-OUTER
G1 F2100 X0 Y21.753 E204.42841
G1 X2.264 Y21.455 E204.52334
G1 X4.375 Y20.58 E204.61835
G1 X6.188 Y19.189 E204.71336
G1 X7.579 Y17.377 E204.80833
G1 X8.454 Y15.265 E204.90337
G1 X8.751 Y13.001 E204.9983
G1 X8.454 Y10.736 E205.09328
G1 X7.579 Y8.625 E205.18828
G1 X6.188 Y6.812 E205.28329
G1 X4.376 Y5.421 E205.37826
G1 X2.264 Y4.546 E205.4733
G1 X0 Y4.249 E205.56824
G1 X-2.264 Y4.546 E205.66317
G1 X-4.375 Y5.421 E205.75818
G1 X-6.188 Y6.812 E205.85318
G1 X-7.579 Y8.625 E205.94819
G1 X-8.454 Y10.736 E206.04319
G1 X-8.751 Y13.001 E206.13817
G1 X-8.454 Y15.265 E206.2331
G1 X-7.579 Y17.376 E206.3281
G1 X-6.188 Y19.189 E206.42311
G1 X-4.376 Y20.58 E206.51808
G1 X-2.264 Y21.455 E206.61313
G1 X0 Y21.753 E206.70806
G1 F6600 E199.90806
G1 Z1
G0 F18000 X-0.046 Y22.099
G0 X-0.045 Y22.209
G0 X2.381 Y21.891
G0 X4.6 Y20.972
G0 X6.508 Y19.509
G0 X7.971 Y17.602
G0 X8.89 Y15.381
G0 X9.203 Y13.001
G0 X8.89 Y10.62
G0 X7.971 Y8.4
G0 X6.508 Y6.492
G0 X4.601 Y5.029
G0 X2.38 Y4.11
G0 X-0.012 Y3.794
G0 X0 Y-3.742
G0 X0 Y-3.742
; TYPE:WALL-INNER
G1 Z0.7
G1 F6600 E206.80806
G1 F2400 X0 Y-3.742 E206.80806
G1 X2.395 Y-4.057 E206.90849
G1 X4.628 Y-4.982 E207.00898
G1 X6.545 Y-6.453 E207.10944
G1 X8.016 Y-8.37 E207.2099
G1 X8.941 Y-10.603 E207.31039
G1 X9.256 Y-12.999 E207.41086
G1 X8.941 Y-15.394 E207.51129
G1 X8.016 Y-17.627 E207.61178
G1 X6.545 Y-19.544 E207.71224
G1 X4.628 Y-21.015 E207.8127
G1 X2.395 Y-21.94 E207.91318
G1 X0 Y-22.255 E208.01361
G1 X-2.395 Y-21.94 E208.11404
G1 X-4.627 Y-21.015 E208.21449
G1 X-6.545 Y-19.544 E208.31499
G1 X-8.016 Y-17.627 E208.41545
G1 X-8.941 Y-15.394 E208.51593
G1 X-9.256 Y-12.999 E208.61636
G1 X-8.941 Y-10.603 E208.71684
G1 X-8.016 Y-8.371 E208.81728
G1 X-6.545 Y-6.453 E208.91778
G1 X-4.628 Y-4.982 E209.01824
G1 X-2.395 Y-4.057 E209.11872
G1 X0 Y-3.742 E209.21915
G0 F18000 X0 Y-4.246
; TYPE:WALL-OUTER
G1 F2100 X0 Y-4.246 E209.21915
G1 X2.264 Y-4.544 E209.31409
G1 X4.376 Y-5.419 E209.40914
G1 X6.188 Y-6.81 E209.50411
G1 X7.579 Y-8.622 E209.59908
G1 X8.454 Y-10.734 E209.69413
G1 X8.752 Y-12.999 E209.7891
G1 X8.454 Y-15.263 E209.88404
G1 X7.579 Y-17.375 E209.97909
G1 X6.188 Y-19.187 E210.07406
G1 X4.376 Y-20.578 E210.16903
G1 X2.264 Y-21.453 E210.26407
G1 X0 Y-21.751 E210.35901
G1 X-2.264 Y-21.453 E210.45395
G1 X-4.375 Y-20.578 E210.54896
G1 X-6.188 Y-19.187 E210.64396
G1 X-7.579 Y-17.375 E210.73893
G1 X-8.454 Y-15.263 E210.83398
G1 X-8.752 Y-12.999 E210.92892
G1 X-8.454 Y-10.734 E211.0239
G1 X-7.579 Y-8.623 E211.1189
G1 X-6.188 Y-6.81 E211.21391
G1 X-4.376 Y-5.419 E211.30888
G1 X-2.264 Y-4.544 E211.40392
G1 X0 Y-4.246 E211.49886
G0 F18000 X-0.046 Y-3.9
G0 X1.535 Y-3.5
G0 X1.535 Y-3.5
; TYPE:FILL
G1 F2400 X11.717 Y-3.5 E211.92218
G0 F18000 X11.717 Y-4
G1 F2400 X3.407 Y-4 E212.26767
G0 F18000 X4.614 Y-4.5
G1 F2400 X11.717 Y-4.5 E212.56298
G0 F18000 X11.717 Y-5
G1 F2400 X5.373 Y-5 E212.82673
G0 F18000 X6.025 Y-5.5
G1 F2400 X11.717 Y-5.5 E213.06338
G0 F18000 X11.717 Y-6
G1 F2400 X6.678 Y-6 E213.27287
G0 F18000 X7.136 Y-6.5
G1 F2400 X11.717 Y-6.5 E213.46333
G0 F18000 X11.717 Y-7
G1 F2400 X7.519 Y-7 E213.63786
G0 F18000 X7.902 Y-7.5
G1 F2400 X11.717 Y-7.5 E213.79647
G0 F18000 X11.717 Y-8
G1 F2400 X8.286 Y-8 E213.93911
G0 F18000 X8.546 Y-8.5
G1 F2400 X11.717 Y-8.5 E214.07095
G0 F18000 X11.717 Y-9
G1 F2400 X8.754 Y-9 E214.19414
G0 F18000 X8.961 Y-9.5
G1 F2400 X11.717 Y-9.5 E214.30872
G0 F18000 X11.717 Y-10
G1 F2400 X9.168 Y-10 E214.41469
G0 F18000 X9.371 Y-10.5
G1 F2400 X11.717 Y-10.5 E214.51223
G0 F18000 X11.717 Y-11
G1 F2400 X9.437 Y-11 E214.60702
G0 F18000 X9.503 Y-11.5
G1 F2400 X11.717 Y-11.5 E214.69907
G0 F18000 X11.717 Y-12
G1 F2400 X9.569 Y-12 E214.78837
G0 F18000 X9.634 Y-12.5
G1 F2400 X11.717 Y-12.5 E214.87497
G0 F18000 X11.717 Y-13
G1 F2400 X9.7 Y-13 E214.95883
G0 F18000 X9.634 Y-13.5
G1 F2400 X11.717 Y-13.5 E215.04543
G0 F18000 X11.717 Y-14
G1 F2400 X9.568 Y-14 E215.13478
G0 F18000 X9.503 Y-14.5
G1 F2400 X11.717 Y-14.5 E215.22682
G0 F18000 X11.716 Y-15
G1 F2400 X9.436 Y-15 E215.32161
G0 F18000 X9.37 Y-15.5
G1 F2400 X11.716 Y-15.5 E215.41915
G0 F18000 X11.716 Y-16
G1 F2400 X9.166 Y-16 E215.52517
G0 F18000 X8.958 Y-16.5
G1 F2400 X11.716 Y-16.5 E215.63983
G0 F18000 X11.716 Y-17
G1 F2400 X8.751 Y-17 E215.7631
G0 F18000 X8.544 Y-17.5
G1 F2400 X11.716 Y-17.5 E215.89498
G0 F18000 X11.716 Y-18
G1 F2400 X8.282 Y-18 E216.03775
G0 F18000 X7.899 Y-18.5
G1 F2400 X11.716 Y-18.5 E216.19644
G0 F18000 X11.716 Y-19
G1 F2400 X7.516 Y-19 E216.37105
G0 F18000 X7.132 Y-19.5
G1 F2400 X11.716 Y-19.5 E216.56163
G0 F18000 X11.716 Y-20
G1 F2400 X6.673 Y-20 E216.7713
G0 F18000 X6.02 Y-20.5
G1 F2400 X11.716 Y-20.5 E217.00811
G0 F18000 X11.716 Y-21
G1 F2400 X5.368 Y-21 E217.27203
G0 F18000 X4.606 Y-21.5
G1 F2400 X11.716 Y-21.5 E217.56763
G0 F18000 X11.716 Y-22
G1 F2400 X3.399 Y-22 E217.91341
G0 F18000 X1.513 Y-22.5
G0 X1.513 Y-22.5
G1 F2400 X11.716 Y-22.5 E218.3376
G0 F18000 X11.716 Y-23
G1 F2400 X-11.807 Y-23 E219.31557
G0 F18000 X-11.807 Y-22.5
G1 F2400 X-1.513 Y-22.5 E219.74355
G0 F18000 X-3.399 Y-22
G0 X-3.399 Y-22
G1 F2400 X-11.807 Y-22 E220.09311
G0 F18000 X-11.807 Y-21.5
G1 F2400 X-4.605 Y-21.5 E220.39254
G0 F18000 X-5.367 Y-21
G1 F2400 X-11.807 Y-21 E220.66028
G0 F18000 X-11.807 Y-20.5
G1 F2400 X-6.02 Y-20.5 E220.90088
G0 F18000 X-6.673 Y-20
G1 F2400 X-11.807 Y-20 E221.11432
G0 F18000 X-11.807 Y-19.5
G1 F2400 X-7.132 Y-19.5 E221.30869
G0 F18000 X-7.516 Y-19
G1 F2400 X-11.807 Y-19 E221.48709
G0 F18000 X-11.807 Y-18.5
G1 F2400 X-7.899 Y-18.5 E221.64956
G0 F18000 X-8.282 Y-18
G1 F2400 X-11.807 Y-18 E221.79611
G0 F18000 X-11.807 Y-17.5
G1 F2400 X-8.544 Y-17.5 E221.93177
G0 F18000 X-8.751 Y-17
G1 F2400 X-11.807 Y-17 E222.05883
G0 F18000 X-11.807 Y-16.5
G1 F2400 X-8.958 Y-16.5 E222.17728
G0 F18000 X-9.166 Y-16
G1 F2400 X-11.807 Y-16 E222.28708
G0 F18000 X-11.807 Y-15.5
G1 F2400 X-9.37 Y-15.5 E222.38839
G0 F18000 X-9.436 Y-15
G1 F2400 X-11.807 Y-15 E222.48697
G0 F18000 X-11.807 Y-14.5
G1 F2400 X-9.502 Y-14.5 E222.5828
G0 F18000 X-9.568 Y-14
G1 F2400 X-11.807 Y-14 E222.67589
G0 F18000 X-11.807 Y-13.5
G1 F2400 X-9.634 Y-13.5 E222.76623
G0 F18000 X-9.7 Y-13
G1 F2400 X-11.807 Y-13 E222.85383
G0 F18000 X-11.807 Y-12.5
G1 F2400 X-9.634 Y-12.5 E222.94417
G0 F18000 X-9.569 Y-12
G1 F2400 X-11.807 Y-12 E223.03722
G0 F18000 X-11.807 Y-11.5
G1 F2400 X-9.503 Y-11.5 E223.13301
G0 F18000 X-9.437 Y-11
G1 F2400 X-11.807 Y-11 E223.23154
G0 F18000 X-11.807 Y-10.5
G1 F2400 X-9.372 Y-10.5 E223.33277
G0 F18000 X-9.168 Y-10
G1 F2400 X-11.807 Y-10 E223.44249
G0 F18000 X-11.807 Y-9.5
G1 F2400 X-8.96 Y-9.5 E223.56086
G0 F18000 X-8.753 Y-9
G1 F2400 X-11.807 Y-9 E223.68783
G0 F18000 X-11.807 Y-8.5
G1 F2400 X-8.546 Y-8.5 E223.8234
G0 F18000 X-8.285 Y-7.999
G1 F2400 X-11.807 Y-7.999 E223.96983
G0 F18000 X-11.807 Y-7.499
G1 F2400 X-7.902 Y-7.499 E224.13218
G0 F18000 X-7.519 Y-6.999
G1 F2400 X-11.807 Y-6.999 E224.31046
G0 F18000 X-11.807 Y-6.499
G1 F2400 X-7.136 Y-6.5 E224.50465
G0 F18000 X-6.678 Y-6
G1 F2400 X-11.807 Y-5.999 E224.71789
G0 F18000 X-11.807 Y-5.499
G1 F2400 X-6.025 Y-5.5 E224.95828
G0 F18000 X-5.373 Y-5
G1 F2400 X-11.807 Y-4.999 E225.22578
G0 F18000 X-11.807 Y-4.499
G1 F2400 X-4.614 Y-4.5 E225.52483
G0 F18000 X-3.408 Y-4
G1 F2400 X-11.807 Y-3.999 E225.87402
G0 F18000 X-11.807 Y-3.499
G1 F2400 X-1.536 Y-3.5 E226.30103
G0 F18000 X-1.517 Y3.5
G0 X-1.517 Y3.5
G1 F2400 X-11.808 Y3.5 E226.72888
G0 F18000 X-11.808 Y4
G1 F2400 X-3.401 Y4 E227.07841
G0 F18000 X-4.609 Y4.5
G1 F2400 X-11.808 Y4.5 E227.37771
G0 F18000 X-11.808 Y5
G1 F2400 X-5.37 Y5 E227.64537
G0 F18000 X-6.022 Y5.5
G1 F2400 X-11.808 Y5.5 E227.88592
G0 F18000 X-11.808 Y6
G1 F2400 X-6.675 Y6 E228.09933
G0 F18000 X-7.134 Y6.5
G1 F2400 X-11.808 Y6.5 E228.29365
G0 F18000 X-11.808 Y7
G1 F2400 X-7.517 Y7 E228.47205
G0 F18000 X-7.9 Y7.5
G1 F2400 X-11.808 Y7.5 E228.63452
G0 F18000 X-11.808 Y8
G1 F2400 X-8.284 Y8 E228.78103
G0 F18000 X-8.545 Y8.5
G1 F2400 X-11.808 Y8.5 E228.91669
G0 F18000 X-11.808 Y9
G1 F2400 X-8.752 Y9 E229.04375
G0 F18000 X-8.96 Y9.5
G1 F2400 X-11.808 Y9.5 E229.16215
G0 F18000 X-11.808 Y10
G1 F2400 X-9.167 Y10 E229.27195
G0 F18000 X-9.371 Y10.5
G1 F2400 X-11.808 Y10.5 E229.37327
G0 F18000 X-11.808 Y11
G1 F2400 X-9.437 Y11 E229.47185
G0 F18000 X-9.502 Y11.5
G1 F2400 X-11.808 Y11.5 E229.56772
G0 F18000 X-11.808 Y12
G1 F2400 X-9.568 Y12 E229.66085
G0 F18000 X-9.633 Y12.5
G1 F2400 X-11.808 Y12.5 E229.75127
G0 F18000 X-11.808 Y13
G1 F2400 X-9.699 Y13 E229.83896
G0 F18000 X-9.634 Y13.5
G1 F2400 X-11.808 Y13.5 E229.92934
G0 F18000 X-11.808 Y14
G1 F2400 X-9.568 Y14 E230.02247
G0 F18000 X-9.502 Y14.5
G1 F2400 X-11.808 Y14.5 E230.11834
G0 F18000 X-11.807 Y15
G1 F2400 X-9.436 Y15 E230.21692
G0 F18000 X-9.37 Y15.5
G1 F2400 X-11.807 Y15.5 E230.31823
G0 F18000 X-11.807 Y16
G1 F2400 X-9.166 Y16 E230.42803
G0 F18000 X-8.959 Y16.5
G1 F2400 X-11.807 Y16.5 E230.54644
G0 F18000 X-11.807 Y17
G1 F2400 X-8.752 Y17 E230.67345
G0 F18000 X-8.544 Y17.5
G1 F2400 X-11.807 Y17.5 E230.80911
G0 F18000 X-11.807 Y18
G1 F2400 X-8.283 Y18 E230.95562
G0 F18000 X-7.9 Y18.5
G1 F2400 X-11.807 Y18.5 E231.11806
G0 F18000 X-11.807 Y19
G1 F2400 X-7.517 Y19 E231.29642
G0 F18000 X-7.134 Y19.5
G1 F2400 X-11.807 Y19.5 E231.4907
G0 F18000 X-11.807 Y20
G1 F2400 X-6.675 Y20 E231.70406
G0 F18000 X-6.023 Y20.5
G1 F2400 X-11.807 Y20.5 E231.94453
G0 F18000 X-11.807 Y21
G1 F2400 X-5.371 Y21 E232.21211
G0 F18000 X-4.611 Y21.5
G1 F2400 X-11.807 Y21.5 E232.51128
G0 F18000 X-11.807 Y22
G1 F2400 X-3.404 Y22 E232.86064
G0 F18000 X-1.528 Y22.5
G0 X-1.528 Y22.5
G1 F2400 X-11.807 Y22.5 E233.28799
G0 F18000 X-11.807 Y23
G1 F2400 X11.716 Y23 E234.26596
G0 F18000 X11.716 Y22.5
G1 F2400 X1.528 Y22.5 E234.68953
G0 F18000 X3.404 Y22
G0 X3.404 Y22
G1 F2400 X11.716 Y22 E235.0351
G0 F18000 X11.716 Y21.5
G1 F2400 X4.61 Y21.5 E235.33054
G0 F18000 X5.37 Y21
G1 F2400 X11.716 Y21 E235.59437
G0 F18000 X11.716 Y20.5
G1 F2400 X6.023 Y20.5 E235.83106
G0 F18000 X6.675 Y20
G1 F2400 X11.716 Y20 E236.04064
G0 F18000 X11.716 Y19.5
G1 F2400 X7.134 Y19.5 E236.23114
G0 F18000 X7.517 Y19
G1 F2400 X11.716 Y19 E236.40571
G0 F18000 X11.716 Y18.5
G1 F2400 X7.9 Y18.5 E236.56436
G0 F18000 X8.284 Y18
G1 F2400 X11.716 Y18 E236.70705
G0 F18000 X11.716 Y17.5
G1 F2400 X8.545 Y17.5 E236.83888
G0 F18000 X8.752 Y17
G1 F2400 X11.716 Y17 E236.96211
G0 F18000 X11.716 Y16.5
G1 F2400 X8.959 Y16.5 E237.07674
G0 F18000 X9.166 Y16
G1 F2400 X11.716 Y16 E237.18275
G0 F18000 X11.716 Y15.5
G1 F2400 X9.37 Y15.5 E237.28029
G0 F18000 X9.436 Y15
G1 F2400 X11.716 Y15 E237.37508
G0 F18000 X11.716 Y14.5
G1 F2400 X9.502 Y14.5 E237.46713
G0 F18000 X9.568 Y14
G1 F2400 X11.716 Y14 E237.55643
G0 F18000 X11.716 Y13.5
G1 F2400 X9.633 Y13.5 E237.64303
G0 F18000 X9.699 Y13
G1 F2400 X11.716 Y13 E237.72689
G0 F18000 X11.716 Y12.5
G1 F2400 X9.633 Y12.5 E237.81349
G0 F18000 X9.568 Y12
G1 F2400 X11.716 Y12 E237.90279
G0 F18000 X11.716 Y11.5
G1 F2400 X9.502 Y11.5 E237.99484
G0 F18000 X9.437 Y11
G1 F2400 X11.716 Y11 E238.08959
G0 F18000 X11.716 Y10.5
G1 F2400 X9.371 Y10.5 E238.18708
G0 F18000 X9.167 Y10
G1 F2400 X11.716 Y10 E238.29306
G0 F18000 X11.716 Y9.5
G1 F2400 X8.959 Y9.5 E238.40768
G0 F18000 X8.752 Y9
G1 F2400 X11.716 Y9 E238.53091
G0 F18000 X11.716 Y8.5
G1 F2400 X8.545 Y8.5 E238.66275
G0 F18000 X8.283 Y7.999
G1 F2400 X11.716 Y7.999 E238.80547
G0 F18000 X11.716 Y7.499
G1 F2400 X7.9 Y7.499 E238.96412
G0 F18000 X7.517 Y6.999
G1 F2400 X11.716 Y6.999 E239.1387
G0 F18000 X11.716 Y6.499
G1 F2400 X7.134 Y6.5 E239.3292
G0 F18000 X6.675 Y6
G1 F2400 X11.716 Y5.999 E239.53878
G0 F18000 X11.716 Y5.499
G1 F2400 X6.023 Y5.5 E239.77546
G0 F18000 X5.37 Y5
G1 F2400 X11.716 Y4.999 E240.0393
G0 F18000 X11.716 Y4.499
G1 F2400 X4.609 Y4.5 E240.33477
G0 F18000 X3.402 Y4
G1 F2400 X11.716 Y3.999 E240.68043
G0 F18000 X11.716 Y3.499
G1 F2400 X1.518 Y3.5 E241.10441
G0 F18000 X11.716 Y2.999
G0 X11.716 Y2.999
G1 F2400 X-11.808 Y3 E242.08243
G0 F18000 X-11.808 Y2.5
G1 F2400 X11.716 Y2.499 E243.06044
G0 F18000 X11.716 Y1.999
G1 F2400 X-11.808 Y2 E244.03846
G0 F18000 X-11.808 Y1.5
G1 F2400 X11.716 Y1.499 E245.01647
G0 F18000 X11.716 Y0.999
G1 F2400 X-11.808 Y1 E245.99448
G0 F18000 X-11.808 Y0.5
G1 F2400 X11.716 Y0.499 E246.9725
G0 F18000 X11.717 Y0
G1 F2400 X-11.807 Y0 E247.95051
G0 F18000 X-11.807 Y-0.499
G1 F2400 X11.717 Y-0.5 E248.92853
G0 F18000 X11.717 Y-1
G1 F2400 X-11.807 Y-0.999 E249.90654
G0 F18000 X-11.807 Y-1.499
G1 F2400 X11.717 Y-1.5 E250.88456
G0 F18000 X11.717 Y-2
G1 F2400 X-11.807 Y-1.999 E251.86257
G0 F18000 X-11.807 Y-2.499
G1 F2400 X11.717 Y-2.5 E252.84058
G0 F18000 X11.717 Y-3
G1 F2400 X-11.807 Y-2.999 E253.8186
G0 F18000 X-11.807 Y-23.5
G0 X-11.807 Y-23.5
G1 F2400 X11.716 Y-23.5 E254.79657
G0 F18000 X11.716 Y-24
G1 F2400 X-11.807 Y-24 E255.77454
G0 F18000 X-11.807 Y-24.5
G1 F2400 X11.716 Y-24.5 E256.75252
G0 F18000 X12.333 Y-25.137
G1 F2400 X12.331 Y-25.216 E256.7543
G1 X12.226 Y-25.281 E256.75647
G1 X12.186 Y-25.351 E256.7576
G0 F18000 X11.716 Y23.5
G0 X11.716 Y23.5
G1 F2400 X-11.807 Y23.5 E257.73557
G0 F18000 X-11.807 Y24
G1 F2400 X11.716 Y24 E258.71354
G0 F18000 X11.716 Y24.5
G1 F2400 X-11.807 Y24.5 E259.69152
G0 F18000 X12.049 Y25.311
G0 X12.449 Y25.324
G0 X12.153 Y25.315
G0 X12.153 Y25.315
G1 F2400 X12.226 Y25.3 E259.69377
G1 X12.331 Y25.219 E259.6956
G1 X12.333 Y25.14 E259.69634
; Layer Change GCode
; LAYER:3
G0 F18000 X-12.297 Y25.462 Z0.9
G0 X-12.697 Y25.467
G0 X-12.398 Y25.464
G0 X-12.398 Y25.464
G0 X-12.748 Y25.724
G0 X-12.748 Y25.724
G0 X-12.248 Y25.224
; TYPE:WALL-INNER
G1 F2400 X-12.248 Y25.224 E259.69634
G1 X-12.248 Y-25.221 E261.7936
G1 X12.039 Y-25.213 E262.80333
G1 X12.104 Y-25.191 E262.80619
G1 X12.186 Y-25.115 E262.81083
G1 X12.209 Y-25.059 E262.81335
G1 X12.223 Y-24.949 E262.81796
G1 X12.223 Y24.953 E264.89265
G1 X12.194 Y25.098 E264.89879
G1 X12.106 Y25.193 E264.90418
G1 X12.039 Y25.216 E264.90712
G1 X-12.248 Y25.224 E265.91686
G0 F18000 X-12.748 Y25.724
; TYPE:WALL-OUTER
G1 F2100 X-12.748 Y25.724 E265.91686
G1 X-12.748 Y-25.721 E268.05569
G1 X12.12 Y-25.713 E269.08958
G1 X12.338 Y-25.639 E269.09916
G1 X12.51 Y-25.512 E269.10804
G1 X12.62 Y-25.371 E269.11548
G1 X12.696 Y-25.189 E269.12368
G1 X12.723 Y-24.981 E269.1324
G1 X12.723 Y24.985 E271.20974
G1 X12.696 Y25.195 E271.21855
G1 X12.632 Y25.346 E271.22537
G1 X12.498 Y25.528 E271.23476
G1 X12.339 Y25.642 E271.2429
G1 X12.12 Y25.716 E271.25251
G1 X-12.748 Y25.724 E272.2864
G0 F18000 X-12.398 Y25.464
G0 X-6.545 Y19.546
G0 X-6.545 Y19.546
; TYPE:WALL-INNER
G1 F2400 X-6.545 Y19.546 E272.2864
G1 X-4.628 Y21.017 E272.38686
G1 X-2.395 Y21.942 E272.48735
G1 X0 Y22.257 E272.58778
G1 X2.395 Y21.942 E272.68821
G1 X4.627 Y21.017 E272.78865
G1 X6.545 Y19.546 E272.88915
G1 X8.016 Y17.629 E272.98961
G1 X8.941 Y15.396 E273.09009
G1 X9.255 Y13.001 E273.19052
G1 X8.941 Y10.605 E273.29099
G1 X8.016 Y8.373 E273.39143
G1 X6.545 Y6.455 E273.49193
G1 X4.628 Y4.984 E273.59239
G1 X2.395 Y4.059 E273.69287
G1 X0 Y3.745 E273.7933
G1 X-2.395 Y4.059 E273.89372
G1 X-4.627 Y4.984 E273.99417
G1 X-6.545 Y6.455 E274.09467
G1 X-8.016 Y8.373 E274.19516
G1 X-8.941 Y10.605 E274.29561
G1 X-9.255 Y13.001 E274.39607
G1 X-8.941 Y15.396 E274.4965
G1 X-8.016 Y17.628 E274.59695
G1 X-6.545 Y19.546 E274.69744
G0 F18000 X-5.891 Y19.802
G0 X-4.601 Y20.972
G0 X-2.381 Y21.891
G0 X-0.243 Y22.02
G0 X-0.046 Y22.099
G0 X-0.046 Y22.099
G0 X0 Y21.753
; TYPE:WALL-OUTER
G1 F2100 X0 Y21.753 E274.69744
G1 X2.264 Y21.455 E274.79238
G1 X4.375 Y20.58 E274.88738
G1 X6.188 Y19.189 E274.98239
G1 X7.579 Y17.377 E275.07736
G1 X8.454 Y15.265 E275.17241
G1 X8.751 Y13.001 E275.26734
G1 X8.454 Y10.736 E275.36231
G1 X7.579 Y8.625 E275.45732
G1 X6.188 Y6.812 E275.55232
G1 X4.376 Y5.421 E275.64729
G1 X2.264 Y4.546 E275.74234
G1 X0 Y4.249 E275.83727
G1 X-2.264 Y4.546 E275.9322
G1 X-4.375 Y5.421 E276.02721
G1 X-6.188 Y6.812 E276.12221
G1 X-7.579 Y8.625 E276.21722
G1 X-8.454 Y10.736 E276.31223
G1 X-8.751 Y13.001 E276.4072
G1 X-8.454 Y15.265 E276.50213
G1 X-7.579 Y17.376 E276.59714
G1 X-6.188 Y19.189 E276.69214
G1 X-4.376 Y20.58 E276.78711
G1 X-2.264 Y21.455 E276.88216
G1 X0 Y21.753 E276.9771
G1 F6600 E270.1771
G1 Z1.2
G0 F18000 X-0.046 Y22.099
G0 X-0.045 Y22.209
G0 X2.381 Y21.891
G0 X4.6 Y20.972
G0 X6.508 Y19.509
G0 X7.971 Y17.602
G0 X8.89 Y15.381
G0 X9.203 Y13.001
G0 X8.89 Y10.62
G0 X7.971 Y8.4
G0 X6.508 Y6.492
G0 X4.601 Y5.029
G0 X2.38 Y4.11
G0 X-0.012 Y3.794
G0 X0 Y-3.742
G0 X0 Y-3.742
; TYPE:WALL-INNER
G1 Z0.9
G1 F6600 E277.0771
G1 F2400 X0 Y-3.742 E277.0771
G1 X2.395 Y-4.057 E277.17753
G1 X4.628 Y-4.982 E277.27801
G1 X6.545 Y-6.453 E277.37847
G1 X8.016 Y-8.37 E277.47893
G1 X8.941 Y-10.603 E277.57942
G1 X9.256 Y-12.999 E277.67989
G1 X8.941 Y-15.394 E277.78032
G1 X8.016 Y-17.627 E277.88081
G1 X6.545 Y-19.544 E277.98127
G1 X4.628 Y-21.015 E278.08173
G1 X2.395 Y-21.94 E278.18222
G1 X0 Y-22.255 E278.28265
G1 X-2.395 Y-21.94 E278.38308
G1 X-4.627 Y-21.015 E278.48353
G1 X-6.545 Y-19.544 E278.58402
G1 X-8.016 Y-17.627 E278.68448
G1 X-8.941 Y-15.394 E278.78497
G1 X-9.256 Y-12.999 E278.8854
G1 X-8.941 Y-10.603 E278.98587
G1 X-8.016 Y-8.371 E279.08632
G1 X-6.545 Y-6.453 E279.18681
G1 X-4.628 Y-4.982 E279.28727
G1 X-2.395 Y-4.057 E279.38776
G1 X0 Y-3.742 E279.48819
G0 F18000 X0 Y-4.246
; TYPE:WALL-OUTER
G1 F2100 X0 Y-4.246 E279.48819
G1 X2.264 Y-4.544 E279.58313
G1 X4.376 Y-5.419 E279.67817
G1 X6.188 Y-6.81 E279.77314
G1 X7.579 Y-8.622 E279.86811
G1 X8.454 Y-10.734 E279.96316
G1 X8.752 Y-12.999 E280.05814
G1 X8.454 Y-15.263 E280.15308
G1 X7.579 Y-17.375 E280.24812
G1 X6.188 Y-19.187 E280.34309
G1 X4.376 Y-20.578 E280.43806
G1 X2.264 Y-21.453 E280.53311
G1 X0 Y-21.751 E280.62805
G1 X-2.264 Y-21.453 E280.72298
G1 X-4.375 Y-20.578 E280.81799
G1 X-6.188 Y-19.187 E280.913
G1 X-7.579 Y-17.375 E281.00797
G1 X-8.454 Y-15.263 E281.10301
G1 X-8.752 Y-12.999 E281.19795
G1 X-8.454 Y-10.734 E281.29293
G1 X-7.579 Y-8.623 E281.38794
G1 X-6.188 Y-6.81 E281.48294
G1 X-4.376 Y-5.419 E281.57791
G1 X-2.264 Y-4.544 E281.67296
G1 X0 Y-4.246 E281.76789
G0 F18000 X0 Y-3.298
; TYPE:FILL
G1 F2400 X0 Y3.301 E282.04225
G0 F18000 X-0.499 Y3.366
G1 F2400 X-0.5 Y-3.364 E282.32205
G0 F18000 X-1 Y-3.43
G1 F2400 X-0.999 Y3.432 E282.60734
G0 F18000 X-1.499 Y3.497
G1 F2400 X-1.5 Y-3.495 E282.89803
G0 F18000 X-2 Y-3.56
G1 F2400 X-1.999 Y3.562 E283.19413
G0 F18000 X-2.499 Y3.628
G1 F2400 X-2.5 Y-3.626 E283.49572
G0 F18000 X-3 Y-3.83
G1 F2400 X-2.999 Y3.832 E283.81427
G0 F18000 X-3.499 Y4.04
G1 F2400 X-3.5 Y-4.038 E284.15011
G0 F18000 X-4 Y-4.245
G1 F2400 X-3.999 Y4.247 E284.50317
G0 F18000 X-4.499 Y4.454
G1 F2400 X-4.5 Y-4.452 E284.87343
G0 F18000 X-5 Y-4.714
G1 F2400 X-4.999 Y4.716 E285.26549
G0 F18000 X-5.499 Y5.099
G1 F2400 X-5.5 Y-5.097 E285.68939
G0 F18000 X-6 Y-5.48
G1 F2400 X-5.999 Y5.482 E286.14514
G0 F18000 X-6.499 Y5.865
G1 F2400 X-6.5 Y-5.864 E286.63277
G0 F18000 X-7 Y-6.323
G1 F2400 X-6.999 Y6.324 E287.15857
G0 F18000 X-7.499 Y6.977
G1 F2400 X-7.5 Y-6.976 E287.73867
G0 F18000 X-8 Y-7.629
G1 F2400 X-7.999 Y7.629 E288.37302
G0 F18000 X-8.499 Y8.39
G1 F2400 X-8.5 Y-8.391 E289.0707
G0 F18000 X-9 Y-9.597
G1 F2400 X-8.999 Y9.597 E289.86869
G0 F18000 X-9.499 Y11.482
G0 X-9.499 Y11.482
G1 F2400 X-9.5 Y-11.484 E290.82351
G0 F18000 X-9.5 Y-14.512
G0 X-9.5 Y-14.512
G1 F2400 X-9.5 Y-24.78 E291.2504
G0 F18000 X-10 Y-24.78
G1 F2400 X-9.999 Y24.783 E293.31099
G0 F18000 X-9.499 Y24.783
G1 F2400 X-9.499 Y14.518 E293.73776
G0 F18000 X-8.999 Y16.402
G0 X-8.999 Y16.402
G1 F2400 X-8.999 Y24.783 E294.0862
G0 F18000 X-8.499 Y24.783
G1 F2400 X-8.499 Y17.609 E294.38446
G0 F18000 X-7.999 Y18.371
G1 F2400 X-7.999 Y24.783 E294.65104
G0 F18000 X-7.499 Y24.783
G1 F2400 X-7.499 Y19.023 E294.89051
G0 F18000 X-6.999 Y19.676
G1 F2400 X-6.999 Y24.782 E295.1028
G0 F18000 X-6.499 Y24.782
G1 F2400 X-6.499 Y20.135 E295.296
G0 F18000 X-5.999 Y20.518
G1 F2400 X-5.999 Y24.782 E295.47327
G0 F18000 X-5.499 Y24.782
G1 F2400 X-5.499 Y20.902 E295.63459
G0 F18000 X-4.999 Y21.285
G1 F2400 X-4.999 Y24.782 E295.77997
G0 F18000 X-4.499 Y24.782
G1 F2400 X-4.499 Y21.546 E295.91451
G0 F18000 X-3.999 Y21.754
G1 F2400 X-3.999 Y24.781 E296.04036
G0 F18000 X-3.499 Y24.781
G1 F2400 X-3.499 Y21.961 E296.1576
G0 F18000 X-2.999 Y22.168
G1 F2400 X-2.999 Y24.781 E296.26624
G0 F18000 X-2.499 Y24.781
G1 F2400 X-2.499 Y22.372 E296.36639
G0 F18000 X-1.999 Y22.438
G1 F2400 X-1.999 Y24.781 E296.4638
G0 F18000 X-1.499 Y24.781
G1 F2400 X-1.499 Y22.504 E296.55847
G0 F18000 X-0.999 Y22.57
G1 F2400 X-0.999 Y24.78 E296.65035
G0 F18000 X-0.499 Y24.78
G1 F2400 X-0.499 Y22.635 E296.73953
G0 F18000 X0 Y22.701
G1 F2400 X0 Y24.78 E296.82596
G0 F18000 X0.5 Y24.78
G1 F2400 X0.5 Y22.635 E296.91514
G0 F18000 X1 Y22.569
G1 F2400 X1 Y24.78 E297.00706
G0 F18000 X1.5 Y24.779
G1 F2400 X1.5 Y22.504 E297.10165
G0 F18000 X2 Y22.438
G1 F2400 X2 Y24.779 E297.19898
G0 F18000 X2.5 Y24.779
G1 F2400 X2.5 Y22.372 E297.29905
G0 F18000 X3 Y22.167
G1 F2400 X3 Y24.779 E297.40764
G0 F18000 X3.5 Y24.779
G1 F2400 X3.5 Y21.96 E297.52484
G0 F18000 X4 Y21.753
G1 F2400 X4 Y24.779 E297.65065
G0 F18000 X4.5 Y24.778
G1 F2400 X4.5 Y21.546 E297.78502
G0 F18000 X5 Y21.283
G1 F2400 X5 Y24.778 E297.93032
G0 F18000 X5.5 Y24.778
G1 F2400 X5.5 Y20.9 E298.09155
G0 F18000 X6 Y20.517
G1 F2400 X6 Y24.778 E298.2687
G0 F18000 X6.5 Y24.778
G1 F2400 X6.5 Y20.134 E298.46178
G0 F18000 X7 Y19.675
G1 F2400 X7 Y24.778 E298.67394
G0 F18000 X7.5 Y24.777
G1 F2400 X7.5 Y19.022 E298.9132
G0 F18000 X8 Y18.37
G1 F2400 X8 Y24.777 E299.17957
G0 F18000 X8.5 Y24.777
G1 F2400 X8.5 Y17.608 E299.47763
G0 F18000 X9 Y16.401
G1 F2400 X9 Y24.777 E299.82586
G0 F18000 X9.5 Y24.777
G1 F2400 X9.5 Y14.51 E300.25271
G0 F18000 X9.5 Y11.489
G0 X9.5 Y11.489
G1 F2400 X9.499 Y-11.477 E301.20753
G0 F18000 X8.999 Y-9.595
G0 X8.999 Y-9.595
G1 F2400 X9 Y9.6 E302.00556
G0 F18000 X8.5 Y8.393
G1 F2400 X8.499 Y-8.388 E302.70324
G0 F18000 X7.999 Y-7.627
G1 F2400 X8 Y7.631 E303.33759
G0 F18000 X7.5 Y6.978
G1 F2400 X7.499 Y-6.974 E303.91765
G0 F18000 X6.999 Y-6.322
G1 F2400 X7 Y6.325 E304.44345
G0 F18000 X6.5 Y5.866
G1 F2400 X6.499 Y-5.863 E304.93108
G0 F18000 X5.999 Y-5.48
G1 F2400 X6 Y5.482 E305.38683
G0 F18000 X5.5 Y5.099
G1 F2400 X5.499 Y-5.096 E305.81069
G0 F18000 X4.999 Y-4.713
G1 F2400 X5 Y4.716 E306.2027
G0 F18000 X4.5 Y4.454
G1 F2400 X4.499 Y-4.452 E306.57297
G0 F18000 X3.999 Y-4.244
G1 F2400 X4 Y4.247 E306.92599
G0 F18000 X3.5 Y4.04
G1 F2400 X3.499 Y-4.037 E307.26179
G0 F18000 X2.999 Y-3.83
G1 F2400 X3 Y3.833 E307.58038
G0 F18000 X2.5 Y3.628
G1 F2400 X2.499 Y-3.626 E307.88196
G0 F18000 X1.999 Y-3.56
G1 F2400 X2 Y3.562 E308.17806
G0 F18000 X1.5 Y3.498
G1 F2400 X1.499 Y-3.495 E308.4688
G0 F18000 X0.999 Y-3.429
G1 F2400 X1 Y3.432 E308.75405
G0 F18000 X0.5 Y3.367
G1 F2400 X0.499 Y-3.364 E309.03389
G0 F18000 X1.001 Y-3.985
G0 X2.381 Y-4.108
G0 X4.601 Y-5.027
G0 X6.508 Y-6.49
G0 X7.971 Y-8.397
G0 X8.89 Y-10.617
G0 X9.204 Y-12.999
G0 X9.026 Y-13.932
G0 X9.499 Y-14.519
G0 X9.499 Y-14.519
G1 F2400 X9.499 Y-24.774 E309.46024
G0 F18000 X8.999 Y-24.774
G1 F2400 X8.999 Y-16.401 E309.80835
G0 F18000 X8.499 Y-17.608
G1 F2400 X8.499 Y-24.774 E310.10628
G0 F18000 X7.999 Y-24.774
G1 F2400 X7.999 Y-18.369 E310.37257
G0 F18000 X7.499 Y-19.022
G1 F2400 X7.499 Y-24.774 E310.61171
G0 F18000 X6.999 Y-24.775
G1 F2400 X6.999 Y-19.674 E310.82378
G0 F18000 X6.499 Y-20.133
G1 F2400 X6.499 Y-24.775 E311.01677
G0 F18000 X5.999 Y-24.775
G1 F2400 X5.999 Y-20.516 E311.19384
G0 F18000 X5.499 Y-20.9
G1 F2400 X5.499 Y-24.775 E311.35495
G0 F18000 X4.999 Y-24.775
G1 F2400 X4.999 Y-21.283 E311.50013
G0 F18000 X4.499 Y-21.544
G1 F2400 X4.499 Y-24.775 E311.63446
G0 F18000 X3.999 Y-24.776
G1 F2400 X3.999 Y-21.752 E311.76018
G0 F18000 X3.499 Y-21.959
G1 F2400 X3.499 Y-24.776 E311.8773
G0 F18000 X2.999 Y-24.776
G1 F2400 X2.999 Y-22.166 E311.98581
G0 F18000 X2.499 Y-22.37
G1 F2400 X2.499 Y-24.776 E312.08584
G0 F18000 X1.999 Y-24.776
G1 F2400 X1.999 Y-22.436 E312.18312
G0 F18000 X1.499 Y-22.502
G1 F2400 X1.499 Y-24.776 E312.27767
G0 F18000 X0.999 Y-24.777
G1 F2400 X0.999 Y-22.568 E312.36951
G0 F18000 X0.499 Y-22.633
G1 F2400 X0.499 Y-24.777 E312.45864
G0 F18000 X0 Y-24.777
G1 F2400 X0 Y-22.699 E312.54504
G0 F18000 X-0.5 Y-22.633
G1 F2400 X-0.5 Y-24.777 E312.63417
G0 F18000 X-1 Y-24.777
G1 F2400 X-1 Y-22.567 E312.72605
G0 F18000 X-1.5 Y-22.502
G1 F2400 X-1.5 Y-24.778 E312.82068
G0 F18000 X-2 Y-24.778
G1 F2400 X-2 Y-22.436 E312.91805
G0 F18000 X-2.5 Y-22.37
G1 F2400 X-2.5 Y-24.778 E313.01816
G0 F18000 X-3 Y-24.778
G1 F2400 X-3 Y-22.165 E313.1268
G0 F18000 X-3.5 Y-21.958
G1 F2400 X-3.5 Y-24.778 E313.24404
G0 F18000 X-4 Y-24.778
G1 F2400 X-4 Y-21.751 E313.36989
G0 F18000 X-4.5 Y-21.544
G1 F2400 X-4.5 Y-24.779 E313.50438
G0 F18000 X-5 Y-24.779
G1 F2400 X-5 Y-21.281 E313.64981
G0 F18000 X-5.5 Y-20.898
G1 F2400 X-5.5 Y-24.779 E313.81117
G0 F18000 X-6 Y-24.779
G1 F2400 X-6 Y-20.515 E313.98844
G0 F18000 X-6.5 Y-20.132
G1 F2400 X-6.5 Y-24.779 E314.18164
G0 F18000 X-7 Y-24.779
G1 F2400 X-7 Y-19.673 E314.39392
G0 F18000 X-7.5 Y-19.02
G1 F2400 X-7.5 Y-24.78 E314.6334
G0 F18000 X-8 Y-24.78
G1 F2400 X-8 Y-18.368 E314.89998
G0 F18000 X-8.5 Y-17.606
G1 F2400 X-8.5 Y-24.78 E315.19824
G0 F18000 X-9 Y-24.78
G1 F2400 X-9 Y-16.399 E315.54668
G0 F18000 X-10.5 Y-24.781
G0 X-10.5 Y-24.781
G1 F2400 X-10.499 Y24.784 E317.60735
G0 F18000 X-10.999 Y24.784
G1 F2400 X-11 Y-24.781 E319.66803
G0 F18000 X-11.5 Y-24.781
G1 F2400 X-11.499 Y24.784 E321.7287
G0 F18000 X10 Y24.777
G0 X10 Y24.777
G1 F2400 X9.999 Y-24.774 E323.78879
G0 F18000 X10.499 Y-24.773
G1 F2400 X10.5 Y24.776 E325.8488
G0 F18000 X11 Y24.776
G1 F2400 X10.999 Y-24.773 E327.90881
G0 F18000 X11.499 Y-24.773
G1 F2400 X11.5 Y24.776 E329.96881
G0 F18000 X12.245 Y25.344
G1 F2400 X12.305 Y25.326 E329.97074
G1 X12.399 Y25.23 E329.97198
G1 X12.396 Y25.159 E329.9726
G0 F18000 X12.404 Y-25.147
G0 X12.404 Y-25.147
G1 F2400 X12.398 Y-25.235 E329.97443
G1 X12.308 Y-25.321 E329.97589
G1 X12.24 Y-25.353 E329.97677
; Layer Change GCode
; LAYER:4
G1 F6600 E323.17677
G1 Z1.2
G0 F18000 X8.168 Y-16.995 Z1.4
G0 X8.89 Y-15.38
G0 X9.204 Y-12.999
G0 X8.89 Y-10.617
G0 X7.971 Y-8.397
G0 X6.508 Y-6.49
G0 X4.601 Y-5.027
G0 X2.381 Y-4.108
G0 X1.871 Y-4.072
G0 X-2.113 Y4.106
G0 X-2.38 Y4.11
G0 X-4.6 Y5.029
G0 X-6.508 Y6.492
G0 X-7.971 Y8.4
G0 X-8.89 Y10.62
G0 X-9.203 Y13.001
G0 X-8.89 Y15.381
G0 X-8.271 Y16.746
G0 X-12.488 Y25.4
G0 X-12.488 Y25.4
G0 X-12.748 Y25.75
G0 X-12.748 Y25.75
G0 X-12.248 Y25.25
; TYPE:WALL-INNER
G1 Z1.1
G1 F6600 E330.07677
G1 F2400 X-12.248 Y25.25 E330.07677
G1 X-12.248 Y-25.248 E332.17623
G1 X11.951 Y-25.248 E333.18231
G1 X12.062 Y-25.233 E333.18697
G1 X12.173 Y-25.17 E333.19227
G1 X12.232 Y-25.066 E333.19725
G1 X12.249 Y-24.925 E333.20315
G1 X12.249 Y24.949 E335.27667
G1 X12.234 Y25.065 E335.28153
G1 X12.173 Y25.173 E335.28669
G1 X12.066 Y25.234 E335.29181
G1 X11.942 Y25.25 E335.29701
G1 X-12.248 Y25.25 E336.30271
G0 F18000 X-12.748 Y25.75
; TYPE:WALL-OUTER
G1 F2100 X-12.748 Y25.75 E336.30271
G1 X-12.748 Y-25.748 E338.44375
G1 X11.981 Y-25.748 E339.47186
G1 X12.195 Y-25.719 E339.48084
G1 X12.375 Y-25.645 E339.48893
G1 X12.526 Y-25.529 E339.49685
G1 X12.648 Y-25.369 E339.50521
G1 X12.721 Y-25.193 E339.51313
G1 X12.749 Y-24.959 E339.52293
G1 X12.749 Y24.983 E341.59928
G1 X12.721 Y25.196 E341.60821
G1 X12.648 Y25.372 E341.61613
G1 X12.526 Y25.532 E341.6245
G1 X12.375 Y25.648 E341.63241
G1 X12.195 Y25.722 E341.64051
G1 X11.973 Y25.75 E341.64981
G1 X-12.748 Y25.75 E342.67759
G0 F18000 X-12.488 Y25.4
G0 X-6.545 Y19.546
G0 X-6.545 Y19.546
; TYPE:WALL-INNER
G1 F2400 X-6.545 Y19.546 E342.67759
G1 X-4.628 Y21.017 E342.77805
G1 X-2.395 Y21.942 E342.87854
G1 X0 Y22.257 E342.97897
G1 X2.395 Y21.942 E343.0794
G1 X4.627 Y21.017 E343.17985
G1 X6.545 Y19.546 E343.28034
G1 X8.016 Y17.629 E343.3808
G1 X8.941 Y15.396 E343.48129
G1 X9.255 Y13.001 E343.58171
G1 X8.941 Y10.605 E343.68218
G1 X8.016 Y8.373 E343.78263
G1 X6.545 Y6.455 E343.88312
G1 X4.628 Y4.984 E343.98358
G1 X2.395 Y4.059 E344.08407
G1 X0 Y3.745 E344.18449
G1 X-2.395 Y4.059 E344.28491
G1 X-4.627 Y4.984 E344.38536
G1 X-6.545 Y6.455 E344.48586
G1 X-8.016 Y8.373 E344.58635
G1 X-8.941 Y10.605 E344.6868
G1 X-9.255 Y13.001 E344.78726
G1 X-8.941 Y15.396 E344.88769
G1 X-8.016 Y17.628 E344.98814
G1 X-6.545 Y19.546 E345.08863
G0 F18000 X-5.891 Y19.802
G0 X-4.601 Y20.972
G0 X-2.381 Y21.891
G0 X-0.243 Y22.02
G0 X-0.046 Y22.099
G0 X-0.046 Y22.099
G0 X0 Y21.753
; TYPE:WALL-OUTER
G1 F2100 X0 Y21.753 E345.08863
G1 X2.264 Y21.455 E345.18357
G1 X4.375 Y20.58 E345.27858
G1 X6.188 Y19.189 E345.37358
G1 X7.579 Y17.377 E345.46855
G1 X8.454 Y15.265 E345.5636
G1 X8.751 Y13.001 E345.65853
G1 X8.454 Y10.736 E345.7535
G1 X7.579 Y8.625 E345.84851
G1 X6.188 Y6.812 E345.94351
G1 X4.376 Y5.421 E346.03849
G1 X2.264 Y4.546 E346.13353
G1 X0 Y4.249 E346.22846
G1 X-2.264 Y4.546 E346.3234
G1 X-4.375 Y5.421 E346.4184
G1 X-6.188 Y6.812 E346.51341
G1 X-7.579 Y8.625 E346.60841
G1 X-8.454 Y10.736 E346.70342
G1 X-8.751 Y13.001 E346.79839
G1 X-8.454 Y15.265 E346.89332
G1 X-7.579 Y17.376 E346.98833
G1 X-6.188 Y19.189 E347.08333
G1 X-4.376 Y20.58 E347.17831
G1 X-2.264 Y21.455 E347.27335
G1 X0 Y21.753 E347.36829
G1 F6600 E340.56829
G1 Z1.4
G0 F18000 X-0.046 Y22.099
G0 X-0.045 Y22.209
G0 X2.381 Y21.891
G0 X4.6 Y20.972
G0 X6.508 Y19.509
G0 X7.971 Y17.602
G0 X8.89 Y15.381
G0 X9.203 Y13.001
G0 X8.89 Y10.62
G0 X7.971 Y8.4
G0 X6.508 Y6.492
G0 X4.601 Y5.029
G0 X2.38 Y4.11
G0 X-0.012 Y3.794
G0 X0 Y-3.742
G0 X0 Y-3.742
; TYPE:WALL-INNER
G1 Z1.1
G1 F6600 E347.46829
G1 F2400 X0 Y-3.742 E347.46829
G1 X2.395 Y-4.057 E347.56872
G1 X4.628 Y-4.982 E347.66921
G1 X6.545 Y-6.453 E347.76967
G1 X8.016 Y-8.37 E347.87013
G1 X8.941 Y-10.603 E347.97061
G1 X9.256 Y-12.999 E348.07108
G1 X8.941 Y-15.394 E348.17151
G1 X8.016 Y-17.627 E348.272
G1 X6.545 Y-19.544 E348.37246
G1 X4.628 Y-21.015 E348.47292
G1 X2.395 Y-21.94 E348.57341
G1 X0 Y-22.255 E348.67384
G1 X-2.395 Y-21.94 E348.77427
G1 X-4.627 Y-21.015 E348.87472
G1 X-6.545 Y-19.544 E348.97521
G1 X-8.016 Y-17.627 E349.07567
G1 X-8.941 Y-15.394 E349.17616
G1 X-9.256 Y-12.999 E349.27659
G1 X-8.941 Y-10.603 E349.37706
G1 X-8.016 Y-8.371 E349.47751
G1 X-6.545 Y-6.453 E349.578
G1 X-4.628 Y-4.982 E349.67846
G1 X-2.395 Y-4.057 E349.77895
G1 X0 Y-3.742 E349.87938
G0 F18000 X0 Y-4.246
; TYPE:WALL-OUTER
G1 F2100 X0 Y-4.246 E349.87938
G1 X2.264 Y-4.544 E349.97432
G1 X4.376 Y-5.419 E350.06936
G1 X6.188 Y-6.81 E350.16433
G1 X7.579 Y-8.622 E350.25931
G1 X8.454 Y-10.734 E350.35435
G1 X8.752 Y-12.999 E350.44933
G1 X8.454 Y-15.263 E350.54427
G1 X7.579 Y-17.375 E350.63931
G1 X6.188 Y-19.187 E350.73428
G1 X4.376 Y-20.578 E350.82926
G1 X2.264 Y-21.453 E350.9243
G1 X0 Y-21.751 E351.01924
G1 X-2.264 Y-21.453 E351.11418
G1 X-4.375 Y-20.578 E351.20918
G1 X-6.188 Y-19.187 E351.30419
G1 X-7.579 Y-17.375 E351.39916
G1 X-8.454 Y-15.263 E351.4942
G1 X-8.752 Y-12.999 E351.58914
G1 X-8.454 Y-10.734 E351.68412
G1 X-7.579 Y-8.623 E351.77913
G1 X-6.188 Y-6.81 E351.87413
G1 X-4.376 Y-5.419 E351.9691
G1 X-2.264 Y-4.544 E352.06415
G1 X0 Y-4.246 E352.15909
G0 F18000 X-0.046 Y-3.9
G0 X1.535 Y-3.5
G0 X1.535 Y-3.5
; TYPE:FILL
G1 F2400 X11.809 Y-3.5 E352.58623
G0 F18000 X11.809 Y-4
G1 F2400 X3.407 Y-4 E352.93554
G0 F18000 X4.614 Y-4.5
G1 F2400 X11.809 Y-4.5 E353.23468
G0 F18000 X11.809 Y-5
G1 F2400 X5.373 Y-5 E353.50225
G0 F18000 X6.025 Y-5.5
G1 F2400 X11.809 Y-5.5 E353.74273
G0 F18000 X11.809 Y-6
G1 F2400 X6.678 Y-6 E353.95605
G0 F18000 X7.136 Y-6.5
G1 F2400 X11.809 Y-6.5 E354.15033
G0 F18000 X11.809 Y-7
G1 F2400 X7.519 Y-7 E354.32869
G0 F18000 X7.902 Y-7.5
G1 F2400 X11.809 Y-7.5 E354.49112
G0 F18000 X11.809 Y-8
G1 F2400 X8.286 Y-8 E354.63759
G0 F18000 X8.546 Y-8.5
G1 F2400 X11.809 Y-8.5 E354.77325
G0 F18000 X11.809 Y-9
G1 F2400 X8.754 Y-9 E354.90026
G0 F18000 X8.961 Y-9.5
G1 F2400 X11.809 Y-9.5 E355.01867
G0 F18000 X11.809 Y-10
G1 F2400 X9.168 Y-10 E355.12847
G0 F18000 X9.371 Y-10.5
G1 F2400 X11.809 Y-10.5 E355.22983
G0 F18000 X11.809 Y-11
G1 F2400 X9.437 Y-11 E355.32844
G0 F18000 X9.503 Y-11.5
G1 F2400 X11.809 Y-11.5 E355.42432
G0 F18000 X11.809 Y-12
G1 F2400 X9.569 Y-12 E355.51744
G0 F18000 X9.634 Y-12.5
G1 F2400 X11.809 Y-12.5 E355.60787
G0 F18000 X11.809 Y-13
G1 F2400 X9.7 Y-13 E355.69555
G0 F18000 X9.634 Y-13.5
G1 F2400 X11.809 Y-13.5 E355.78598
G0 F18000 X11.809 Y-14
G1 F2400 X9.568 Y-14 E355.87915
G0 F18000 X9.503 Y-14.5
G1 F2400 X11.809 Y-14.5 E355.97502
G0 F18000 X11.808 Y-15
G1 F2400 X9.436 Y-15 E356.07364
G0 F18000 X9.37 Y-15.5
G1 F2400 X11.808 Y-15.5 E356.175
G0 F18000 X11.808 Y-16
G1 F2400 X9.166 Y-16 E356.28484
G0 F18000 X8.958 Y-16.5
G1 F2400 X11.808 Y-16.5 E356.40333
G0 F18000 X11.808 Y-17
G1 F2400 X8.751 Y-17 E356.53042
G0 F18000 X8.544 Y-17.5
G1 F2400 X11.808 Y-17.5 E356.66612
G0 F18000 X11.808 Y-18
G1 F2400 X8.282 Y-18 E356.81272
G0 F18000 X7.899 Y-18.5
G1 F2400 X11.808 Y-18.5 E356.97524
G0 F18000 X11.808 Y-19
G1 F2400 X7.516 Y-19 E357.15368
G0 F18000 X7.132 Y-19.5
G1 F2400 X11.808 Y-19.5 E357.34808
G0 F18000 X11.808 Y-20
G1 F2400 X6.673 Y-20 E357.56157
G0 F18000 X6.02 Y-20.5
G1 F2400 X11.808 Y-20.5 E357.80221
G0 F18000 X11.808 Y-21
G1 F2400 X5.368 Y-21 E358.06995
G0 F18000 X4.606 Y-21.5
G1 F2400 X11.808 Y-21.5 E358.36938
G0 F18000 X11.808 Y-22
G1 F2400 X3.399 Y-22 E358.71898
G0 F18000 X1.513 Y-22.5
G0 X1.513 Y-22.5
G1 F2400 X11.808 Y-22.5 E359.147
G0 F18000 X11.808 Y-23
G1 F2400 X-11.807 Y-23 E360.1288
G0 F18000 X-11.807 Y-22.5
G1 F2400 X-1.513 Y-22.5 E360.55677
G0 F18000 X-3.399 Y-22
G0 X-3.399 Y-22
G1 F2400 X-11.807 Y-22 E360.90633
G0 F18000 X-11.807 Y-21.5
G1 F2400 X-4.605 Y-21.5 E361.20576
G0 F18000 X-5.367 Y-21
G1 F2400 X-11.807 Y-21 E361.4735
G0 F18000 X-11.807 Y-20.5
G1 F2400 X-6.02 Y-20.5 E361.7141
G0 F18000 X-6.673 Y-20
G1 F2400 X-11.807 Y-20 E361.92755
G0 F18000 X-11.807 Y-19.5
G1 F2400 X-7.132 Y-19.5 E362.12191
G0 F18000 X-7.516 Y-19
G1 F2400 X-11.807 Y-19 E362.30031
G0 F18000 X-11.807 Y-18.5
G1 F2400 X-7.899 Y-18.5 E362.46278
G0 F18000 X-8.282 Y-18
G1 F2400 X-11.807 Y-18 E362.60934
G0 F18000 X-11.807 Y-17.5
G1 F2400 X-8.544 Y-17.5 E362.745
G0 F18000 X-8.751 Y-17
G1 F2400 X-11.807 Y-17 E362.87205
G0 F18000 X-11.807 Y-16.5
G1 F2400 X-8.958 Y-16.5 E362.9905
G0 F18000 X-9.166 Y-16
G1 F2400 X-11.807 Y-16 E363.1003
G0 F18000 X-11.807 Y-15.5
G1 F2400 X-9.37 Y-15.5 E363.20162
G0 F18000 X-9.436 Y-15
G1 F2400 X-11.807 Y-15 E363.30019
G0 F18000 X-11.807 Y-14.5
G1 F2400 X-9.502 Y-14.5 E363.39602
G0 F18000 X-9.568 Y-14
G1 F2400 X-11.807 Y-14 E363.48911
G0 F18000 X-11.807 Y-13.5
G1 F2400 X-9.634 Y-13.5 E363.57945
G0 F18000 X-9.7 Y-13
G1 F2400 X-11.807 Y-13 E363.66705
G0 F18000 X-11.807 Y-12.5
G1 F2400 X-9.634 Y-12.5 E363.75739
G0 F18000 X-9.569 Y-12
G1 F2400 X-11.807 Y-12 E363.85044
G0 F18000 X-11.807 Y-11.5
G1 F2400 X-9.503 Y-11.5 E363.94623
G0 F18000 X-9.437 Y-11
G1 F2400 X-11.807 Y-11 E364.04476
G0 F18000 X-11.807 Y-10.5
G1 F2400 X-9.372 Y-10.5 E364.146
G0 F18000 X-9.168 Y-10
G1 F2400 X-11.807 Y-10 E364.25571
G0 F18000 X-11.807 Y-9.5
G1 F2400 X-8.96 Y-9.5 E364.37408
G0 F18000 X-8.753 Y-9
G1 F2400 X-11.807 Y-9 E364.50105
G0 F18000 X-11.807 Y-8.5
G1 F2400 X-8.546 Y-8.5 E364.63662
G0 F18000 X-8.285 Y-7.999
G1 F2400 X-11.807 Y-7.999 E364.78305
G0 F18000 X-11.807 Y-7.499
G1 F2400 X-7.902 Y-7.499 E364.9454
G0 F18000 X-7.519 Y-6.999
G1 F2400 X-11.807 Y-6.999 E365.12368
G0 F18000 X-11.807 Y-6.499
G1 F2400 X-7.136 Y-6.5 E365.31788
G0 F18000 X-6.678 Y-6
G1 F2400 X-11.807 Y-5.999 E365.53111
G0 F18000 X-11.807 Y-5.499
G1 F2400 X-6.025 Y-5.5 E365.7715
G0 F18000 X-5.373 Y-5
G1 F2400 X-11.807 Y-4.999 E366.039
G0 F18000 X-11.807 Y-4.499
G1 F2400 X-4.614 Y-4.5 E366.33805
G0 F18000 X-3.408 Y-4
G1 F2400 X-11.807 Y-3.999 E366.68724
G0 F18000 X-11.807 Y-3.499
G1 F2400 X-1.536 Y-3.5 E367.11426
G0 F18000 X-1.517 Y3.5
G0 X-1.517 Y3.5
G1 F2400 X-11.808 Y3.5 E367.54211
G0 F18000 X-11.808 Y4
G1 F2400 X-3.401 Y4 E367.89163
G0 F18000 X-4.609 Y4.5
G1 F2400 X-11.808 Y4.5 E368.19093
G0 F18000 X-11.808 Y5
G1 F2400 X-5.37 Y5 E368.45859
G0 F18000 X-6.022 Y5.5
G1 F2400 X-11.808 Y5.5 E368.69914
G0 F18000 X-11.808 Y6
G1 F2400 X-6.675 Y6 E368.91255
G0 F18000 X-7.134 Y6.5
G1 F2400 X-11.808 Y6.5 E369.10687
G0 F18000 X-11.808 Y7
G1 F2400 X-7.517 Y7 E369.28527
G0 F18000 X-7.9 Y7.5
G1 F2400 X-11.808 Y7.5 E369.44775
G0 F18000 X-11.808 Y8
G1 F2400 X-8.284 Y8 E369.59426
G0 F18000 X-8.545 Y8.5
G1 F2400 X-11.808 Y8.5 E369.72992
G0 F18000 X-11.808 Y9
G1 F2400 X-8.752 Y9 E369.85697
G0 F18000 X-8.96 Y9.5
G1 F2400 X-11.808 Y9.5 E369.97538
G0 F18000 X-11.808 Y10
G1 F2400 X-9.167 Y10 E370.08518
G0 F18000 X-9.371 Y10.5
G1 F2400 X-11.808 Y10.5 E370.18649
G0 F18000 X-11.808 Y11
G1 F2400 X-9.437 Y11 E370.28507
G0 F18000 X-9.502 Y11.5
G1 F2400 X-11.808 Y11.5 E370.38094
G0 F18000 X-11.808 Y12
G1 F2400 X-9.568 Y12 E370.47407
G0 F18000 X-9.633 Y12.5
G1 F2400 X-11.808 Y12.5 E370.5645
G0 F18000 X-11.808 Y13
G1 F2400 X-9.699 Y13 E370.65218
G0 F18000 X-9.634 Y13.5
G1 F2400 X-11.808 Y13.5 E370.74256
G0 F18000 X-11.808 Y14
G1 F2400 X-9.568 Y14 E370.83569
G0 F18000 X-9.502 Y14.5
G1 F2400 X-11.808 Y14.5 E370.93156
G0 F18000 X-11.807 Y15
G1 F2400 X-9.436 Y15 E371.03014
G0 F18000 X-9.37 Y15.5
G1 F2400 X-11.807 Y15.5 E371.13146
G0 F18000 X-11.807 Y16
G1 F2400 X-9.166 Y16 E371.24126
G0 F18000 X-8.959 Y16.5
G1 F2400 X-11.807 Y16.5 E371.35966
G0 F18000 X-11.807 Y17
G1 F2400 X-8.752 Y17 E371.48667
G0 F18000 X-8.544 Y17.5
G1 F2400 X-11.807 Y17.5 E371.62233
G0 F18000 X-11.807 Y18
G1 F2400 X-8.283 Y18 E371.76885
G0 F18000 X-7.9 Y18.5
G1 F2400 X-11.807 Y18.5 E371.93128
G0 F18000 X-11.807 Y19
G1 F2400 X-7.517 Y19 E372.10964
G0 F18000 X-7.134 Y19.5
G1 F2400 X-11.807 Y19.5 E372.30392
G0 F18000 X-11.807 Y20
G1 F2400 X-6.675 Y20 E372.51728
G0 F18000 X-6.023 Y20.5
G1 F2400 X-11.807 Y20.5 E372.75775
G0 F18000 X-11.807 Y21
G1 F2400 X-5.371 Y21 E373.02533
G0 F18000 X-4.611 Y21.5
G1 F2400 X-11.807 Y21.5 E373.3245
G0 F18000 X-11.807 Y22
G1 F2400 X-3.404 Y22 E373.67386
G0 F18000 X-1.528 Y22.5
G0 X-1.528 Y22.5
G1 F2400 X-11.807 Y22.5 E374.10121
G0 F18000 X-11.807 Y23
G1 F2400 X11.808 Y23 E375.08301
G0 F18000 X11.808 Y22.5
G1 F2400 X1.528 Y22.5 E375.5104
G0 F18000 X3.404 Y22
G0 X3.404 Y22
G1 F2400 X11.808 Y22 E375.8598
G0 F18000 X11.808 Y21.5
G1 F2400 X4.61 Y21.5 E376.15906
G0 F18000 X5.37 Y21
G1 F2400 X11.808 Y21 E376.42672
G0 F18000 X11.808 Y20.5
G1 F2400 X6.023 Y20.5 E376.66723
G0 F18000 X6.675 Y20
G1 F2400 X11.808 Y20 E376.88064
G0 F18000 X11.808 Y19.5
G1 F2400 X7.134 Y19.5 E377.07496
G0 F18000 X7.517 Y19
G1 F2400 X11.808 Y19 E377.25336
G0 F18000 X11.808 Y18.5
G1 F2400 X7.9 Y18.5 E377.41583
G0 F18000 X8.284 Y18
G1 F2400 X11.808 Y18 E377.56234
G0 F18000 X11.808 Y17.5
G1 F2400 X8.545 Y17.5 E377.698
G0 F18000 X8.752 Y17
G1 F2400 X11.808 Y17 E377.82506
G0 F18000 X11.808 Y16.5
G1 F2400 X8.959 Y16.5 E377.94351
G0 F18000 X9.166 Y16
G1 F2400 X11.808 Y16 E378.05335
G0 F18000 X11.808 Y15.5
G1 F2400 X9.37 Y15.5 E378.15471
G0 F18000 X9.436 Y15
G1 F2400 X11.808 Y15 E378.25332
G0 F18000 X11.808 Y14.5
G1 F2400 X9.502 Y14.5 E378.3492
G0 F18000 X9.568 Y14
G1 F2400 X11.808 Y14 E378.44232
G0 F18000 X11.808 Y13.5
G1 F2400 X9.633 Y13.5 E378.53275
G0 F18000 X9.699 Y13
G1 F2400 X11.808 Y13 E378.62043
G0 F18000 X11.808 Y12.5
G1 F2400 X9.633 Y12.5 E378.71086
G0 F18000 X9.568 Y12
G1 F2400 X11.808 Y12 E378.80399
G0 F18000 X11.808 Y11.5
G1 F2400 X9.502 Y11.5 E378.89986
G0 F18000 X9.437 Y11
G1 F2400 X11.808 Y11 E378.99843
G0 F18000 X11.808 Y10.5
G1 F2400 X9.371 Y10.5 E379.09975
G0 F18000 X9.167 Y10
G1 F2400 X11.808 Y10 E379.20955
G0 F18000 X11.808 Y9.5
G1 F2400 X8.959 Y9.5 E379.328
G0 F18000 X8.752 Y9
G1 F2400 X11.808 Y9 E379.45505
G0 F18000 X11.808 Y8.5
G1 F2400 X8.545 Y8.5 E379.59071
G0 F18000 X8.283 Y7.999
G1 F2400 X11.808 Y7.999 E379.73727
G0 F18000 X11.808 Y7.499
G1 F2400 X7.9 Y7.499 E379.89974
G0 F18000 X7.517 Y6.999
G1 F2400 X11.808 Y6.999 E380.07814
G0 F18000 X11.808 Y6.499
G1 F2400 X7.134 Y6.5 E380.27246
G0 F18000 X6.675 Y6
G1 F2400 X11.808 Y5.999 E380.48587
G0 F18000 X11.808 Y5.499
G1 F2400 X6.023 Y5.5 E380.72638
G0 F18000 X5.37 Y5
G1 F2400 X11.808 Y4.999 E380.99404
G0 F18000 X11.808 Y4.499
G1 F2400 X4.609 Y4.5 E381.29334
G0 F18000 X3.402 Y4
G1 F2400 X11.808 Y3.999 E381.64282
G0 F18000 X11.808 Y3.499
G1 F2400 X1.518 Y3.5 E382.07063
G0 F18000 X11.808 Y2.999
G0 X11.808 Y2.999
G1 F2400 X-11.808 Y3 E383.05247
G0 F18000 X-11.808 Y2.5
G1 F2400 X11.808 Y2.499 E384.03431
G0 F18000 X11.808 Y1.999
G1 F2400 X-11.808 Y2 E385.01615
G0 F18000 X-11.808 Y1.5
G1 F2400 X11.808 Y1.499 E385.99799
G0 F18000 X11.808 Y0.999
G1 F2400 X-11.808 Y1 E386.97983
G0 F18000 X-11.808 Y0.5
G1 F2400 X11.808 Y0.499 E387.96167
G0 F18000 X11.809 Y0
G1 F2400 X-11.807 Y0 E388.94351
G0 F18000 X-11.807 Y-0.499
G1 F2400 X11.809 Y-0.5 E389.92535
G0 F18000 X11.809 Y-1
G1 F2400 X-11.807 Y-0.999 E390.90718
G0 F18000 X-11.807 Y-1.499
G1 F2400 X11.809 Y-1.5 E391.88902
G0 F18000 X11.809 Y-2
G1 F2400 X-11.807 Y-1.999 E392.87086
G0 F18000 X-11.807 Y-2.499
G1 F2400 X11.809 Y-2.5 E393.8527
G0 F18000 X11.809 Y-3
G1 F2400 X-11.807 Y-2.999 E394.83454
G0 F18000 X-11.807 Y-23.5
G0 X-11.807 Y-23.5
G1 F2400 X11.808 Y-23.5 E395.81634
G0 F18000 X11.808 Y-24
G1 F2400 X-11.807 Y-24 E396.79814
G0 F18000 X-11.807 Y-24.5
G1 F2400 X11.808 Y-24.5 E397.77993
G0 F18000 X12.425 Y-25.146
G1 F2400 X12.453 Y-25.186 E397.78044
G0 F18000 X12.39 Y-25.295
G1 F2400 X12.362 Y-25.278 E397.78079
G0 F18000 X12.278 Y-25.36
G1 F2400 X12.299 Y-25.387 E397.78116
G0 F18000 X11.808 Y23.5
G0 X11.808 Y23.5
G1 F2400 X-11.807 Y23.5 E398.76296
G0 F18000 X-11.807 Y24
G1 F2400 X11.808 Y24 E399.74476
G0 F18000 X11.808 Y24.5
G1 F2400 X-11.807 Y24.5 E400.72655
G0 F18000 X12.048 Y25.42
G0 X12.448 Y25.436
G0 X12.154 Y25.425
G0 X12.154 Y25.425
G1 F2400 X12.188 Y25.454 E400.72703
G0 F18000 X12.299 Y25.39
G1 F2400 X12.279 Y25.362 E400.7274
G0 F18000 X12.362 Y25.281
G1 F2400 X12.39 Y25.298 E400.72775
G0 F18000 X12.453 Y25.189
G1 F2400 X12.425 Y25.158 E400.72818
; Layer Change GCode
; LAYER:5
G0 F18000 X-12.488 Y25.4 Z1.3
G0 X-12.488 Y25.4
G0 X-12.748 Y25.75
G0 X-12.748 Y25.75
G0 X-12.248 Y25.25
; TYPE:WALL-INNER
G1 F2400 X-12.248 Y25.25 E400.72818
G1 X-12.248 Y-25.248 E402.82765
G1 X11.963 Y-25.244 E403.83422
G1 X12.068 Y-25.227 E403.83864
G1 X12.18 Y-25.159 E403.84409
G1 X12.237 Y-25.041 E403.84954
G1 X12.249 Y-24.951 E403.85331
G1 X12.249 Y24.949 E405.92792
G1 X12.234 Y25.065 E405.93278
G1 X12.157 Y25.184 E405.93867
G1 X12.044 Y25.238 E405.94388
G1 X11.953 Y25.25 E405.94769
G1 X-12.248 Y25.25 E406.95386
G0 F18000 X-12.748 Y25.75
; TYPE:WALL-OUTER
G1 F2100 X-12.748 Y25.75 E406.95386
G1 X-12.748 Y-25.748 E409.09489
G1 X12.005 Y-25.744 E410.124
G1 X12.21 Y-25.711 E410.13264
G1 X12.39 Y-25.632 E410.14081
G1 X12.542 Y-25.509 E410.14894
G1 X12.645 Y-25.374 E410.156
G1 X12.724 Y-25.167 E410.16521
G1 X12.749 Y-24.979 E410.17309
G1 X12.749 Y24.983 E412.25027
G1 X12.721 Y25.196 E412.2592
G1 X12.649 Y25.37 E412.26703
G1 X12.508 Y25.546 E412.27641
G1 X12.379 Y25.645 E412.28317
G1 X12.169 Y25.725 E412.29251
G1 X11.982 Y25.75 E412.30036
G1 X-12.748 Y25.75 E413.32851
G0 F18000 X-12.488 Y25.4
G0 X-6.545 Y19.546
G0 X-6.545 Y19.546
; TYPE:WALL-INNER
G1 F2400 X-6.545 Y19.546 E413.32851
G1 X-4.628 Y21.017 E413.42897
G1 X-2.395 Y21.942 E413.52946
G1 X0 Y22.257 E413.62989
G1 X2.395 Y21.942 E413.73032
G1 X4.627 Y21.017 E413.83077
G1 X6.545 Y19.546 E413.93126
G1 X8.016 Y17.629 E414.03172
G1 X8.941 Y15.396 E414.13221
G1 X9.255 Y13.001 E414.23263
G1 X8.941 Y10.605 E414.3331
G1 X8.016 Y8.373 E414.43355
G1 X6.545 Y6.455 E414.53404
G1 X4.628 Y4.984 E414.6345
G1 X2.395 Y4.059 E414.73499
G1 X0 Y3.745 E414.83541
G1 X-2.395 Y4.059 E414.93584
G1 X-4.627 Y4.984 E415.03629
G1 X-6.545 Y6.455 E415.13678
G1 X-8.016 Y8.373 E415.23727
G1 X-8.941 Y10.605 E415.33772
G1 X-9.255 Y13.001 E415.43819
G1 X-8.941 Y15.396 E415.53861
G1 X-8.016 Y17.628 E415.63906
G1 X-6.545 Y19.546 E415.73955
G0 F18000 X-5.891 Y19.802
G0 X-4.601 Y20.972
G0 X-2.381 Y21.891
G0 X-0.243 Y22.02
G0 X-0.046 Y22.099
G0 X-0.046 Y22.099
G0 X0 Y21.753
; TYPE:WALL-OUTER
G1 F2100 X0 Y21.753 E415.73955
G1 X2.264 Y21.455 E415.83449
G1 X4.375 Y20.58 E415.9295
G1 X6.188 Y19.189 E416.0245
G1 X7.579 Y17.377 E416.11947
G1 X8.454 Y15.265 E416.21452
G1 X8.751 Y13.001 E416.30945
G1 X8.454 Y10.736 E416.40442
G1 X7.579 Y8.625 E416.49943
G1 X6.188 Y6.812 E416.59444
G1 X4.376 Y5.421 E416.68941
G1 X2.264 Y4.546 E416.78445
G1 X0 Y4.249 E416.87938
G1 X-2.264 Y4.546 E416.97432
G1 X-4.375 Y5.421 E417.06932
G1 X-6.188 Y6.812 E417.16433
G1 X-7.579 Y8.625 E417.25933
G1 X-8.454 Y10.736 E417.35434
G1 X-8.751 Y13.001 E417.44931
G1 X-8.454 Y15.265 E417.54424
G1 X-7.579 Y17.376 E417.63925
G1 X-6.188 Y19.189 E417.73426
G1 X-4.376 Y20.58 E417.82923
G1 X-2.264 Y21.455 E417.92427
G1 X0 Y21.753 E418.01921
G1 F6600 E411.21921
G1 Z1.6
G0 F18000 X-0.046 Y22.099
G0 X-0.045 Y22.209
G0 X2.381 Y21.891
G0 X4.6 Y20.972
G0 X6.508 Y19.509
G0 X7.971 Y17.602
G0 X8.89 Y15.381
G0 X9.203 Y13.001
G0 X8.89 Y10.62
G0 X7.971 Y8.4
G0 X6.508 Y6.492
G0 X4.601 Y5.029
G0 X2.38 Y4.11
G0 X-0.012 Y3.794
G0 X0 Y-3.742
G0 X0 Y-3.742
; TYPE:WALL-INNER
G1 Z1.3
G1 F6600 E418.11921
G1 F2400 X0 Y-3.742 E418.11921
G1 X2.395 Y-4.057 E418.21964
G1 X4.628 Y-4.982 E418.32013
G1 X6.545 Y-6.453 E418.42059
G1 X8.016 Y-8.37 E418.52105
G1 X8.941 Y-10.603 E418.62153
G1 X9.256 Y-12.999 E418.72201
G1 X8.941 Y-15.394 E418.82244
G1 X8.016 Y-17.627 E418.92292
G1 X6.545 Y-19.544 E419.02338
G1 X4.628 Y-21.015 E419.12384
G1 X2.395 Y-21.94 E419.22433
G1 X0 Y-22.255 E419.32476
G1 X-2.395 Y-21.94 E419.42519
G1 X-4.627 Y-21.015 E419.52564
G1 X-6.545 Y-19.544 E419.62613
G1 X-8.016 Y-17.627 E419.72659
G1 X-8.941 Y-15.394 E419.82708
G1 X-9.256 Y-12.999 E419.92751
G1 X-8.941 Y-10.603 E420.02798
G1 X-8.016 Y-8.371 E420.12843
G1 X-6.545 Y-6.453 E420.22892
G1 X-4.628 Y-4.982 E420.32938
G1 X-2.395 Y-4.057 E420.42987
G1 X0 Y-3.742 E420.5303
G0 F18000 X0 Y-4.246
; TYPE:WALL-OUTER
G1 F2100 X0 Y-4.246 E420.5303
G1 X2.264 Y-4.544 E420.62524
G1 X4.376 Y-5.419 E420.72028
G1 X6.188 Y-6.81 E420.81526
G1 X7.579 Y-8.622 E420.91023
G1 X8.454 Y-10.734 E421.00527
G1 X8.752 Y-12.999 E421.10025
G1 X8.454 Y-15.263 E421.19519
G1 X7.579 Y-17.375 E421.29023
G1 X6.188 Y-19.187 E421.38521
G1 X4.376 Y-20.578 E421.48018
G1 X2.264 Y-21.453 E421.57522
G1 X0 Y-21.751 E421.67016
G1 X-2.264 Y-21.453 E421.7651
G1 X-4.375 Y-20.578 E421.8601
G1 X-6.188 Y-19.187 E421.95511
G1 X-7.579 Y-17.375 E422.05008
G1 X-8.454 Y-15.263 E422.14512
G1 X-8.752 Y-12.999 E422.24006
G1 X-8.454 Y-10.734 E422.33504
G1 X-7.579 Y-8.623 E422.43005
G1 X-6.188 Y-6.81 E422.52505
G1 X-4.376 Y-5.419 E422.62002
G1 X-2.264 Y-4.544 E422.71507
G1 X0 Y-4.246 E422.81001
G0 F18000 X0 Y-3.298
; TYPE:FILL
G1 F2400 X0 Y3.301 E423.08436
G0 F18000 X-0.243 Y3.333
G1 F2400 X-11.808 Y3.333 E423.56518
G0 F18000 X-11.808 Y4.444
G1 F2400 X-4.473 Y4.444 E423.87013
G0 F18000 X-4.443 Y4.431
G1 F2400 X-4.444 Y-4.429 E424.23849
G0 F18000 X-4.479 Y-4.444
G1 F2400 X-11.807 Y-4.443 E424.54315
G0 F18000 X-11.807 Y-3.332
G1 F2400 X-0.266 Y-3.333 E425.02297
G0 F18000 X0.265 Y-3.333
G1 F2400 X11.809 Y-3.333 E425.50291
G0 F18000 X11.809 Y-4.444
G1 F2400 X4.479 Y-4.444 E425.80766
G0 F18000 X4.443 Y-4.428
G1 F2400 X4.444 Y4.431 E426.17597
G0 F18000 X4.474 Y4.444
G1 F2400 X11.808 Y4.443 E426.48089
G0 F18000 X11.808 Y5.554
G1 F2400 X6.095 Y5.555 E426.71841
G0 F18000 X5.555 Y5.141
G1 F2400 X5.554 Y-5.138 E427.14576
G0 F18000 X6.097 Y-5.555
G1 F2400 X11.809 Y-5.555 E427.38323
G0 F18000 X11.809 Y-6.666
G1 F2400 X7.263 Y-6.666 E427.57223
G0 F18000 X7.776 Y-7.336
G1 F2400 X7.777 Y7.34 E428.18239
G0 F18000 X8.112 Y7.776
G1 F2400 X11.808 Y7.776 E428.33605
G0 F18000 X11.808 Y6.665
G1 F2400 X7.261 Y6.666 E428.5251
G0 F18000 X6.666 Y5.993
G1 F2400 X6.665 Y-5.99 E429.02329
G0 F18000 X8.114 Y-7.777
G0 X8.114 Y-7.777
G1 F2400 X11.809 Y-7.777 E429.17691
G0 F18000 X11.809 Y-8.888
G1 F2400 X8.707 Y-8.888 E429.30588
G0 F18000 X8.887 Y-9.324
G1 F2400 X8.888 Y9.329 E430.08138
G0 F18000 X8.706 Y8.888
G1 F2400 X11.808 Y8.888 E430.21035
G0 F18000 X11.808 Y9.999
G1 F2400 X9.166 Y9.999 E430.32019
G0 F18000 X9.451 Y11.11
G1 F2400 X11.808 Y11.11 E430.41818
G0 F18000 X11.808 Y12.221
G1 F2400 X9.597 Y12.221 E430.5101
G0 F18000 X9.655 Y13.332
G1 F2400 X11.808 Y13.332 E430.59961
G0 F18000 X11.808 Y14.443
G1 F2400 X9.509 Y14.443 E430.69519
G0 F18000 X9.351 Y15.554
G1 F2400 X11.808 Y15.554 E430.79734
G0 F18000 X11.808 Y16.665
G1 F2400 X8.891 Y16.665 E430.91862
G0 F18000 X8.888 Y16.671
G1 F2400 X8.888 Y24.81 E431.257
G0 F18000 X7.777 Y24.81
G1 F2400 X7.777 Y18.661 E431.51265
G0 F18000 X7.604 Y18.887
G1 F2400 X11.808 Y18.887 E431.68743
G0 F18000 X11.808 Y17.776
G1 F2400 X8.43 Y17.776 E431.82787
G0 F18000 X6.678 Y19.998
G0 X6.678 Y19.998
G1 F2400 X11.808 Y19.998 E432.04115
G0 F18000 X11.808 Y21.109
G1 F2400 X5.228 Y21.109 E432.31471
G0 F18000 X5.555 Y20.858
G1 F2400 X5.555 Y24.81 E432.47902
G0 F18000 X4.444 Y24.81
G1 F2400 X4.444 Y21.569 E432.61376
G0 F18000 X3.333 Y22.029
G1 F2400 X3.333 Y24.81 E432.72938
G0 F18000 X2.222 Y24.81
G1 F2400 X2.222 Y22.409 E432.82921
G0 F18000 X2.873 Y22.22
G1 F2400 X11.808 Y22.22 E433.20068
G0 F18000 X11.808 Y23.331
G1 F2400 X-11.807 Y23.331 E434.18248
G0 F18000 X-11.807 Y24.442
G1 F2400 X11.808 Y24.442 E435.16428
G0 F18000 X11.11 Y24.81
G1 F2400 X11.109 Y-24.804 E437.22699
G0 F18000 X11.808 Y-24.442
G1 F2400 X-11.807 Y-24.442 E438.20878
G0 F18000 X-11.11 Y-24.808
G1 F2400 X-11.109 Y24.81 E440.27166
G0 F18000 X-9.998 Y24.81
G1 F2400 X-9.999 Y-24.808 E442.33454
G0 F18000 X-8.888 Y-24.808
G1 F2400 X-8.888 Y-16.67 E442.67288
G0 F18000 X-8.89 Y-16.665
G1 F2400 X-11.807 Y-16.665 E442.79415
G0 F18000 X-11.807 Y-15.554
G1 F2400 X-9.35 Y-15.554 E442.8963
G0 F18000 X-9.51 Y-14.443
G1 F2400 X-11.807 Y-14.443 E442.9918
G0 F18000 X-11.807 Y-13.332
G1 F2400 X-9.656 Y-13.332 E443.08123
G0 F18000 X-9.598 Y-12.221
G1 F2400 X-11.807 Y-12.221 E443.17307
G0 F18000 X-11.807 Y-11.11
G1 F2400 X-9.452 Y-11.11 E443.27098
G0 F18000 X-9.167 Y-9.999
G1 F2400 X-11.807 Y-9.999 E443.38074
G0 F18000 X-11.807 Y-8.888
G1 F2400 X-8.707 Y-8.888 E443.50962
G0 F18000 X-8.888 Y-9.327
G1 F2400 X-8.887 Y9.327 E444.28516
G0 F18000 X-8.706 Y8.888
G1 F2400 X-11.808 Y8.888 E444.41413
G0 F18000 X-11.808 Y9.999
G1 F2400 X-9.166 Y9.999 E444.52397
G0 F18000 X-9.451 Y11.11
G1 F2400 X-11.808 Y11.11 E444.62196
G0 F18000 X-11.808 Y12.221
G1 F2400 X-9.597 Y12.221 E444.71388
G0 F18000 X-9.656 Y13.332
G1 F2400 X-11.808 Y13.332 E444.80335
G0 F18000 X-11.808 Y14.443
G1 F2400 X-9.51 Y14.443 E444.89889
G0 F18000 X-9.351 Y15.554
G1 F2400 X-11.807 Y15.554 E445.001
G0 F18000 X-11.807 Y16.665
G1 F2400 X-8.89 Y16.665 E445.12228
G0 F18000 X-8.887 Y16.673
G1 F2400 X-8.887 Y24.81 E445.46057
G0 F18000 X-7.776 Y24.81
G1 F2400 X-7.776 Y18.662 E445.71618
G0 F18000 X-7.603 Y18.887
G1 F2400 X-11.807 Y18.887 E445.89096
G0 F18000 X-11.807 Y19.998
G1 F2400 X-6.678 Y19.998 E446.1042
G0 F18000 X-6.665 Y20.008
G1 F2400 X-6.665 Y24.81 E446.30384
G0 F18000 X-5.554 Y24.81
G1 F2400 X-5.554 Y20.86 E446.46807
G0 F18000 X-5.229 Y21.109
G1 F2400 X-11.807 Y21.109 E446.74155
G0 F18000 X-11.807 Y22.22
G1 F2400 X-2.873 Y22.22 E447.11298
G0 F18000 X-3.332 Y22.03
G1 F2400 X-3.332 Y24.81 E447.22856
G0 F18000 X-2.221 Y24.81
G1 F2400 X-2.221 Y22.409 E447.32838
G0 F18000 X-1.11 Y22.555
G1 F2400 X-1.11 Y24.81 E447.42213
G0 F18000 X0 Y24.81
G1 F2400 X0 Y22.701 E447.50981
G0 F18000 X1.111 Y22.555
G1 F2400 X1.111 Y24.81 E447.60357
G0 F18000 X-4.443 Y24.81
G0 X-4.443 Y24.81
G1 F2400 X-4.443 Y21.57 E447.73827
G0 F18000 X-8.43 Y17.776
G0 X-8.43 Y17.776
G1 F2400 X-11.807 Y17.776 E447.87867
G0 F18000 X-11.808 Y7.777
G0 X-11.808 Y7.777
G1 F2400 X-8.112 Y7.777 E448.03233
G0 F18000 X-7.776 Y7.338
G1 F2400 X-7.777 Y-7.338 E448.64249
G0 F18000 X-8.114 Y-7.776
G1 F2400 X-11.807 Y-7.776 E448.79603
G0 F18000 X-11.807 Y-6.665
G1 F2400 X-7.263 Y-6.666 E448.98494
G0 F18000 X-6.666 Y-5.991
G1 F2400 X-6.665 Y5.992 E449.48314
G0 F18000 X-6.094 Y5.555
G1 F2400 X-11.808 Y5.555 E449.7207
G0 F18000 X-11.808 Y6.666
G1 F2400 X-7.261 Y6.666 E449.90974
G0 F18000 X-5.554 Y5.141
G0 X-5.554 Y5.141
G1 F2400 X-5.555 Y-5.139 E450.33713
G0 F18000 X-6.097 Y-5.555
G1 F2400 X-11.807 Y-5.554 E450.57453
G0 F18000 X-11.807 Y-2.221
G0 X-11.807 Y-2.221
G1 F2400 X11.809 Y-2.222 E451.55637
G0 F18000 X11.809 Y-1.111
G1 F2400 X-11.807 Y-1.11 E452.53821
G0 F18000 X-11.807 Y0
G1 F2400 X11.809 Y0 E453.52005
G0 F18000 X11.808 Y1.11
G1 F2400 X-11.808 Y1.111 E454.50188
G0 F18000 X-11.808 Y2.222
G1 F2400 X11.808 Y2.221 E455.48372
G0 F18000 X11.808 Y3.332
G1 F2400 X0.244 Y3.333 E455.9645
G0 F18000 X1.111 Y3.447
G1 F2400 X1.11 Y-3.444 E456.25099
G0 F18000 X2.221 Y-3.589
G1 F2400 X2.222 Y3.591 E456.5495
G0 F18000 X3.333 Y3.971
G1 F2400 X3.332 Y-3.968 E456.87957
G0 F18000 X-1.111 Y-3.444
G0 X-1.111 Y-3.444
G1 F2400 X-1.11 Y3.446 E457.16602
G0 F18000 X-2.221 Y3.591
G1 F2400 X-2.222 Y-3.589 E457.46453
G0 F18000 X-3.333 Y-3.968
G1 F2400 X-3.332 Y3.97 E457.79456
G0 F18000 X5.551 Y-5.958
G0 X6.508 Y-6.49
G0 X7.971 Y-8.397
G0 X7.91 Y-8.594
G0 X9.167 Y-9.999
G0 X9.167 Y-9.999
G1 F2400 X11.809 Y-9.999 E457.9044
G0 F18000 X11.809 Y-11.11
G1 F2400 X9.452 Y-11.11 E458.00239
G0 F18000 X9.598 Y-12.221
G1 F2400 X11.809 Y-12.221 E458.09431
G0 F18000 X11.809 Y-13.332
G1 F2400 X9.656 Y-13.332 E458.18382
G0 F18000 X9.51 Y-14.443
G1 F2400 X11.809 Y-14.443 E458.2794
G0 F18000 X11.808 Y-15.554
G1 F2400 X9.35 Y-15.554 E458.3816
G0 F18000 X8.89 Y-16.665
G1 F2400 X11.808 Y-16.665 E458.50291
G0 F18000 X11.808 Y-17.776
G1 F2400 X8.43 Y-17.776 E458.64335
G0 F18000 X7.776 Y-18.66
G1 F2400 X7.776 Y-24.805 E458.89883
G0 F18000 X6.665 Y-24.805
G1 F2400 X6.665 Y-20.006 E459.09835
G0 F18000 X6.675 Y-19.998
G1 F2400 X11.808 Y-19.998 E459.31176
G0 F18000 X11.808 Y-18.887
G1 F2400 X7.602 Y-18.887 E459.48662
G0 F18000 X8.887 Y-16.672
G0 X8.887 Y-16.672
G1 F2400 X8.887 Y-24.804 E459.82471
G0 F18000 X9.998 Y-24.804
G1 F2400 X9.999 Y24.81 E461.88742
G0 F18000 X12.006 Y25.39
G0 X12.39 Y25.501
G0 X12.148 Y25.432
G0 X12.148 Y25.432
G1 F2400 X12.182 Y25.453 E461.88792
G0 F18000 X12.382 Y25.303
G1 F2400 X12.365 Y25.279 E461.88831
G0 F18000 X12.416 Y25.165
G1 F2400 X12.454 Y25.187 E461.88874
G0 F18000 X6.666 Y24.81
G0 X6.666 Y24.81
G1 F2400 X6.666 Y20.007 E462.08842
G1 F6600 E455.28842
G1 Z1.6
G0 F18000 X6.47 Y19.515
G0 X7.971 Y17.602
G0 X8.89 Y15.381
G0 X9.203 Y13.001
G0 X8.89 Y10.62
G0 X7.971 Y8.4
G0 X6.508 Y6.492
G0 X4.601 Y5.029
G0 X2.38 Y4.11
G0 X0.21 Y3.848
G0 X-3.113 Y-4.471
G0 X-4.601 Y-5.027
G0 X-6.508 Y-6.49
G0 X-7.971 Y-8.398
G0 X-8.89 Y-10.617
G0 X-9.204 Y-12.999
G0 X-8.89 Y-15.38
G0 X-8.137 Y-17.046
G0 X-8.43 Y-17.776
G0 X-8.43 Y-17.776
G1 Z1.3
G1 F6600 E462.18842
G1 F2400 X-11.807 Y-17.776 E462.32882
G0 F18000 X-11.807 Y-18.887
G1 F2400 X-7.602 Y-18.887 E462.50365
G0 F18000 X-7.777 Y-18.659
G1 F2400 X-7.777 Y-24.807 E462.75925
G0 F18000 X-6.666 Y-24.807
G1 F2400 X-6.666 Y-20.005 E462.9589
G0 F18000 X-6.675 Y-19.998
G1 F2400 X-11.807 Y-19.998 E463.17226
G0 F18000 X-11.807 Y-21.109
G1 F2400 X-5.225 Y-21.109 E463.44591
G0 F18000 X-5.555 Y-20.856
G1 F2400 X-5.555 Y-24.807 E463.61017
G0 F18000 X-4.444 Y-24.807
G1 F2400 X-4.444 Y-21.567 E463.74487
G0 F18000 X-3.333 Y-22.027
G1 F2400 X-3.333 Y-24.807 E463.86045
G0 F18000 X-2.222 Y-24.806
G1 F2400 X-2.222 Y-22.407 E463.96019
G0 F18000 X-2.868 Y-22.22
G1 F2400 X-11.807 Y-22.22 E464.33183
G0 F18000 X-11.807 Y-23.331
G1 F2400 X11.808 Y-23.331 E465.31363
G0 F18000 X11.808 Y-22.22
G1 F2400 X2.869 Y-22.22 E465.68527
G0 F18000 X3.332 Y-22.028
G1 F2400 X3.332 Y-24.805 E465.80072
G0 F18000 X4.443 Y-24.805
G1 F2400 X4.443 Y-21.568 E465.9353
G0 F18000 X5.226 Y-21.109
G1 F2400 X11.808 Y-21.109 E466.20895
G0 F18000 X12.408 Y-25.014
G0 X12.469 Y-25.409
G0 X12.43 Y-25.147
G0 X12.43 Y-25.147
G1 F2400 X12.452 Y-25.179 E466.20944
G0 F18000 X12.369 Y-25.263
G1 F2400 X12.393 Y-25.292 E466.20976
G0 F18000 X12.31 Y-25.375
G1 F2400 X12.282 Y-25.359 E466.21012
G0 F18000 X12.199 Y-25.443
G1 F2400 X12.172 Y-25.414 E466.21054
G0 F18000 X5.554 Y-24.805
G0 X5.554 Y-24.805
G1 F2400 X5.554 Y-20.858 E466.37464
G0 F18000 X2.221 Y-22.407
G0 X2.221 Y-22.407
G1 F2400 X2.221 Y-24.806 E466.47438
G0 F18000 X1.11 Y-24.806
G1 F2400 X1.11 Y-22.553 E466.56805
G0 F18000 X0 Y-22.699
G1 F2400 X0 Y-24.806 E466.65564
G0 F18000 X-1.111 Y-24.806
G1 F2400 X-1.111 Y-22.553 E466.74931
; Layer Change GCode
; LAYER:6
G1 F6600 E459.94931
G1 Z1.6
G0 F18000 X-1.235 Y-22.029 Z1.8
G0 X-2.381 Y-21.889
G0 X-4.6 Y-20.97
G0 X-6.508 Y-19.507
G0 X-7.971 Y-17.6
G0 X-8.89 Y-15.38
G0 X-9.204 Y-12.999
G0 X-8.89 Y-10.617
G0 X-7.971 Y-8.398
G0 X-6.508 Y-6.49
G0 X-5.161 Y-5.477
G0 X-12.45 Y25.244
G0 X-12.543 Y25.633
G0 X-12.488 Y25.4
G0 X-12.488 Y25.4
G0 X-12.748 Y25.75
G0 X-12.748 Y25.75
G0 X-12.248 Y25.25
; TYPE:WALL-INNER
G1 Z1.5
G1 F6600 E466.84931
G1 F2400 X-12.248 Y25.25 E466.84931
G1 X-12.248 Y-25.248 E468.94878
G1 X12.062 Y-25.233 E469.95947
G1 X12.173 Y-25.17 E469.96477
G1 X12.234 Y-25.062 E469.96993
G1 X12.249 Y-24.945 E469.97484
G1 X12.249 Y24.949 E472.04919
G1 X12.234 Y25.065 E472.05405
G1 X12.173 Y25.173 E472.05921
G1 X12.066 Y25.234 E472.06433
G1 X11.948 Y25.25 E472.06928
G1 X-12.248 Y25.25 E473.07523
G0 F18000 X-12.748 Y25.75
; TYPE:WALL-OUTER
G1 F2100 X-12.748 Y25.75 E473.07523
G1 X-12.748 Y-25.748 E475.21627
G1 X12.033 Y-25.741 E476.24654
G1 X12.195 Y-25.719 E476.25334
G1 X12.375 Y-25.645 E476.26143
G1 X12.526 Y-25.529 E476.26935
G1 X12.648 Y-25.369 E476.27771
G1 X12.721 Y-25.193 E476.28564
G1 X12.749 Y-24.979 E476.29461
G1 X12.749 Y24.983 E478.37179
G1 X12.721 Y25.196 E478.38072
G1 X12.648 Y25.372 E478.38864
G1 X12.526 Y25.532 E478.39701
G1 X12.375 Y25.648 E478.40492
G1 X12.195 Y25.722 E478.41301
G1 X11.982 Y25.75 E478.42194
G1 X-12.748 Y25.75 E479.4501
G0 F18000 X-12.488 Y25.4
G0 X-6.545 Y19.546
G0 X-6.545 Y19.546
; TYPE:WALL-INNER
G1 F2400 X-6.545 Y19.546 E479.4501
G1 X-4.628 Y21.017 E479.55056
G1 X-2.395 Y21.942 E479.65105
G1 X0 Y22.257 E479.75148
G1 X2.395 Y21.942 E479.85191
G1 X4.627 Y21.017 E479.95236
G1 X6.545 Y19.546 E480.05285
G1 X8.016 Y17.629 E480.15331
G1 X8.941 Y15.396 E480.2538
G1 X9.255 Y13.001 E480.35422
G1 X8.941 Y10.605 E480.45469
G1 X8.016 Y8.373 E480.55514
G1 X6.545 Y6.455 E480.65563
G1 X4.628 Y4.984 E480.75609
G1 X2.395 Y4.059 E480.85658
G1 X0 Y3.745 E480.957
G1 X-2.395 Y4.059 E481.05742
G1 X-4.627 Y4.984 E481.15787
G1 X-6.545 Y6.455 E481.25837
G1 X-8.016 Y8.373 E481.35886
G1 X-8.941 Y10.605 E481.45931
G1 X-9.255 Y13.001 E481.55977
G1 X-8.941 Y15.396 E481.6602
G1 X-8.016 Y17.628 E481.76065
G1 X-6.545 Y19.546 E481.86114
G0 F18000 X-5.891 Y19.802
G0 X-4.601 Y20.972
G0 X-2.381 Y21.891
G0 X-0.243 Y22.02
G0 X-0.046 Y22.099
G0 X-0.046 Y22.099
G0 X0 Y21.753
; TYPE:WALL-OUTER
G1 F2100 X0 Y21.753 E481.86114
G1 X2.264 Y21.455 E481.95608
G1 X4.375 Y20.58 E482.05109
G1 X6.188 Y19.189 E482.14609
G1 X7.579 Y17.377 E482.24106
G1 X8.454 Y15.265 E482.33611
G1 X8.751 Y13.001 E482.43104
G1 X8.454 Y10.736 E482.52601
G1 X7.579 Y8.625 E482.62102
G1 X6.188 Y6.812 E482.71602
G1 X4.376 Y5.421 E482.811
G1 X2.264 Y4.546 E482.90604
G1 X0 Y4.249 E483.00097
G1 X-2.264 Y4.546 E483.09591
G1 X-4.375 Y5.421 E483.19091
G1 X-6.188 Y6.812 E483.28592
G1 X-7.579 Y8.625 E483.38092
G1 X-8.454 Y10.736 E483.47593
G1 X-8.751 Y13.001 E483.5709
G1 X-8.454 Y15.265 E483.66583
G1 X-7.579 Y17.376 E483.76084
G1 X-6.188 Y19.189 E483.85584
G1 X-4.376 Y20.58 E483.95082
G1 X-2.264 Y21.455 E484.04586
G1 X0 Y21.753 E484.1408
G1 F6600 E477.3408
G1 Z1.8
G0 F18000 X-0.046 Y22.099
G0 X-0.045 Y22.209
G0 X2.381 Y21.891
G0 X4.6 Y20.972
G0 X6.508 Y19.509
G0 X7.971 Y17.602
G0 X8.89 Y15.381
G0 X9.203 Y13.001
G0 X8.89 Y10.62
G0 X7.971 Y8.4
G0 X6.508 Y6.492
G0 X4.601 Y5.029
G0 X2.38 Y4.11
G0 X-0.012 Y3.794
G0 X0 Y-3.742
G0 X0 Y-3.742
; TYPE:WALL-INNER
G1 Z1.5
G1 F6600 E484.2408
G1 F2400 X0 Y-3.742 E484.2408
G1 X2.395 Y-4.057 E484.34123
G1 X4.628 Y-4.982 E484.44172
G1 X6.545 Y-6.453 E484.54218
G1 X8.016 Y-8.37 E484.64264
G1 X8.941 Y-10.603 E484.74312
G1 X9.256 Y-12.999 E484.84359
G1 X8.941 Y-15.394 E484.94402
G1 X8.016 Y-17.627 E485.04451
G1 X6.545 Y-19.544 E485.14497
G1 X4.628 Y-21.015 E485.24543
G1 X2.395 Y-21.94 E485.34592
G1 X0 Y-22.255 E485.44635
G1 X-2.395 Y-21.94 E485.54678
G1 X-4.627 Y-21.015 E485.64723
G1 X-6.545 Y-19.544 E485.74772
G1 X-8.016 Y-17.627 E485.84818
G1 X-8.941 Y-15.394 E485.94867
G1 X-9.256 Y-12.999 E486.0491
G1 X-8.941 Y-10.603 E486.14957
G1 X-8.016 Y-8.371 E486.25002
G1 X-6.545 Y-6.453 E486.35051
G1 X-4.628 Y-4.982 E486.45097
G1 X-2.395 Y-4.057 E486.55146
G1 X0 Y-3.742 E486.65189
G0 F18000 X0 Y-4.246
; TYPE:WALL-OUTER
G1 F2100 X0 Y-4.246 E486.65189
G1 X2.264 Y-4.544 E486.74683
G1 X4.376 Y-5.419 E486.84187
G1 X6.188 Y-6.81 E486.93684
G1 X7.579 Y-8.622 E487.03182
G1 X8.454 Y-10.734 E487.12686
G1 X8.752 Y-12.999 E487.22184
G1 X8.454 Y-15.263 E487.31678
G1 X7.579 Y-17.375 E487.41182
G1 X6.188 Y-19.187 E487.50679
G1 X4.376 Y-20.578 E487.60177
G1 X2.264 Y-21.453 E487.69681
G1 X0 Y-21.751 E487.79175
G1 X-2.264 Y-21.453 E487.88669
G1 X-4.375 Y-20.578 E487.98169
G1 X-6.188 Y-19.187 E488.0767
G1 X-7.579 Y-17.375 E488.17167
G1 X-8.454 Y-15.263 E488.26671
G1 X-8.752 Y-12.999 E488.36165
G1 X-8.454 Y-10.734 E488.45663
G1 X-7.579 Y-8.623 E488.55164
G1 X-6.188 Y-6.81 E488.64664
G1 X-4.376 Y-5.419 E488.74161
G1 X-2.264 Y-4.544 E488.83666
G1 X0 Y-4.246 E488.9316
G0 F18000 X0 Y-3.298
; TYPE:FILL
G1 F2400 X0 Y3.301 E489.20595
G0 F18000 X-0.243 Y3.333
G1 F2400 X-11.808 Y3.333 E489.68677
G0 F18000 X-11.808 Y4.444
G1 F2400 X-4.473 Y4.444 E489.99172
G0 F18000 X-4.443 Y4.431
G1 F2400 X-4.444 Y-4.429 E490.36008
G0 F18000 X-4.479 Y-4.444
G1 F2400 X-11.807 Y-4.443 E490.66474
G0 F18000 X-11.807 Y-3.332
G1 F2400 X-0.266 Y-3.333 E491.14456
G0 F18000 X0.265 Y-3.333
G1 F2400 X11.809 Y-3.333 E491.6245
G0 F18000 X11.809 Y-4.444
G1 F2400 X4.479 Y-4.444 E491.92925
G0 F18000 X4.443 Y-4.428
G1 F2400 X4.444 Y4.431 E492.29756
G0 F18000 X4.474 Y4.444
G1 F2400 X11.808 Y4.443 E492.60247
G0 F18000 X11.808 Y5.554
G1 F2400 X6.095 Y5.555 E492.83999
G0 F18000 X5.555 Y5.141
G1 F2400 X5.554 Y-5.138 E493.26734
G0 F18000 X6.097 Y-5.555
G1 F2400 X11.809 Y-5.555 E493.50482
G0 F18000 X11.809 Y-6.666
G1 F2400 X7.263 Y-6.666 E493.69382
G0 F18000 X7.776 Y-7.336
G1 F2400 X7.777 Y7.34 E494.30398
G0 F18000 X8.112 Y7.776
G1 F2400 X11.808 Y7.776 E494.45764
G0 F18000 X11.808 Y6.665
G1 F2400 X7.261 Y6.666 E494.64668
G0 F18000 X6.666 Y5.993
G1 F2400 X6.665 Y-5.99 E495.14488
G0 F18000 X8.114 Y-7.777
G0 X8.114 Y-7.777
G1 F2400 X11.809 Y-7.777 E495.2985
G0 F18000 X11.809 Y-8.888
G1 F2400 X8.707 Y-8.888 E495.42747
G0 F18000 X8.887 Y-9.324
G1 F2400 X8.888 Y9.329 E496.20297
G0 F18000 X8.706 Y8.888
G1 F2400 X11.808 Y8.888 E496.33193
G0 F18000 X11.808 Y9.999
G1 F2400 X9.166 Y9.999 E496.44178
G0 F18000 X9.451 Y11.11
G1 F2400 X11.808 Y11.11 E496.53977
G0 F18000 X11.808 Y12.221
G1 F2400 X9.597 Y12.221 E496.63169
G0 F18000 X9.655 Y13.332
G1 F2400 X11.808 Y13.332 E496.7212
G0 F18000 X11.808 Y14.443
G1 F2400 X9.509 Y14.443 E496.81678
G0 F18000 X9.351 Y15.554
G1 F2400 X11.808 Y15.554 E496.91893
G0 F18000 X11.808 Y16.665
G1 F2400 X8.891 Y16.665 E497.04021
G0 F18000 X8.888 Y16.671
G1 F2400 X8.888 Y24.81 E497.37859
G0 F18000 X7.777 Y24.81
G1 F2400 X7.777 Y18.661 E497.63423
G0 F18000 X7.604 Y18.887
G1 F2400 X11.808 Y18.887 E497.80902
G0 F18000 X11.808 Y17.776
G1 F2400 X8.43 Y17.776 E497.94946
G0 F18000 X6.678 Y19.998
G0 X6.678 Y19.998
G1 F2400 X11.808 Y19.998 E498.16274
G0 F18000 X11.808 Y21.109
G1 F2400 X5.228 Y21.109 E498.4363
G0 F18000 X5.555 Y20.858
G1 F2400 X5.555 Y24.81 E498.60061
G0 F18000 X4.444 Y24.81
G1 F2400 X4.444 Y21.569 E498.73535
G0 F18000 X3.333 Y22.029
G1 F2400 X3.333 Y24.81 E498.85097
G0 F18000 X2.222 Y24.81
G1 F2400 X2.222 Y22.409 E498.9508
G0 F18000 X2.873 Y22.22
G1 F2400 X11.808 Y22.22 E499.32227
G0 F18000 X11.808 Y23.331
G1 F2400 X-11.807 Y23.331 E500.30407
G0 F18000 X-11.807 Y24.442
G1 F2400 X11.808 Y24.442 E501.28586
G0 F18000 X11.11 Y24.81
G1 F2400 X11.109 Y-24.793 E503.34812
G0 F18000 X11.808 Y-24.442
G1 F2400 X-11.807 Y-24.442 E504.32992
G0 F18000 X-11.11 Y-24.808
G1 F2400 X-11.109 Y24.81 E506.39279
G0 F18000 X-9.998 Y24.81
G1 F2400 X-9.999 Y-24.807 E508.45563
G0 F18000 X-8.888 Y-24.806
G1 F2400 X-8.888 Y-16.67 E508.79388
G0 F18000 X-8.89 Y-16.665
G1 F2400 X-11.807 Y-16.665 E508.91516
G0 F18000 X-11.807 Y-15.554
G1 F2400 X-9.35 Y-15.554 E509.01731
G0 F18000 X-9.51 Y-14.443
G1 F2400 X-11.807 Y-14.443 E509.11281
G0 F18000 X-11.807 Y-13.332
G1 F2400 X-9.656 Y-13.332 E509.20223
G0 F18000 X-9.598 Y-12.221
G1 F2400 X-11.807 Y-12.221 E509.29407
G0 F18000 X-11.807 Y-11.11
G1 F2400 X-9.452 Y-11.11 E509.39198
G0 F18000 X-9.167 Y-9.999
G1 F2400 X-11.807 Y-9.999 E509.50174
G0 F18000 X-11.807 Y-8.888
G1 F2400 X-8.707 Y-8.888 E509.63062
G0 F18000 X-8.888 Y-9.327
G1 F2400 X-8.887 Y9.327 E510.40617
G0 F18000 X-8.706 Y8.888
G1 F2400 X-11.808 Y8.888 E510.53513
G0 F18000 X-11.808 Y9.999
G1 F2400 X-9.166 Y9.999 E510.64498
G0 F18000 X-9.451 Y11.11
G1 F2400 X-11.808 Y11.11 E510.74297
G0 F18000 X-11.808 Y12.221
G1 F2400 X-9.597 Y12.221 E510.83489
G0 F18000 X-9.656 Y13.332
G1 F2400 X-11.808 Y13.332 E510.92436
G0 F18000 X-11.808 Y14.443
G1 F2400 X-9.51 Y14.443 E511.0199
G0 F18000 X-9.351 Y15.554
G1 F2400 X-11.807 Y15.554 E511.12201
G0 F18000 X-11.807 Y16.665
G1 F2400 X-8.89 Y16.665 E511.24328
G0 F18000 X-8.887 Y16.673
G1 F2400 X-8.887 Y24.81 E511.58158
G0 F18000 X-7.776 Y24.81
G1 F2400 X-7.776 Y18.662 E511.83718
G0 F18000 X-7.603 Y18.887
G1 F2400 X-11.807 Y18.887 E512.01197
G0 F18000 X-11.807 Y19.998
G1 F2400 X-6.678 Y19.998 E512.22521
G0 F18000 X-6.665 Y20.008
G1 F2400 X-6.665 Y24.81 E512.42485
G0 F18000 X-5.554 Y24.81
G1 F2400 X-5.554 Y20.86 E512.58907
G0 F18000 X-5.229 Y21.109
G1 F2400 X-11.807 Y21.109 E512.86255
G0 F18000 X-11.807 Y22.22
G1 F2400 X-2.873 Y22.22 E513.23399
G0 F18000 X-3.332 Y22.03
G1 F2400 X-3.332 Y24.81 E513.34956
G0 F18000 X-2.221 Y24.81
G1 F2400 X-2.221 Y22.409 E513.44939
G0 F18000 X-1.11 Y22.555
G1 F2400 X-1.11 Y24.81 E513.54314
G0 F18000 X0 Y24.81
G1 F2400 X0 Y22.701 E513.63082
G0 F18000 X1.111 Y22.555
G1 F2400 X1.111 Y24.81 E513.72457
G0 F18000 X-4.443 Y24.81
G0 X-4.443 Y24.81
G1 F2400 X-4.443 Y21.57 E513.85928
G0 F18000 X-8.43 Y17.776
G0 X-8.43 Y17.776
G1 F2400 X-11.807 Y17.776 E513.99968
G0 F18000 X-11.808 Y7.777
G0 X-11.808 Y7.777
G1 F2400 X-8.112 Y7.777 E514.15334
G0 F18000 X-7.776 Y7.338
G1 F2400 X-7.777 Y-7.338 E514.76349
G0 F18000 X-8.114 Y-7.776
G1 F2400 X-11.807 Y-7.776 E514.91703
G0 F18000 X-11.807 Y-6.665
G1 F2400 X-7.263 Y-6.666 E515.10595
G0 F18000 X-6.666 Y-5.991
G1 F2400 X-6.665 Y5.992 E515.60414
G0 F18000 X-6.094 Y5.555
G1 F2400 X-11.808 Y5.555 E515.84171
G0 F18000 X-11.808 Y6.666
G1 F2400 X-7.261 Y6.666 E516.03075
G0 F18000 X-5.554 Y5.141
G0 X-5.554 Y5.141
G1 F2400 X-5.555 Y-5.139 E516.45814
G0 F18000 X-6.097 Y-5.555
G1 F2400 X-11.807 Y-5.554 E516.69553
G0 F18000 X-11.807 Y-2.221
G0 X-11.807 Y-2.221
G1 F2400 X11.809 Y-2.222 E517.67737
G0 F18000 X11.809 Y-1.111
G1 F2400 X-11.807 Y-1.11 E518.65921
G0 F18000 X-11.807 Y0
G1 F2400 X11.809 Y0 E519.64105
G0 F18000 X11.808 Y1.11
G1 F2400 X-11.808 Y1.111 E520.62289
G0 F18000 X-11.808 Y2.222
G1 F2400 X11.808 Y2.221 E521.60473
G0 F18000 X11.808 Y3.332
G1 F2400 X0.244 Y3.333 E522.08551
G0 F18000 X1.111 Y3.447
G1 F2400 X1.11 Y-3.444 E522.372
G0 F18000 X2.221 Y-3.589
G1 F2400 X2.222 Y3.591 E522.67051
G0 F18000 X3.333 Y3.971
G1 F2400 X3.332 Y-3.968 E523.00058
G0 F18000 X-1.111 Y-3.444
G0 X-1.111 Y-3.444
G1 F2400 X-1.11 Y3.446 E523.28703
G0 F18000 X-2.221 Y3.591
G1 F2400 X-2.222 Y-3.589 E523.58554
G0 F18000 X-3.333 Y-3.968
G1 F2400 X-3.332 Y3.97 E523.91556
G0 F18000 X5.551 Y-5.958
G0 X6.508 Y-6.49
G0 X7.971 Y-8.397
G0 X7.91 Y-8.594
G0 X9.167 Y-9.999
G0 X9.167 Y-9.999
G1 F2400 X11.809 Y-9.999 E524.0254
G0 F18000 X11.809 Y-11.11
G1 F2400 X9.452 Y-11.11 E524.1234
G0 F18000 X9.598 Y-12.221
G1 F2400 X11.809 Y-12.221 E524.21532
G0 F18000 X11.809 Y-13.332
G1 F2400 X9.656 Y-13.332 E524.30483
G0 F18000 X9.51 Y-14.443
G1 F2400 X11.809 Y-14.443 E524.40041
G0 F18000 X11.808 Y-15.554
G1 F2400 X9.35 Y-15.554 E524.5026
G0 F18000 X8.89 Y-16.665
G1 F2400 X11.808 Y-16.665 E524.62392
G0 F18000 X11.808 Y-17.776
G1 F2400 X8.43 Y-17.776 E524.76436
G0 F18000 X7.776 Y-18.66
G1 F2400 X7.776 Y-24.796 E525.01947
G0 F18000 X6.665 Y-24.796
G1 F2400 X6.665 Y-20.006 E525.21861
G0 F18000 X6.675 Y-19.998
G1 F2400 X11.808 Y-19.998 E525.43202
G0 F18000 X11.808 Y-18.887
G1 F2400 X7.602 Y-18.887 E525.60688
G0 F18000 X8.887 Y-16.672
G0 X8.887 Y-16.672
G1 F2400 X8.887 Y-24.795 E525.9446
G0 F18000 X9.998 Y-24.794
G1 F2400 X9.999 Y24.81 E528.00689
G0 F18000 X12.025 Y25.386
G0 X12.409 Y25.496
G0 X12.158 Y25.425
G0 X12.158 Y25.425
G1 F2400 X12.188 Y25.454 E528.00733
G0 F18000 X12.299 Y25.39
