; Generated with MatterSlice 1.0
; filamentDiameter = 1.75
; extrusionWidth = 0.5
; firstLayerExtrusionWidth = 0.4
; layerThickness = 0.2
; firstLayerThickness = 0.3
; automatic settings before start_gcode
G21 ; set units to millimeters
M107 ; fan off
T0 ; set the active extruder to 0
; settings from start_gcode
M104 S205
M190 S50
M109 S205
G28
; automatic settings after start_gcode
T0 ; set the active extruder to 0
G90 ; use absolute coordinates
G92 E0 ; reset the expected extruder position
M82 ; use absolute distance for extrusion
; Layer count: 140
; Layer Change GCode
; LAYER:0
G4 P0
M107
G0 F18000 X31.6 Y29.122 Z0.6
; TYPE:SKIRT
G1 Z0.3
G1 F6600 E0
G1 F720 X-31.599 Y29.122 E3.15301
G1 X-31.599 Y-29.121 E6.05877
G1 X31.6 Y-29.121 E9.21178
G1 X31.6 Y29.122 E12.11753
G0 F18000 X31.2 Y28.722
G1 F720 X-31.199 Y28.722 E15.23063
G1 X-31.199 Y-28.721 E18.09647
G1 X31.2 Y-28.721 E21.20957
G1 X31.2 Y28.722 E24.07542
G0 F18000 X25.3 Y12.7
; TYPE:WALL-OUTER
G1 F720 X25.3 Y12.7 E24.07542
G1 X27.8 Y12.7 E24.20014
G1 X27.8 Y25.322 E24.82985
G1 X2.678 Y25.322 E26.0832
G1 X2.678 Y-25.321 E28.60979
G1 X27.8 Y-25.321 E29.86313
G1 X27.8 Y-12.699 E30.49284
G1 X25.3 Y-12.699 E30.61757
G1 X25.3 Y-5.699 E30.9668
G1 X21.3 Y-5.699 E31.16636
G1 X21.3 Y5.7 E31.73506
G1 X25.3 Y5.7 E31.93462
G1 X25.3 Y12.7 E32.28385
G0 F18000 X24.9 Y13.1
; TYPE:WALL-INNER
G1 F720 X24.9 Y13.1 E32.28385
G1 X27.4 Y13.1 E32.40858
G1 X27.4 Y24.922 E32.99838
G1 X3.078 Y24.922 E34.21181
G1 X3.078 Y-24.921 E36.69848
G1 X27.4 Y-24.921 E37.91191
G1 X27.4 Y-13.099 E38.50172
G1 X24.9 Y-13.099 E38.62644
G1 X24.9 Y-6.099 E38.97567
G1 X20.9 Y-6.099 E39.17523
G1 X20.9 Y6.1 E39.78384
G1 X24.9 Y6.1 E39.98341
G1 X24.9 Y13.1 E40.33264
G0 F18000 X24.56 Y13.199
; TYPE:BOTTOM-FILL
G1 F720 X3.417 Y13.2 E41.38747
G0 F18000 X3.417 Y13.6
G1 F720 X27.06 Y13.599 E42.56702
G0 F18000 X27.06 Y13.999
G1 F720 X3.417 Y14 E43.74657
G0 F18000 X3.417 Y14.4
G1 F720 X27.06 Y14.399 E44.92613
G0 F18000 X27.06 Y14.799
G1 F720 X3.417 Y14.8 E46.10568
G0 F18000 X3.417 Y15.2
G1 F720 X27.06 Y15.199 E47.28524
G0 F18000 X27.06 Y15.599
G1 F720 X3.417 Y15.6 E48.46479
G0 F18000 X3.417 Y16
G1 F720 X27.06 Y15.999 E49.64434
G0 F18000 X27.06 Y16.4
G1 F720 X3.417 Y16.4 E50.8239
G0 F18000 X3.417 Y16.8
G1 F720 X27.06 Y16.8 E52.00345
G0 F18000 X27.06 Y17.2
G1 F720 X3.417 Y17.2 E53.18301
G0 F18000 X3.417 Y17.6
G1 F720 X27.06 Y17.6 E54.36256
G0 F18000 X27.06 Y18
G1 F720 X3.417 Y18 E55.54211
G0 F18000 X3.417 Y18.4
G1 F720 X27.06 Y18.4 E56.72167
G0 F18000 X27.06 Y18.8
G1 F720 X3.417 Y18.8 E57.90122
G0 F18000 X3.417 Y19.2
G1 F720 X27.06 Y19.2 E59.08078
G0 F18000 X27.06 Y19.6
G1 F720 X3.417 Y19.6 E60.26033
G0 F18000 X3.417 Y20
G1 F720 X27.06 Y20 E61.43988
G0 F18000 X27.06 Y20.4
G1 F720 X3.417 Y20.4 E62.61944
G0 F18000 X3.417 Y20.8
G1 F720 X27.06 Y20.8 E63.79899
G0 F18000 X27.06 Y21.2
G1 F720 X3.417 Y21.2 E64.97855
G0 F18000 X3.417 Y21.6
G1 F720 X27.06 Y21.6 E66.1581
G0 F18000 X27.06 Y22
G1 F720 X3.417 Y22 E67.33765
G0 F18000 X3.417 Y22.4
G1 F720 X27.06 Y22.4 E68.51721
G0 F18000 X27.06 Y22.8
G1 F720 X3.417 Y22.8 E69.69676
G0 F18000 X3.417 Y23.2
G1 F720 X27.06 Y23.2 E70.87632
G0 F18000 X27.06 Y23.6
G1 F720 X3.417 Y23.6 E72.05587
G0 F18000 X3.417 Y24
G1 F720 X27.06 Y24 E73.23542
G0 F18000 X27.06 Y24.4
G1 F720 X3.417 Y24.4 E74.41498
G0 F18000 X3.417 Y12.8
G0 X3.417 Y12.8
G1 F720 X24.56 Y12.799 E75.46981
G0 F18000 X24.56 Y12.399
G1 F720 X3.417 Y12.4 E76.52464
G0 F18000 X3.417 Y12
G1 F720 X24.56 Y11.999 E77.57946
G0 F18000 X24.56 Y11.599
G1 F720 X3.417 Y11.6 E78.63429
G0 F18000 X3.417 Y11.2
G1 F720 X24.56 Y11.199 E79.68912
G0 F18000 X24.56 Y10.799
G1 F720 X3.417 Y10.8 E80.74395
G0 F18000 X3.417 Y10.4
G1 F720 X24.56 Y10.399 E81.79878
G0 F18000 X24.56 Y9.999
G1 F720 X3.417 Y10 E82.85361
G0 F18000 X3.417 Y9.6
G1 F720 X24.56 Y9.599 E83.90844
G0 F18000 X24.56 Y9.199
G1 F720 X3.417 Y9.2 E84.96326
G0 F18000 X3.417 Y8.8
G1 F720 X24.56 Y8.799 E86.01809
G0 F18000 X24.56 Y8.399
G1 F720 X3.417 Y8.4 E87.07292
G0 F18000 X3.417 Y8
G1 F720 X24.56 Y7.999 E88.12775
G0 F18000 X24.56 Y7.599
G1 F720 X3.417 Y7.6 E89.18258
G0 F18000 X3.417 Y7.2
G1 F720 X24.56 Y7.199 E90.23741
G0 F18000 X24.56 Y6.799
G1 F720 X3.417 Y6.8 E91.29224
G0 F18000 X3.417 Y6.4
G1 F720 X20.56 Y6.399 E92.1475
G0 F18000 X20.56 Y5.999
G1 F720 X3.417 Y6 E93.00277
G0 F18000 X3.417 Y5.6
G1 F720 X20.56 Y5.599 E93.85804
G0 F18000 X20.56 Y5.199
G1 F720 X3.417 Y5.2 E94.71331
G0 F18000 X3.417 Y4.8
G1 F720 X20.56 Y4.799 E95.56857
G0 F18000 X20.56 Y4.399
G1 F720 X3.417 Y4.4 E96.42384
G0 F18000 X3.417 Y4
G1 F720 X20.56 Y3.999 E97.27911
G0 F18000 X20.56 Y3.599
G1 F720 X3.417 Y3.6 E98.13438
G0 F18000 X3.417 Y3.2
G1 F720 X20.56 Y3.199 E98.98965
G0 F18000 X20.56 Y2.799
G1 F720 X3.417 Y2.8 E99.84491
G0 F18000 X3.417 Y2.4
G1 F720 X20.56 Y2.399 E100.70018
G0 F18000 X20.56 Y1.999
G1 F720 X3.417 Y1.999 E101.55545
G0 F18000 X3.417 Y1.599
G1 F720 X20.56 Y1.599 E102.41072
G0 F18000 X20.56 Y1.199
G1 F720 X3.417 Y1.199 E103.26598
G0 F18000 X3.417 Y0.799
G1 F720 X20.56 Y0.799 E104.12125
G0 F18000 X20.56 Y0.399
G1 F720 X3.417 Y0.399 E104.97652
G0 F18000 X3.418 Y0
G1 F720 X20.56 Y0 E105.83174
G0 F18000 X20.56 Y-0.4
G1 F720 X3.418 Y-0.4 E106.68696
G0 F18000 X3.418 Y-0.8
G1 F720 X20.56 Y-0.8 E107.54217
G0 F18000 X20.56 Y-1.2
G1 F720 X3.418 Y-1.2 E108.39739
G0 F18000 X3.418 Y-1.6
G1 F720 X20.56 Y-1.6 E109.25261
G0 F18000 X20.56 Y-2
G1 F720 X3.418 Y-2 E110.10783
G0 F18000 X3.418 Y-2.4
G1 F720 X20.56 Y-2.4 E110.96304
G0 F18000 X20.56 Y-2.8
G1 F720 X3.418 Y-2.8 E111.81826
G0 F18000 X3.418 Y-3.2
G1 F720 X20.56 Y-3.2 E112.67348
G0 F18000 X20.56 Y-3.6
G1 F720 X3.418 Y-3.6 E113.5287
G0 F18000 X3.417 Y-4
G1 F720 X20.56 Y-4 E114.38397
G0 F18000 X20.56 Y-4.4
G1 F720 X3.417 Y-4.4 E115.23923
G0 F18000 X3.417 Y-4.8
G1 F720 X20.56 Y-4.8 E116.0945
G0 F18000 X20.56 Y-5.2
G1 F720 X3.417 Y-5.2 E116.94977
G0 F18000 X3.417 Y-5.6
G1 F720 X20.56 Y-5.6 E117.80504
G0 F18000 X20.56 Y-6
G1 F720 X3.417 Y-6 E118.6603
G0 F18000 X3.417 Y-6.4
G1 F720 X20.56 Y-6.4 E119.51557
G0 F18000 X24.56 Y-6.8
G1 F720 X3.417 Y-6.8 E120.5704
G0 F18000 X3.417 Y-7.2
G1 F720 X24.56 Y-7.2 E121.62523
G0 F18000 X24.56 Y-7.6
G1 F720 X3.417 Y-7.6 E122.68006
G0 F18000 X3.417 Y-8
G1 F720 X24.56 Y-8 E123.73489
G0 F18000 X24.56 Y-8.4
G1 F720 X3.417 Y-8.4 E124.78972
G0 F18000 X3.417 Y-8.8
G1 F720 X24.56 Y-8.8 E125.84454
G0 F18000 X24.56 Y-9.2
G1 F720 X3.417 Y-9.2 E126.89937
G0 F18000 X3.417 Y-9.6
G1 F720 X24.56 Y-9.6 E127.9542
G0 F18000 X24.56 Y-10
G1 F720 X3.417 Y-10 E129.00903
G0 F18000 X3.417 Y-10.4
G1 F720 X24.56 Y-10.4 E130.06386
G0 F18000 X24.56 Y-10.8
G1 F720 X3.417 Y-10.8 E131.11869
G0 F18000 X3.417 Y-11.2
G1 F720 X24.56 Y-11.2 E132.17352
G0 F18000 X24.56 Y-11.6
G1 F720 X3.417 Y-11.6 E133.22834
G0 F18000 X3.417 Y-12
G1 F720 X24.56 Y-12 E134.28317
G0 F18000 X24.56 Y-12.4
G1 F720 X3.417 Y-12.4 E135.338
G0 F18000 X3.417 Y-12.8
G1 F720 X24.56 Y-12.8 E136.39283
G0 F18000 X24.56 Y-13.2
G1 F720 X3.417 Y-13.2 E137.44766
G0 F18000 X3.417 Y-13.6
G1 F720 X27.06 Y-13.6 E138.62721
G0 F18000 X27.06 Y-14
G1 F720 X3.417 Y-14 E139.80677
G0 F18000 X3.417 Y-14.4
G1 F720 X27.06 Y-14.4 E140.98632
G0 F18000 X27.06 Y-14.8
G1 F720 X3.417 Y-14.8 E142.16587
G0 F18000 X3.417 Y-15.2
G1 F720 X27.06 Y-15.2 E143.34543
G0 F18000 X27.06 Y-15.6
G1 F720 X3.417 Y-15.6 E144.52498
G0 F18000 X3.417 Y-16
G1 F720 X27.06 Y-16 E145.70454
G0 F18000 X27.06 Y-16.4
G1 F720 X3.417 Y-16.4 E146.88409
G0 F18000 X3.417 Y-16.8
G1 F720 X27.06 Y-16.8 E148.06364
G0 F18000 X27.06 Y-17.2
G1 F720 X3.417 Y-17.2 E149.2432
G0 F18000 X3.417 Y-17.6
G1 F720 X27.06 Y-17.6 E150.42275
G0 F18000 X27.06 Y-18
G1 F720 X3.417 Y-18 E151.60231
G0 F18000 X3.417 Y-18.4
G1 F720 X27.06 Y-18.4 E152.78186
G0 F18000 X27.06 Y-18.8
G1 F720 X3.417 Y-18.8 E153.96141
G0 F18000 X3.417 Y-19.2
G1 F720 X27.06 Y-19.2 E155.14097
G0 F18000 X27.06 Y-19.6
G1 F720 X3.417 Y-19.6 E156.32052
G0 F18000 X3.417 Y-20
G1 F720 X27.06 Y-20 E157.50008
G0 F18000 X27.06 Y-20.4
G1 F720 X3.417 Y-20.4 E158.67963
G0 F18000 X3.417 Y-20.8
G1 F720 X27.06 Y-20.8 E159.85918
G0 F18000 X27.06 Y-21.2
G1 F720 X3.417 Y-21.2 E161.03874
G0 F18000 X3.417 Y-21.6
G1 F720 X27.06 Y-21.6 E162.21829
G0 F18000 X27.06 Y-22
G1 F720 X3.417 Y-22 E163.39785
G0 F18000 X3.417 Y-22.4
G1 F720 X27.06 Y-22.4 E164.5774
G0 F18000 X27.06 Y-22.8
G1 F720 X3.417 Y-22.8 E165.75696
G0 F18000 X3.417 Y-23.2
G1 F720 X27.06 Y-23.2 E166.93651
G0 F18000 X27.06 Y-23.6
G1 F720 X3.417 Y-23.6 E168.11606
G0 F18000 X3.417 Y-24
G1 F720 X27.06 Y-24 E169.29562
G0 F18000 X27.06 Y-24.4
G1 F720 X3.417 Y-24.4 E170.47517
G1 F6600 E163.67517
G1 Z0.6
G0 F18000 X-27.799 Y25.322
; TYPE:WALL-OUTER
G1 Z0.3
G1 F6600 E170.57517
G1 F720 X-27.799 Y25.322 E170.57517
G1 X-27.799 Y-25.321 E173.10176
G1 X-3.024 Y-25.321 E174.33779
G1 X-2.87 Y-25.284 E174.34569
G1 X-2.724 Y-25.148 E174.35565
G1 X-2.682 Y-24.997 E174.36347
G1 X-2.677 Y24.972 E176.85643
G1 X-2.726 Y25.15 E176.86564
G1 X-2.871 Y25.287 E176.87559
G1 X-3.004 Y25.319 E176.88242
G1 X-27.799 Y25.322 E178.11945
G0 F18000 X-27.399 Y24.922
; TYPE:WALL-INNER
G1 F720 X-27.399 Y24.922 E178.11945
G1 X-27.399 Y-24.921 E180.60612
G1 X-3.082 Y-24.921 E181.8193
G1 X-3.077 Y24.919 E184.30583
G1 X-27.399 Y24.922 E185.51926
G0 F18000 X-15.037 Y21.998
G0 X-15.037 Y21.998
G0 X-14.999 Y21.702
; TYPE:WALL-OUTER
G1 F720 X-14.999 Y21.702 E185.51926
G1 X-12.748 Y21.405 E185.63254
G1 X-10.648 Y20.536 E185.74592
G1 X-8.846 Y19.153 E185.85925
G1 X-7.463 Y17.351 E185.97258
G1 X-6.594 Y15.251 E186.08596
G1 X-6.297 Y13 E186.19924
G1 X-6.594 Y10.748 E186.31256
G1 X-7.463 Y8.649 E186.4259
G1 X-8.846 Y6.846 E186.53927
G1 X-10.648 Y5.463 E186.6526
G1 X-12.748 Y4.594 E186.76598
G1 X-14.999 Y4.298 E186.87925
G1 X-17.25 Y4.594 E186.99252
G1 X-19.35 Y5.463 E187.10591
G1 X-21.152 Y6.846 E187.21924
G1 X-22.535 Y8.649 E187.3326
G1 X-23.404 Y10.748 E187.44594
G1 X-23.701 Y13 E187.55927
G1 X-23.404 Y15.251 E187.67254
G1 X-22.535 Y17.351 E187.78593
G1 X-21.152 Y19.153 E187.89926
G1 X-19.35 Y20.536 E188.01258
G1 X-17.25 Y21.405 E188.12597
G1 X-14.999 Y21.702 E188.23925
G0 F18000 X-14.999 Y22.105
; TYPE:WALL-INNER
G1 F720 X-14.999 Y22.105 E188.23925
G1 X-12.643 Y21.795 E188.3578
G1 X-10.446 Y20.885 E188.47644
G1 X-8.561 Y19.438 E188.595
G1 X-7.114 Y17.553 E188.71355
G1 X-6.204 Y15.356 E188.83219
G1 X-5.894 Y13 E188.95075
G1 X-6.204 Y10.643 E189.06935
G1 X-7.114 Y8.447 E189.18794
G1 X-8.561 Y6.561 E189.30654
G1 X-10.446 Y5.114 E189.4251
G1 X-12.644 Y4.204 E189.54378
G1 X-14.999 Y3.895 E189.66228
G1 X-17.354 Y4.204 E189.78078
G1 X-19.552 Y5.114 E189.89946
G1 X-21.437 Y6.561 E190.01802
G1 X-22.884 Y8.447 E190.13662
G1 X-23.794 Y10.643 E190.25521
G1 X-24.104 Y13 E190.37381
G1 X-23.794 Y15.356 E190.49237
G1 X-22.884 Y17.553 E190.61101
G1 X-21.437 Y19.438 E190.72956
G1 X-19.552 Y20.885 E190.84812
G1 X-17.355 Y21.795 E190.96676
G1 X-14.999 Y22.105 E191.08531
G1 F6600 E184.28531
G1 Z0.6
G0 F18000 X-14.998 Y22.102
G0 X-12.645 Y21.793
G0 X-10.447 Y20.883
G0 X-8.563 Y19.436
G0 X-7.116 Y17.552
G0 X-6.206 Y15.354
G0 X-5.896 Y13
G0 X-6.206 Y10.645
G0 X-7.116 Y8.449
G0 X-8.563 Y6.563
G0 X-10.447 Y5.116
G0 X-12.645 Y4.206
G0 X-15.025 Y3.893
G0 X-15.036 Y-3.891
G0 X-15.037 Y-4.291
G0 X-15.037 Y-4.001
G0 X-15.037 Y-4.001
G0 X-14.999 Y-4.297
; TYPE:WALL-OUTER
G1 Z0.3
G1 F6600 E191.18531
G1 F720 X-14.999 Y-4.297 E191.18531
G1 X-12.748 Y-4.593 E191.29858
G1 X-10.648 Y-5.462 E191.41197
G1 X-8.846 Y-6.845 E191.5253
G1 X-7.463 Y-8.648 E191.63866
G1 X-6.594 Y-10.747 E191.752
G1 X-6.297 Y-12.999 E191.86533
G1 X-6.594 Y-15.25 E191.9786
G1 X-7.463 Y-17.35 E192.09199
G1 X-8.846 Y-19.152 E192.20532
G1 X-10.648 Y-20.535 E192.31864
G1 X-12.748 Y-21.404 E192.43203
G1 X-14.999 Y-21.701 E192.54531
G1 X-17.25 Y-21.404 E192.65858
G1 X-19.35 Y-20.535 E192.77197
G1 X-21.152 Y-19.152 E192.8853
G1 X-22.535 Y-17.35 E192.99862
G1 X-23.404 Y-15.25 E193.11201
G1 X-23.701 Y-12.999 E193.22528
G1 X-23.404 Y-10.747 E193.33861
G1 X-22.535 Y-8.648 E193.45195
G1 X-21.152 Y-6.845 E193.56532
G1 X-19.35 Y-5.462 E193.67864
G1 X-17.25 Y-4.593 E193.79203
G1 X-14.999 Y-4.297 E193.9053
G0 F18000 X-14.999 Y-3.894
; TYPE:WALL-INNER
G1 F720 X-14.999 Y-3.894 E193.9053
G1 X-12.644 Y-4.203 E194.0238
G1 X-10.446 Y-5.113 E194.14248
G1 X-8.561 Y-6.56 E194.26104
G1 X-7.114 Y-8.446 E194.37964
G1 X-6.204 Y-10.642 E194.49823
G1 X-5.894 Y-12.999 E194.61683
G1 X-6.204 Y-15.355 E194.73539
G1 X-7.114 Y-17.552 E194.85403
G1 X-8.561 Y-19.437 E194.97258
G1 X-10.446 Y-20.884 E195.09114
G1 X-12.643 Y-21.794 E195.20978
G1 X-14.999 Y-22.104 E195.32833
G1 X-17.355 Y-21.794 E195.44689
G1 X-19.552 Y-20.884 E195.56553
G1 X-21.437 Y-19.437 E195.68408
G1 X-22.884 Y-17.552 E195.80264
G1 X-23.794 Y-15.355 E195.92128
G1 X-24.104 Y-12.999 E196.03983
G1 X-23.794 Y-10.642 E196.15844
G1 X-22.884 Y-8.446 E196.27703
G1 X-21.437 Y-6.56 E196.39563
G1 X-19.552 Y-5.113 E196.51418
G1 X-17.354 Y-4.203 E196.63287
G1 X-14.999 Y-3.894 E196.75137
G1 F6600 E189.95137
G1 Z0.6
G0 F18000 X-14.974 Y-3.937
G0 X-12.645 Y-4.205
G0 X-10.447 Y-5.115
G0 X-8.563 Y-6.562
G0 X-7.116 Y-8.448
G0 X-6.206 Y-10.644
G0 X-5.896 Y-12.999
G0 X-6.206 Y-15.353
G0 X-7.116 Y-17.551
G0 X-7.187 Y-17.621
G0 X-3.022 Y-24.94
G0 X-2.824 Y-25.288
G0 X-2.964 Y-25.044
G0 X-2.964 Y-25.044
; TYPE:FILL
G1 Z0.3
G1 F6600 E196.85137
G1 F720 X-2.936 Y-25.072 E196.85181
G0 F18000 X-2.954 Y25.032
G0 X-2.954 Y25.032
G1 F720 X-2.936 Y25.073 E196.85231
G0 F18000 X-3.416 Y24.4
; TYPE:BOTTOM-FILL
G1 F720 X-27.059 Y24.4 E198.03186
G0 F18000 X-27.059 Y24
G1 F720 X-3.416 Y24 E199.21142
G0 F18000 X-3.416 Y23.6
G1 F720 X-27.059 Y23.6 E200.39097
G0 F18000 X-27.059 Y23.2
G1 F720 X-3.416 Y23.2 E201.57052
G0 F18000 X-3.416 Y22.8
G1 F720 X-27.059 Y22.8 E202.75008
G0 F18000 X-27.059 Y22.4
G1 F720 X-15.363 Y22.4 E203.33359
G0 F18000 X-14.633 Y22.4
G1 F720 X-3.416 Y22.4 E203.89321
G0 F18000 X-3.416 Y22
G1 F720 X-12.248 Y22 E204.33384
G0 F18000 X-11.283 Y21.6
G1 F720 X-3.416 Y21.6 E204.72633
G0 F18000 X-3.416 Y21.2
G1 F720 X-10.318 Y21.2 E205.07067
G0 F18000 X-9.778 Y20.8
G1 F720 X-3.416 Y20.8 E205.38807
G0 F18000 X-3.416 Y20.4
G1 F720 X-9.256 Y20.4 E205.67943
G0 F18000 X-8.735 Y20
G1 F720 X-3.416 Y20 E205.9448
G0 F18000 X-3.416 Y19.6
G1 F720 X-8.257 Y19.6 E206.18632
G0 F18000 X-7.95 Y19.2
G1 F720 X-3.416 Y19.2 E206.41252
G0 F18000 X-3.416 Y18.8
G1 F720 X-7.643 Y18.8 E206.6234
G0 F18000 X-7.336 Y18.4
G1 F720 X-3.417 Y18.4 E206.81892
G0 F18000 X-3.417 Y18
G1 F720 X-7.029 Y18 E206.99913
G0 F18000 X-6.765 Y17.6
G1 F720 X-3.417 Y17.6 E207.16616
G0 F18000 X-3.417 Y17.2
G1 F720 X-6.599 Y17.2 E207.32491
G0 F18000 X-6.433 Y16.8
G1 F720 X-3.417 Y16.8 E207.47538
G0 F18000 X-3.417 Y16.4
G1 F720 X-6.267 Y16.4 E207.61757
G0 F18000 X-6.102 Y16
G1 F720 X-3.417 Y16 E207.75152
G0 F18000 X-3.417 Y15.6
G1 F720 X-5.936 Y15.6 E207.87719
G0 F18000 X-5.839 Y15.2
G1 F720 X-3.417 Y15.2 E207.99803
G0 F18000 X-3.417 Y14.8
G1 F720 X-5.786 Y14.8 E208.11622
G0 F18000 X-5.734 Y14.4
G1 F720 X-3.417 Y14.4 E208.23181
G0 F18000 X-3.417 Y14
G1 F720 X-5.681 Y14 E208.34477
G0 F18000 X-5.629 Y13.6
G1 F720 X-3.417 Y13.6 E208.45512
G0 F18000 X-3.417 Y13.2
G1 F720 X-5.576 Y13.2 E208.56284
G0 F18000 X-5.576 Y12.8
G1 F720 X-3.417 Y12.8 E208.67055
G0 F18000 X-3.417 Y12.4
G1 F720 X-5.629 Y12.4 E208.78091
G0 F18000 X-5.681 Y12
G1 F720 X-3.417 Y12 E208.89386
G0 F18000 X-3.417 Y11.6
G1 F720 X-5.734 Y11.6 E209.00945
G0 F18000 X-5.786 Y11.2
G1 F720 X-3.417 Y11.2 E209.12764
G0 F18000 X-3.417 Y10.8
G1 F720 X-5.839 Y10.8 E209.24848
G0 F18000 X-5.935 Y10.4
G1 F720 X-3.417 Y10.4 E209.3741
G0 F18000 X-3.417 Y10
G1 F720 X-6.101 Y10 E209.50801
G0 F18000 X-6.267 Y9.6
G1 F720 X-3.417 Y9.6 E209.65019
G0 F18000 X-3.417 Y9.2
G1 F720 X-6.433 Y9.2 E209.80066
G0 F18000 X-6.599 Y8.8
G1 F720 X-3.417 Y8.8 E209.95941
G0 F18000 X-3.417 Y8.4
G1 F720 X-6.765 Y8.4 E210.12644
G0 F18000 X-7.029 Y8
G1 F720 X-3.417 Y8 E210.30665
G0 F18000 X-3.417 Y7.6
G1 F720 X-7.335 Y7.6 E210.50212
G0 F18000 X-7.643 Y7.2
G1 F720 X-3.417 Y7.2 E210.71295
G0 F18000 X-3.417 Y6.8
G1 F720 X-7.95 Y6.8 E210.93911
G0 F18000 X-8.256 Y6.4
G1 F720 X-3.417 Y6.4 E211.18052
G0 F18000 X-3.418 Y6
G1 F720 X-8.733 Y6 E211.44569
G0 F18000 X-9.255 Y5.6
G1 F720 X-3.418 Y5.6 E211.7369
G0 F18000 X-3.418 Y5.2
G1 F720 X-9.776 Y5.2 E212.0541
G0 F18000 X-10.314 Y4.8
G1 F720 X-3.418 Y4.8 E212.39815
G0 F18000 X-3.418 Y4.4
G1 F720 X-11.279 Y4.4 E212.79033
G0 F18000 X-12.245 Y4
G1 F720 X-3.418 Y4 E213.23071
G0 F18000 X-3.419 Y3.6
G1 F720 X-14.625 Y3.6 E213.78978
G0 F18000 X-15.373 Y3.6
G1 F720 X-27.059 Y3.6 E214.3728
G0 F18000 X-27.059 Y3.2
G1 F720 X-3.419 Y3.2 E215.5522
G0 F18000 X-3.419 Y2.8
G1 F720 X-27.059 Y2.8 E216.73161
G0 F18000 X-27.059 Y2.4
G1 F720 X-3.419 Y2.4 E217.91101
G0 F18000 X-3.419 Y2
G1 F720 X-27.059 Y2 E219.09042
G0 F18000 X-27.059 Y1.6
G1 F720 X-3.419 Y1.6 E220.26982
G0 F18000 X-3.419 Y1.2
G1 F720 X-27.059 Y1.2 E221.44923
G0 F18000 X-27.059 Y0.8
G1 F720 X-3.419 Y0.8 E222.62863
G0 F18000 X-3.419 Y0.4
G1 F720 X-27.059 Y0.4 E223.80803
G0 F18000 X-27.059 Y0
G1 F720 X-3.419 Y0 E224.98744
G0 F18000 X-3.419 Y-0.399
G1 F720 X-27.059 Y-0.399 E226.16684
G0 F18000 X-27.059 Y-0.799
G1 F720 X-3.419 Y-0.799 E227.34625
G0 F18000 X-3.419 Y-1.199
G1 F720 X-27.059 Y-1.199 E228.52565
G0 F18000 X-27.059 Y-1.599
G1 F720 X-3.419 Y-1.599 E229.70506
G0 F18000 X-3.419 Y-1.999
G1 F720 X-27.059 Y-1.999 E230.88446
G0 F18000 X-27.059 Y-2.399
G1 F720 X-3.419 Y-2.4 E232.06387
G0 F18000 X-3.419 Y-2.8
G1 F720 X-27.059 Y-2.799 E233.24327
G0 F18000 X-27.059 Y-3.199
G1 F720 X-3.419 Y-3.2 E234.42267
G0 F18000 X-3.419 Y-3.6
G1 F720 X-14.625 Y-3.599 E234.98174
G0 F18000 X-15.373 Y-3.599
G1 F720 X-27.059 Y-3.599 E235.56476
G0 F18000 X-27.059 Y-3.999
G1 F720 X-17.753 Y-3.999 E236.02904
G0 F18000 X-18.719 Y-4.399
G1 F720 X-27.059 Y-4.399 E236.44512
G0 F18000 X-27.059 Y-4.799
G1 F720 X-19.684 Y-4.799 E236.81306
G0 F18000 X-20.222 Y-5.199
G1 F720 X-27.059 Y-5.199 E237.15416
G0 F18000 X-27.059 Y-5.599
G1 F720 X-20.743 Y-5.599 E237.46927
G0 F18000 X-21.265 Y-5.999
G1 F720 X-27.059 Y-5.999 E237.75833
G0 F18000 X-27.059 Y-6.399
G1 F720 X-21.742 Y-6.399 E238.0236
G0 F18000 X-22.049 Y-6.799
G1 F720 X-27.059 Y-6.799 E238.27355
G0 F18000 X-27.059 Y-7.199
G1 F720 X-22.355 Y-7.199 E238.50823
G0 F18000 X-22.662 Y-7.599
G1 F720 X-27.059 Y-7.599 E238.7276
G0 F18000 X-27.059 Y-7.999
G1 F720 X-22.969 Y-7.999 E238.93165
G0 F18000 X-23.233 Y-8.399
G1 F720 X-27.059 Y-8.399 E239.12253
G0 F18000 X-27.059 Y-8.799
G1 F720 X-23.399 Y-8.799 E239.30513
G0 F18000 X-23.564 Y-9.199
G1 F720 X-27.059 Y-9.199 E239.4795
G0 F18000 X-27.059 Y-9.599
G1 F720 X-23.73 Y-9.599 E239.64558
G0 F18000 X-23.896 Y-9.999
G1 F720 X-27.059 Y-9.999 E239.80338
G0 F18000 X-27.059 Y-10.399
G1 F720 X-24.062 Y-10.399 E239.9529
G0 F18000 X-24.158 Y-10.799
G1 F720 X-27.059 Y-10.799 E240.09763
G0 F18000 X-27.059 Y-11.199
G1 F720 X-24.211 Y-11.199 E240.23972
G0 F18000 X-24.263 Y-11.599
G1 F720 X-27.059 Y-11.599 E240.37921
G0 F18000 X-27.059 Y-11.999
G1 F720 X-24.316 Y-11.999 E240.51606
G0 F18000 X-24.368 Y-12.399
G1 F720 X-27.059 Y-12.399 E240.65032
G0 F18000 X-27.059 Y-12.799
G1 F720 X-24.421 Y-12.799 E240.78193
G0 F18000 X-24.421 Y-13.199
G1 F720 X-27.059 Y-13.199 E240.91354
G0 F18000 X-27.059 Y-13.599
G1 F720 X-24.368 Y-13.599 E241.04779
G0 F18000 X-24.316 Y-13.999
G1 F720 X-27.059 Y-13.999 E241.18464
G0 F18000 X-27.059 Y-14.399
G1 F720 X-24.263 Y-14.399 E241.32414
G0 F18000 X-24.21 Y-14.799
G1 F720 X-27.059 Y-14.799 E241.46627
G0 F18000 X-27.059 Y-15.199
G1 F720 X-24.158 Y-15.199 E241.611
G0 F18000 X-24.061 Y-15.599
G1 F720 X-27.059 Y-15.599 E241.76057
G0 F18000 X-27.059 Y-15.999
G1 F720 X-23.895 Y-15.999 E241.91843
G0 F18000 X-23.729 Y-16.4
G1 F720 X-27.059 Y-16.4 E242.08456
G0 F18000 X-27.059 Y-16.8
G1 F720 X-23.563 Y-16.8 E242.25898
G0 F18000 X-23.398 Y-17.2
G1 F720 X-27.059 Y-17.2 E242.44163
G0 F18000 X-27.059 Y-17.6
G1 F720 X-23.232 Y-17.6 E242.63256
G0 F18000 X-22.967 Y-18
G1 F720 X-27.059 Y-18 E242.83671
G0 F18000 X-27.059 Y-18.4
G1 F720 X-22.66 Y-18.4 E243.05617
G0 F18000 X-22.353 Y-18.8
G1 F720 X-27.059 Y-18.8 E243.29096
G0 F18000 X-27.059 Y-19.2
G1 F720 X-22.047 Y-19.2 E243.54101
G0 F18000 X-21.74 Y-19.6
G1 F720 X-27.059 Y-19.6 E243.80637
G0 F18000 X-27.059 Y-20
G1 F720 X-21.261 Y-20 E244.09564
G0 F18000 X-20.739 Y-20.4
G1 F720 X-27.059 Y-20.4 E244.41094
G0 F18000 X-27.059 Y-20.8
G1 F720 X-20.218 Y-20.8 E244.75224
G0 F18000 X-19.677 Y-21.2
G1 F720 X-27.059 Y-21.2 E245.12053
G0 F18000 X-27.059 Y-21.6
G1 F720 X-18.712 Y-21.6 E245.53696
G0 F18000 X-17.747 Y-22
G1 F720 X-27.059 Y-22 E246.00154
G0 F18000 X-27.059 Y-22.4
G1 F720 X-15.356 Y-22.4 E246.58541
G0 F18000 X-14.64 Y-22.4
G1 F720 X-3.421 Y-22.4 E247.14512
G0 F18000 X-3.421 Y-22
G1 F720 X-12.25 Y-22 E247.58561
G0 F18000 X-11.285 Y-21.6
G1 F720 X-3.421 Y-21.6 E247.97794
G0 F18000 X-3.421 Y-21.2
G1 F720 X-10.32 Y-21.2 E248.32213
G0 F18000 X-9.779 Y-20.8
G1 F720 X-3.421 Y-20.8 E248.63934
G0 F18000 X-3.421 Y-20.4
G1 F720 X-9.258 Y-20.4 E248.93055
G0 F18000 X-8.736 Y-20
G1 F720 X-3.421 Y-20 E249.19571
G0 F18000 X-3.421 Y-19.6
G1 F720 X-8.257 Y-19.6 E249.43698
G0 F18000 X-7.95 Y-19.2
G1 F720 X-3.421 Y-19.2 E249.66293
G0 F18000 X-3.421 Y-18.8
G1 F720 X-7.644 Y-18.8 E249.87362
G0 F18000 X-7.337 Y-18.4
G1 F720 X-3.42 Y-18.4 E250.06904
G0 F18000 X-3.42 Y-18
G1 F720 X-7.03 Y-18 E250.24914
G0 F18000 X-6.765 Y-17.6
G1 F720 X-3.42 Y-17.6 E250.41603
G0 F18000 X-3.42 Y-17.2
G1 F720 X-6.599 Y-17.2 E250.57463
G0 F18000 X-6.434 Y-16.8
G1 F720 X-3.42 Y-16.8 E250.725
G0 F18000 X-3.42 Y-16.4
G1 F720 X-6.268 Y-16.4 E250.86708
G0 F18000 X-6.102 Y-16
G1 F720 X-3.42 Y-16 E251.00089
G0 F18000 X-3.42 Y-15.6
G1 F720 X-5.936 Y-15.6 E251.12641
G0 F18000 X-5.839 Y-15.2
G1 F720 X-3.42 Y-15.2 E251.2471
G0 F18000 X-3.42 Y-14.8
G1 F720 X-5.787 Y-14.8 E251.36519
G0 F18000 X-5.734 Y-14.4
G1 F720 X-3.42 Y-14.4 E251.48063
G0 F18000 X-3.42 Y-14
G1 F720 X-5.681 Y-14 E251.59343
G0 F18000 X-5.629 Y-13.6
G1 F720 X-3.42 Y-13.6 E251.70364
G0 F18000 X-3.42 Y-13.2
G1 F720 X-5.576 Y-13.2 E251.81121
G0 F18000 X-5.576 Y-12.8
G1 F720 X-3.42 Y-12.8 E251.91877
G0 F18000 X-3.42 Y-12.4
G1 F720 X-5.629 Y-12.4 E252.02898
G0 F18000 X-5.681 Y-12
G1 F720 X-3.42 Y-12 E252.14178
G0 F18000 X-3.42 Y-11.6
G1 F720 X-5.734 Y-11.6 E252.25722
G0 F18000 X-5.786 Y-11.2
G1 F720 X-3.42 Y-11.2 E252.37526
G0 F18000 X-3.42 Y-10.8
G1 F720 X-5.839 Y-10.8 E252.49595
G0 F18000 X-5.935 Y-10.4
G1 F720 X-3.42 Y-10.4 E252.62142
G0 F18000 X-3.42 Y-10
G1 F720 X-6.101 Y-10 E252.75518
G0 F18000 X-6.267 Y-9.6
G1 F720 X-3.42 Y-9.6 E252.89722
G0 F18000 X-3.42 Y-9.2
G1 F720 X-6.433 Y-9.2 E253.04753
G0 F18000 X-6.598 Y-8.8
G1 F720 X-3.42 Y-8.8 E253.20609
G0 F18000 X-3.42 Y-8.4
G1 F720 X-6.764 Y-8.4 E253.37292
G0 F18000 X-7.028 Y-8
G1 F720 X-3.42 Y-8 E253.55292
G0 F18000 X-3.42 Y-7.6
G1 F720 X-7.335 Y-7.6 E253.74824
G0 F18000 X-7.642 Y-7.199
G1 F720 X-3.42 Y-7.2 E253.95888
G0 F18000 X-3.42 Y-6.8
G1 F720 X-7.949 Y-6.799 E254.18483
G0 F18000 X-8.256 Y-6.399
G1 F720 X-3.42 Y-6.4 E254.4261
G0 F18000 X-3.419 Y-6
G1 F720 X-8.733 Y-5.999 E254.69122
G0 F18000 X-9.255 Y-5.599
G1 F720 X-3.419 Y-5.6 E254.98238
G0 F18000 X-3.419 Y-5.2
G1 F720 X-9.776 Y-5.199 E255.29953
G0 F18000 X-10.314 Y-4.799
G1 F720 X-3.419 Y-4.8 E255.64352
G0 F18000 X-3.419 Y-4.4
G1 F720 X-11.279 Y-4.399 E256.03566
G0 F18000 X-12.245 Y-3.999
G1 F720 X-3.419 Y-4 E256.47599
G0 F18000 X-17.753 Y4
G0 X-17.753 Y4
G1 F720 X-27.059 Y4 E256.94027
G0 F18000 X-27.059 Y4.4
G1 F720 X-18.719 Y4.4 E257.35635
G0 F18000 X-19.684 Y4.8
G1 F720 X-27.059 Y4.8 E257.72429
G0 F18000 X-27.059 Y5.2
G1 F720 X-20.222 Y5.2 E258.06539
G0 F18000 X-20.743 Y5.6
G1 F720 X-27.059 Y5.6 E258.3805
G0 F18000 X-27.059 Y6
G1 F720 X-21.265 Y6 E258.66956
G0 F18000 X-21.742 Y6.4
G1 F720 X-27.059 Y6.4 E258.93483
G0 F18000 X-27.059 Y6.8
G1 F720 X-22.049 Y6.8 E259.18478
G0 F18000 X-22.355 Y7.2
G1 F720 X-27.059 Y7.2 E259.41946
G0 F18000 X-27.059 Y7.6
G1 F720 X-22.662 Y7.6 E259.63883
G0 F18000 X-22.969 Y8
G1 F720 X-27.059 Y8 E259.84288
G0 F18000 X-27.059 Y8.4
G1 F720 X-23.233 Y8.4 E260.03376
G0 F18000 X-23.399 Y8.8
G1 F720 X-27.059 Y8.8 E260.21636
G0 F18000 X-27.059 Y9.2
G1 F720 X-23.564 Y9.2 E260.39072
G0 F18000 X-23.73 Y9.6
G1 F720 X-27.059 Y9.6 E260.55681
G0 F18000 X-27.059 Y10
G1 F720 X-23.896 Y10 E260.71461
G0 F18000 X-24.062 Y10.4
G1 F720 X-27.059 Y10.4 E260.86413
G0 F18000 X-27.059 Y10.8
G1 F720 X-24.158 Y10.8 E261.00886
G0 F18000 X-24.211 Y11.2
G1 F720 X-27.059 Y11.2 E261.15095
G0 F18000 X-27.059 Y11.6
G1 F720 X-24.263 Y11.6 E261.29044
G0 F18000 X-24.316 Y12
G1 F720 X-27.059 Y12 E261.42729
G0 F18000 X-27.059 Y12.4
G1 F720 X-24.368 Y12.4 E261.56155
G0 F18000 X-24.421 Y12.8
G1 F720 X-27.059 Y12.8 E261.69316
G0 F18000 X-27.059 Y13.2
G1 F720 X-24.421 Y13.2 E261.82477
G0 F18000 X-24.368 Y13.6
G1 F720 X-27.059 Y13.6 E261.95902
G0 F18000 X-27.059 Y14
G1 F720 X-24.316 Y14 E262.09587
G0 F18000 X-24.263 Y14.4
G1 F720 X-27.059 Y14.4 E262.23536
G0 F18000 X-27.059 Y14.8
G1 F720 X-24.21 Y14.8 E262.3775
G0 F18000 X-24.158 Y15.2
G1 F720 X-27.059 Y15.2 E262.52223
G0 F18000 X-27.059 Y15.6
G1 F720 X-24.061 Y15.6 E262.6718
G0 F18000 X-23.895 Y16
G1 F720 X-27.059 Y16 E262.82966
G0 F18000 X-27.059 Y16.4
G1 F720 X-23.729 Y16.4 E262.99579
G0 F18000 X-23.564 Y16.8
G1 F720 X-27.059 Y16.8 E263.17016
G0 F18000 X-27.059 Y17.2
G1 F720 X-23.398 Y17.2 E263.35281
G0 F18000 X-23.232 Y17.6
G1 F720 X-27.059 Y17.6 E263.54373
G0 F18000 X-27.059 Y18
G1 F720 X-22.968 Y18 E263.74784
G0 F18000 X-22.661 Y18.4
G1 F720 X-27.059 Y18.4 E263.96725
G0 F18000 X-27.059 Y18.8
G1 F720 X-22.354 Y18.8 E264.20199
G0 F18000 X-22.047 Y19.2
G1 F720 X-27.059 Y19.2 E264.45204
G0 F18000 X-27.059 Y19.6
G1 F720 X-21.74 Y19.6 E264.7174
G0 F18000 X-21.262 Y20
G1 F720 X-27.059 Y20 E265.00662
G0 F18000 X-27.059 Y20.4
G1 F720 X-20.741 Y20.4 E265.32182
G0 F18000 X-20.219 Y20.8
G1 F720 X-27.059 Y20.8 E265.66307
G0 F18000 X-27.059 Y21.2
G1 F720 X-19.679 Y21.2 E266.03126
G0 F18000 X-18.714 Y21.6
G1 F720 X-27.059 Y21.6 E266.44759
G0 F18000 X-27.059 Y22
G1 F720 X-17.749 Y22 E266.91207
G1 F6600 E260.11207
G1 Z0.6
G0 F18000 X-17.84 Y21.553
G0 X-19.551 Y20.883
G0 X-21.435 Y19.436
G0 X-22.882 Y17.552
G0 X-23.792 Y15.354
G0 X-24.102 Y13
G0 X-23.792 Y10.645
G0 X-22.882 Y8.449
G0 X-21.435 Y6.563
G0 X-21.018 Y6.264
G0 X-27.059 Y-22.8
G0 X-27.059 Y-22.8
G1 Z0.3
G1 F6600 E267.01207
G1 F720 X-3.421 Y-22.8 E268.19138
G0 F18000 X-3.421 Y-23.2
G1 F720 X-27.059 Y-23.2 E269.37068
G0 F18000 X-27.059 Y-23.6
G1 F720 X-3.421 Y-23.6 E270.54999
G0 F18000 X-3.421 Y-24
G1 F720 X-27.059 Y-24 E271.72929
G0 F18000 X-27.059 Y-24.4
G1 F720 X-3.421 Y-24.4 E272.90859
; Layer Change GCode
; LAYER:1
G1 F6600 E266.10859
G1 Z0.6
G0 F18000 X25.25 Y12.75 Z0.8
G0 X24.75 Y13.25
; TYPE:WALL-INNER
G1 Z0.5
G1 F6600 E273.00859
G1 F2400 X24.75 Y13.25 E273.00859
G1 X27.25 Y13.25 E273.11253
G1 X27.25 Y25.04 E273.6027
G1 X2.959 Y25.04 E274.61261
G1 X2.959 Y-25.039 E276.69465
G1 X27.25 Y-25.039 E277.70455
G1 X27.25 Y-13.249 E278.19472
G1 X24.75 Y-13.249 E278.29866
G1 X24.75 Y-6.249 E278.58969
G1 X20.75 Y-6.249 E278.75599
G1 X20.75 Y6.25 E279.27564
G1 X24.75 Y6.25 E279.44194
G1 X24.75 Y13.25 E279.73296
G0 F18000 X25.25 Y12.75
; TYPE:WALL-OUTER
G1 F2100 X25.25 Y12.75 E279.73296
G1 X27.75 Y12.75 E279.8369
G1 X27.75 Y25.54 E280.36865
G1 X2.459 Y25.54 E281.42012
G1 X2.459 Y-25.539 E283.54374
G1 X27.75 Y-25.539 E284.59522
G1 X27.75 Y-12.749 E285.12697
G1 X25.25 Y-12.749 E285.2309
G1 X25.25 Y-5.749 E285.52193
G1 X21.25 Y-5.749 E285.68823
G1 X21.25 Y5.75 E286.1663
G1 X25.25 Y5.75 E286.33261
G1 X25.25 Y12.75 E286.62363
G0 F18000 X25 Y13.689
; TYPE:FILL
G1 F2400 X25 Y24.599 E287.07722
G0 F18000 X25.5 Y24.599
G1 F2400 X25.5 Y13.689 E287.5308
G0 F18000 X26 Y13.689
G1 F2400 X26 Y24.599 E287.98439
G0 F18000 X26.5 Y24.599
G1 F2400 X26.5 Y13.689 E288.43797
G0 F18000 X24.5 Y13.689
G1 F2400 X24.5 Y24.599 E288.89156
G0 F18000 X24 Y24.599
G1 F2400 X24 Y6.689 E289.63617
G0 F18000 X23.5 Y6.689
G1 F2400 X23.5 Y24.599 E290.38078
G0 F18000 X23 Y24.599
G1 F2400 X23 Y6.689 E291.12539
G0 F18000 X22.5 Y6.689
G1 F2400 X22.5 Y24.599 E291.87
G0 F18000 X22 Y24.599
G1 F2400 X22 Y6.689 E292.61461
G0 F18000 X21.5 Y6.689
G1 F2400 X21.5 Y24.599 E293.35922
G0 F18000 X21 Y24.599
G1 F2400 X21 Y6.689 E294.10384
G0 F18000 X20.5 Y6.689
G1 F2400 X20.5 Y24.599 E294.84845
G0 F18000 X20 Y24.599
G1 F2400 X19.999 Y-24.598 E296.89382
G0 F18000 X19.499 Y-24.598
G1 F2400 X19.5 Y24.599 E298.93919
G0 F18000 X19 Y24.599
G1 F2400 X18.999 Y-24.598 E300.98457
G0 F18000 X18.499 Y-24.598
G1 F2400 X18.5 Y24.599 E303.02994
G0 F18000 X18 Y24.599
G1 F2400 X17.999 Y-24.598 E305.07531
G0 F18000 X17.499 Y-24.598
G1 F2400 X17.5 Y24.599 E307.12069
G0 F18000 X17 Y24.599
G1 F2400 X16.999 Y-24.598 E309.16606
G0 F18000 X16.499 Y-24.598
G1 F2400 X16.5 Y24.599 E311.21144
G0 F18000 X16 Y24.599
G1 F2400 X15.999 Y-24.598 E313.25681
G0 F18000 X15.499 Y-24.598
G1 F2400 X15.5 Y24.599 E315.30218
G0 F18000 X15 Y24.599
G1 F2400 X14.999 Y-24.599 E317.3476
G0 F18000 X14.499 Y-24.599
G1 F2400 X14.5 Y24.6 E319.39305
G0 F18000 X14 Y24.6
G1 F2400 X13.999 Y-24.599 E321.43851
G0 F18000 X13.499 Y-24.599
G1 F2400 X13.5 Y24.6 E323.48397
G0 F18000 X13 Y24.6
G1 F2400 X12.999 Y-24.599 E325.52942
G0 F18000 X12.499 Y-24.599
G1 F2400 X12.5 Y24.6 E327.57488
G0 F18000 X12 Y24.6
G1 F2400 X11.999 Y-24.599 E329.62034
G0 F18000 X11.499 Y-24.599
G1 F2400 X11.5 Y24.6 E331.66579
G0 F18000 X11 Y24.6
G1 F2400 X10.999 Y-24.599 E333.71125
G0 F18000 X10.499 Y-24.599
G1 F2400 X10.5 Y24.6 E335.75671
G0 F18000 X10 Y24.6
G1 F2400 X9.999 Y-24.599 E337.80217
G0 F18000 X9.499 Y-24.599
G1 F2400 X9.5 Y24.6 E339.84762
G0 F18000 X9 Y24.6
G1 F2400 X8.999 Y-24.599 E341.89308
G0 F18000 X8.499 Y-24.599
G1 F2400 X8.5 Y24.6 E343.93854
G0 F18000 X8 Y24.6
G1 F2400 X7.999 Y-24.599 E345.98399
G0 F18000 X7.499 Y-24.599
G1 F2400 X7.5 Y24.6 E348.02945
G0 F18000 X7 Y24.6
G1 F2400 X6.999 Y-24.599 E350.07491
G0 F18000 X6.499 Y-24.599
G1 F2400 X6.5 Y24.6 E352.12036
G0 F18000 X6 Y24.6
G1 F2400 X5.999 Y-24.599 E354.16582
G0 F18000 X5.499 Y-24.599
G1 F2400 X5.5 Y24.6 E356.21128
G0 F18000 X5 Y24.6
G1 F2400 X4.999 Y-24.599 E358.25673
G0 F18000 X4.499 Y-24.599
G1 F2400 X4.5 Y24.6 E360.30219
G0 F18000 X4 Y24.6
G1 F2400 X3.999 Y-24.599 E362.34765
G0 F18000 X3.499 Y-24.599
G1 F2400 X3.5 Y24.6 E364.3931
G0 F18000 X20.5 Y-6.688
G0 X20.5 Y-6.688
G1 F2400 X20.499 Y-24.598 E365.13771
G0 F18000 X20.999 Y-24.598
G1 F2400 X21 Y-6.688 E365.88233
G0 F18000 X21.5 Y-6.688
G1 F2400 X21.499 Y-24.598 E366.62694
G0 F18000 X21.999 Y-24.598
G1 F2400 X22 Y-6.688 E367.37155
G0 F18000 X22.5 Y-6.688
G1 F2400 X22.499 Y-24.598 E368.11616
G0 F18000 X22.999 Y-24.598
G1 F2400 X23 Y-6.688 E368.86077
G0 F18000 X23.5 Y-6.688
G1 F2400 X23.499 Y-24.598 E369.60538
G0 F18000 X23.999 Y-24.598
G1 F2400 X24 Y-6.688 E370.34999
G0 F18000 X24.5 Y-13.688
G0 X24.5 Y-13.688
G1 F2400 X24.499 Y-24.598 E370.80358
G0 F18000 X24.999 Y-24.598
G1 F2400 X25 Y-13.688 E371.25716
G0 F18000 X25.5 Y-13.688
G1 F2400 X25.499 Y-24.598 E371.71075
G0 F18000 X25.999 Y-24.598
G1 F2400 X26 Y-13.688 E372.16433
G0 F18000 X26.5 Y-13.688
G1 F2400 X26.499 Y-24.598 E372.61792
G1 F6600 E365.81792
G1 Z0.8
G0 F18000 X-27.749 Y25.54
G0 X-27.249 Y25.04
; TYPE:WALL-INNER
G1 Z0.5
G1 F6600 E372.71792
G1 F2400 X-27.249 Y25.04 E372.71792
G1 X-27.249 Y-25.039 E374.79996
G1 X-2.98 Y-25.023 E375.80895
G1 X-2.959 Y-24.936 E375.81267
G1 X-2.959 Y24.937 E377.88615
G1 X-2.981 Y25.025 E377.88992
G1 X-27.249 Y25.04 E378.89887
G0 F18000 X-27.749 Y25.54
; TYPE:WALL-OUTER
G1 F2100 X-27.749 Y25.54 E378.89887
G1 X-27.749 Y-25.539 E381.02248
G1 X-2.932 Y-25.529 E382.05426
G1 X-2.764 Y-25.488 E382.06144
G1 X-2.593 Y-25.356 E382.07043
G1 X-2.492 Y-25.175 E382.07904
G1 X-2.459 Y-24.976 E382.08743
G1 X-2.459 Y24.977 E384.16423
G1 X-2.493 Y25.179 E384.17275
G1 X-2.575 Y25.339 E384.18023
G1 X-2.747 Y25.48 E384.18947
G1 X-2.932 Y25.53 E384.19744
G1 X-27.749 Y25.54 E385.22921
G0 F18000 X-27.399 Y25.28
G0 X-21.544 Y19.545
G0 X-21.544 Y19.545
; TYPE:WALL-INNER
G1 F2400 X-21.544 Y19.545 E385.22921
G1 X-19.627 Y21.016 E385.32967
G1 X-17.394 Y21.941 E385.43016
G1 X-14.999 Y22.256 E385.53059
G1 X-12.604 Y21.941 E385.63102
G1 X-10.371 Y21.016 E385.73151
G1 X-8.454 Y19.545 E385.83197
G1 X-6.983 Y17.628 E385.93243
G1 X-6.058 Y15.395 E386.03291
G1 X-5.743 Y13 E386.13334
G1 X-6.058 Y10.604 E386.23381
G1 X-6.983 Y8.372 E386.33426
G1 X-8.454 Y6.454 E386.43476
G1 X-10.371 Y4.983 E386.53522
G1 X-12.604 Y4.058 E386.6357
G1 X-14.999 Y3.744 E386.73613
G1 X-17.394 Y4.058 E386.83655
G1 X-19.627 Y4.983 E386.93704
G1 X-21.544 Y6.454 E387.0375
G1 X-23.015 Y8.372 E387.13799
G1 X-23.94 Y10.604 E387.23844
G1 X-24.255 Y13 E387.33891
G1 X-23.94 Y15.395 E387.43934
G1 X-23.015 Y17.628 E387.53983
G1 X-21.544 Y19.545 E387.64029
G0 F18000 X-20.892 Y19.8
G0 X-19.6 Y20.971
G0 X-17.38 Y21.89
G0 X-15.241 Y22.019
G0 X-15.045 Y22.098
G0 X-15.045 Y22.098
G0 X-14.999 Y21.752
; TYPE:WALL-OUTER
G1 F2100 X-14.999 Y21.752 E387.64029
G1 X-12.735 Y21.454 E387.73523
G1 X-10.623 Y20.579 E387.83027
G1 X-8.811 Y19.188 E387.92525
G1 X-7.42 Y17.376 E388.02022
G1 X-6.545 Y15.264 E388.11526
G1 X-6.247 Y13 E388.2102
G1 X-6.545 Y10.735 E388.30518
G1 X-7.42 Y8.624 E388.40018
G1 X-8.811 Y6.811 E388.49519
G1 X-10.623 Y5.42 E388.59016
G1 X-12.735 Y4.545 E388.68521
G1 X-14.999 Y4.248 E388.78014
G1 X-17.263 Y4.545 E388.87507
G1 X-19.375 Y5.42 E388.97012
G1 X-21.187 Y6.811 E389.06509
G1 X-22.578 Y8.624 E389.16009
G1 X-23.453 Y10.735 E389.2551
G1 X-23.751 Y13 E389.35008
G1 X-23.453 Y15.264 E389.44502
G1 X-22.578 Y17.376 E389.54006
G1 X-21.187 Y19.188 E389.63503
G1 X-19.375 Y20.579 E389.73
G1 X-17.263 Y21.454 E389.82505
G1 X-14.999 Y21.752 E389.91999
G1 F6600 E383.11999
G1 Z0.8
G0 F18000 X-15.045 Y22.098
G0 X-15.044 Y22.209
G0 X-12.618 Y21.89
G0 X-10.398 Y20.971
G0 X-8.491 Y19.508
G0 X-7.028 Y17.601
G0 X-6.109 Y15.381
G0 X-5.795 Y13
G0 X-6.109 Y10.618
G0 X-7.028 Y8.399
G0 X-8.491 Y6.491
G0 X-10.398 Y5.028
G0 X-12.619 Y4.109
G0 X-15.011 Y3.794
G0 X-14.999 Y-3.743
G0 X-14.999 Y-3.743
; TYPE:WALL-INNER
G1 Z0.5
G1 F6600 E390.01999
G1 F2400 X-14.999 Y-3.743 E390.01999
G1 X-12.604 Y-4.057 E390.12041
G1 X-10.371 Y-4.982 E390.2209
G1 X-8.454 Y-6.453 E390.32136
G1 X-6.983 Y-8.371 E390.42185
G1 X-6.058 Y-10.603 E390.5223
G1 X-5.743 Y-12.999 E390.62277
G1 X-6.058 Y-15.394 E390.7232
G1 X-6.983 Y-17.627 E390.82369
G1 X-8.454 Y-19.544 E390.92415
G1 X-10.371 Y-21.015 E391.02461
G1 X-12.604 Y-21.94 E391.1251
G1 X-14.999 Y-22.255 E391.22553
G1 X-17.394 Y-21.94 E391.32596
G1 X-19.627 Y-21.015 E391.42644
G1 X-21.544 Y-19.544 E391.5269
G1 X-23.015 Y-17.627 E391.62736
G1 X-23.94 Y-15.394 E391.72785
G1 X-24.255 Y-12.999 E391.82828
G1 X-23.94 Y-10.603 E391.92875
G1 X-23.015 Y-8.371 E392.0292
G1 X-21.544 Y-6.453 E392.12969
G1 X-19.627 Y-4.982 E392.23015
G1 X-17.394 Y-4.057 E392.33064
G1 X-14.999 Y-3.743 E392.43107
G0 F18000 X-14.999 Y-4.247
; TYPE:WALL-OUTER
G1 F2100 X-14.999 Y-4.247 E392.43107
G1 X-12.735 Y-4.544 E392.526
G1 X-10.623 Y-5.419 E392.62104
G1 X-8.811 Y-6.81 E392.71602
G1 X-7.42 Y-8.623 E392.81102
G1 X-6.545 Y-10.734 E392.90603
G1 X-6.247 Y-12.999 E393.00101
G1 X-6.545 Y-15.263 E393.09594
G1 X-7.42 Y-17.375 E393.19099
G1 X-8.811 Y-19.187 E393.28596
G1 X-10.623 Y-20.578 E393.38093
G1 X-12.735 Y-21.453 E393.47598
G1 X-14.999 Y-21.751 E393.57091
G1 X-17.263 Y-21.453 E393.66585
G1 X-19.375 Y-20.578 E393.7609
G1 X-21.187 Y-19.187 E393.85587
G1 X-22.578 Y-17.375 E393.95084
G1 X-23.453 Y-15.263 E394.04588
G1 X-23.751 Y-12.999 E394.14082
G1 X-23.453 Y-10.734 E394.2358
G1 X-22.578 Y-8.623 E394.33081
G1 X-21.187 Y-6.81 E394.42581
G1 X-19.375 Y-5.419 E394.52078
G1 X-17.263 Y-4.544 E394.61583
G1 X-14.999 Y-4.247 E394.71076
G0 F18000 X-15 Y-3.298
; TYPE:FILL
G1 F2400 X-15 Y3.299 E394.98503
G0 F18000 X-14.5 Y3.364
G1 F2400 X-14.5 Y-3.363 E395.26471
G0 F18000 X-14 Y-3.429
G1 F2400 X-14 Y3.43 E395.54987
G0 F18000 X-13.5 Y3.496
G1 F2400 X-13.5 Y-3.495 E395.84052
G0 F18000 X-13 Y-3.56
G1 F2400 X-13 Y3.561 E396.13658
G0 F18000 X-12.5 Y3.627
G1 F2400 X-12.5 Y-3.626 E396.43813
G0 F18000 X-12 Y-3.83
G1 F2400 X-12 Y3.831 E396.75663
G0 F18000 X-11.5 Y4.038
G1 F2400 X-11.5 Y-4.037 E397.09235
G0 F18000 X-11 Y-4.244
G1 F2400 X-11 Y4.245 E397.44528
G0 F18000 X-10.5 Y4.452
G1 F2400 X-10.5 Y-4.451 E397.81543
G0 F18000 X-10 Y-4.712
G1 F2400 X-10 Y4.713 E398.20727
G0 F18000 X-9.5 Y5.097
G1 F2400 X-9.5 Y-5.095 E398.63101
G0 F18000 X-9 Y-5.478
G1 F2400 X-9 Y5.48 E399.08659
G0 F18000 X-8.5 Y5.863
G1 F2400 X-8.5 Y-5.861 E399.57402
G0 F18000 X-8 Y-6.319
G1 F2400 X-7.999 Y6.322 E400.09957
G0 F18000 X-7.499 Y6.974
G1 F2400 X-7.5 Y-6.972 E400.67938
G0 F18000 X-7 Y-7.625
G1 F2400 X-6.999 Y7.627 E401.31348
G0 F18000 X-6.499 Y8.387
G1 F2400 X-6.5 Y-8.385 E402.01078
G0 F18000 X-6 Y-9.591
G1 F2400 X-5.999 Y9.594 E402.8084
G0 F18000 X-5.499 Y11.471
G0 X-5.499 Y11.471
G1 F2400 X-5.5 Y-11.462 E403.76184
G0 F18000 X-5.5 Y-14.535
G0 X-5.5 Y-14.535
G1 F2400 X-5.5 Y-24.584 E404.17963
G0 F18000 X-5 Y-24.584
G1 F2400 X-4.999 Y24.586 E406.22388
G0 F18000 X-5.499 Y24.586
G1 F2400 X-5.499 Y14.529 E406.642
G0 F18000 X-5.999 Y16.405
G0 X-5.999 Y16.405
G1 F2400 X-5.999 Y24.587 E406.98217
G0 F18000 X-6.499 Y24.587
G1 F2400 X-6.499 Y17.612 E407.27216
G0 F18000 X-6.999 Y18.372
G1 F2400 X-6.999 Y24.587 E407.53055
G0 F18000 X-7.499 Y24.587
G1 F2400 X-7.499 Y19.024 E407.76183
G0 F18000 X-7.999 Y19.676
G1 F2400 X-7.999 Y24.588 E407.96605
G0 F18000 X-8.499 Y24.588
G1 F2400 X-8.499 Y20.135 E408.15118
G0 F18000 X-8.999 Y20.518
G1 F2400 X-8.999 Y24.588 E408.32039
G0 F18000 X-9.499 Y24.589
G1 F2400 X-9.499 Y20.901 E408.47372
G0 F18000 X-9.999 Y21.285
G1 F2400 X-9.999 Y24.589 E408.61109
G0 F18000 X-10.499 Y24.589
G1 F2400 X-10.499 Y21.546 E408.7376
G0 F18000 X-10.999 Y21.753
G1 F2400 X-10.999 Y24.59 E408.85555
G0 F18000 X-11.499 Y24.59
G1 F2400 X-11.499 Y21.96 E408.96489
G0 F18000 X-11.999 Y22.167
G1 F2400 X-11.999 Y24.59 E409.06563
G0 F18000 X-12.499 Y24.59
G1 F2400 X-12.499 Y22.371 E409.15788
G0 F18000 X-12.999 Y22.437
G1 F2400 X-12.999 Y24.591 E409.24744
G0 F18000 X-13.499 Y24.591
G1 F2400 X-13.499 Y22.503 E409.33424
G0 F18000 X-13.999 Y22.568
G1 F2400 X-13.999 Y24.591 E409.41835
G0 F18000 X-14.499 Y24.592
G1 F2400 X-14.499 Y22.634 E409.49976
G0 F18000 X-14.999 Y22.699
G1 F2400 X-14.999 Y24.592 E409.57846
G0 F18000 X-15.499 Y24.592
G1 F2400 X-15.499 Y22.633 E409.6599
G0 F18000 X-15.999 Y22.567
G1 F2400 X-15.999 Y24.593 E409.74413
G0 F18000 X-16.499 Y24.593
G1 F2400 X-16.499 Y22.502 E409.83107
G0 F18000 X-16.999 Y22.436
G1 F2400 X-16.999 Y24.593 E409.92075
G0 F18000 X-17.499 Y24.593
G1 F2400 X-17.499 Y22.37 E410.01317
G0 F18000 X-17.999 Y22.166
G1 F2400 X-17.999 Y24.594 E410.11411
G0 F18000 X-18.499 Y24.594
G1 F2400 X-18.499 Y21.958 E410.2237
G0 F18000 X-18.999 Y21.751
G1 F2400 X-18.999 Y24.594 E410.3419
G0 F18000 X-19.499 Y24.595
G1 F2400 X-19.499 Y21.544 E410.46875
G0 F18000 X-19.999 Y21.282
G1 F2400 X-19.999 Y24.595 E410.60649
G0 F18000 X-20.499 Y24.595
G1 F2400 X-20.499 Y20.899 E410.76015
G0 F18000 X-20.999 Y20.516
G1 F2400 X-20.999 Y24.596 E410.92977
G0 F18000 X-21.499 Y24.596
G1 F2400 X-21.499 Y20.132 E411.11537
G0 F18000 X-21.999 Y19.673
G1 F2400 X-21.999 Y24.596 E411.32004
G0 F18000 X-22.499 Y24.596
G1 F2400 X-22.499 Y19.02 E411.55186
G0 F18000 X-22.999 Y18.368
G1 F2400 X-22.999 Y24.597 E411.81084
G0 F18000 X-23.499 Y24.597
G1 F2400 X-23.499 Y17.606 E412.10149
G0 F18000 X-23.999 Y16.399
G1 F2400 X-23.999 Y24.597 E412.44232
G0 F18000 X-24.499 Y24.598
G1 F2400 X-24.5 Y14.513 E412.86161
G0 F18000 X-24.5 Y11.485
G0 X-24.5 Y11.485
G1 F2400 X-24.5 Y-11.484 E413.81655
G0 F18000 X-24 Y-9.597
G0 X-24 Y-9.597
G1 F2400 X-24 Y9.598 E414.61458
G0 F18000 X-23.5 Y8.392
G1 F2400 X-23.5 Y-8.391 E415.31234
G0 F18000 X-23 Y-7.629
G1 F2400 X-23 Y7.63 E415.94673
G0 F18000 X-22.5 Y6.977
G1 F2400 X-22.5 Y-6.976 E416.52683
G0 F18000 X-22 Y-6.323
G1 F2400 X-22 Y6.324 E417.05263
G0 F18000 X-21.5 Y5.865
G1 F2400 X-21.5 Y-5.864 E417.54027
G0 F18000 X-21 Y-5.48
G1 F2400 X-21 Y5.481 E417.99597
G0 F18000 X-20.5 Y5.098
G1 F2400 X-20.5 Y-5.097 E418.41983
G0 F18000 X-20 Y-4.714
G1 F2400 X-20 Y4.715 E418.81184
G0 F18000 X-19.5 Y4.453
G1 F2400 X-19.5 Y-4.452 E419.18207
G0 F18000 X-19 Y-4.245
G1 F2400 X-19 Y4.246 E419.53509
G0 F18000 X-18.5 Y4.039
G1 F2400 X-18.5 Y-4.038 E419.87089
G0 F18000 X-18 Y-3.831
G1 F2400 X-18 Y3.832 E420.18948
G0 F18000 X-17.5 Y3.627
G1 F2400 X-17.5 Y-3.626 E420.49102
G0 F18000 X-17 Y-3.56
G1 F2400 X-17 Y3.561 E420.78708
G0 F18000 X-16.5 Y3.496
G1 F2400 X-16.5 Y-3.495 E421.07773
G0 F18000 X-16 Y-3.429
G1 F2400 X-16 Y3.43 E421.3629
G0 F18000 X-15.5 Y3.365
G1 F2400 X-15.5 Y-3.364 E421.64266
G0 F18000 X-16.003 Y-3.988
G0 X-17.379 Y-4.108
G0 X-19.6 Y-5.027
G0 X-21.507 Y-6.49
G0 X-22.97 Y-8.398
G0 X-23.889 Y-10.617
G0 X-24.203 Y-12.999
G0 X-24.027 Y-13.922
G0 X-24.5 Y-14.507
G0 X-24.5 Y-14.507
G1 F2400 X-24.5 Y-24.596 E422.06211
G0 F18000 X-24 Y-24.596
G1 F2400 X-24 Y-16.396 E422.40302
G0 F18000 X-23.5 Y-17.603
G1 F2400 X-23.5 Y-24.596 E422.69376
G0 F18000 X-23 Y-24.595
G1 F2400 X-23 Y-18.366 E422.95273
G0 F18000 X-22.5 Y-19.018
G1 F2400 X-22.5 Y-24.595 E423.1846
G0 F18000 X-22 Y-24.595
G1 F2400 X-22 Y-19.67 E423.38935
G0 F18000 X-21.5 Y-20.131
G1 F2400 X-21.5 Y-24.594 E423.5749
G0 F18000 X-21 Y-24.594
G1 F2400 X-21 Y-20.514 E423.74453
G0 F18000 X-20.5 Y-20.897
G1 F2400 X-20.5 Y-24.594 E423.89823
G0 F18000 X-20 Y-24.593
G1 F2400 X-20 Y-21.28 E424.03597
G0 F18000 X-19.5 Y-21.543
G1 F2400 X-19.5 Y-24.593 E424.16278
G0 F18000 X-19 Y-24.593
G1 F2400 X-19 Y-21.75 E424.28098
G0 F18000 X-18.5 Y-21.957
G1 F2400 X-18.5 Y-24.592 E424.39053
G0 F18000 X-18 Y-24.592
G1 F2400 X-18 Y-22.164 E424.49147
G0 F18000 X-17.5 Y-22.369
G1 F2400 X-17.5 Y-24.592 E424.58389
G0 F18000 X-17 Y-24.591
G1 F2400 X-17 Y-22.435 E424.67353
G0 F18000 X-16.5 Y-22.501
G1 F2400 X-16.5 Y-24.591 E424.76042
G0 F18000 X-16 Y-24.591
G1 F2400 X-16 Y-22.566 E424.84461
G0 F18000 X-15.5 Y-22.632
G1 F2400 X-15.5 Y-24.59 E424.92601
G0 F18000 X-15 Y-24.59
G1 F2400 X-15 Y-22.698 E425.00467
G0 F18000 X-14.5 Y-22.634
G1 F2400 X-14.5 Y-24.591 E425.08604
G0 F18000 X-14 Y-24.59
G1 F2400 X-14 Y-22.568 E425.1701
G0 F18000 X-13.5 Y-22.502
G1 F2400 X-13.5 Y-24.59 E425.25691
G0 F18000 X-13 Y-24.59
G1 F2400 X-13 Y-22.436 E425.34646
G0 F18000 X-12.5 Y-22.371
G1 F2400 X-12.5 Y-24.589 E425.43868
G0 F18000 X-12 Y-24.589
G1 F2400 X-12 Y-22.167 E425.53937
G0 F18000 X-11.5 Y-21.96
G1 F2400 X-11.5 Y-24.589 E425.64867
G0 F18000 X-11 Y-24.588
G1 F2400 X-11 Y-21.752 E425.76658
G0 F18000 X-10.5 Y-21.545
G1 F2400 X-10.5 Y-24.588 E425.89309
G0 F18000 X-10 Y-24.588
G1 F2400 X-10 Y-21.284 E426.03046
G0 F18000 X-9.5 Y-20.901
G1 F2400 X-9.5 Y-24.587 E426.1837
G0 F18000 X-9 Y-24.587
G1 F2400 X-9 Y-20.518 E426.35287
G0 F18000 X-8.5 Y-20.135
G1 F2400 X-8.5 Y-24.586 E426.53792
G0 F18000 X-8 Y-24.586
G1 F2400 X-8 Y-19.677 E426.74202
G0 F18000 X-7.5 Y-19.024
G1 F2400 X-7.5 Y-24.586 E426.97326
G0 F18000 X-7 Y-24.585
G1 F2400 X-7 Y-18.372 E427.23156
G0 F18000 X-6.5 Y-17.613
G1 F2400 X-6.5 Y-24.585 E427.52143
G0 F18000 X-6 Y-24.585
G1 F2400 X-6 Y-16.407 E427.86143
G0 F18000 X-4.5 Y-24.584
G0 X-4.5 Y-24.584
G1 F2400 X-4.499 Y24.586 E429.90568
G0 F18000 X-3.999 Y24.585
G1 F2400 X-4 Y-24.583 E431.94985
G0 F18000 X-3.5 Y-24.583
G1 F2400 X-3.499 Y24.585 E433.99402
G0 F18000 X-2.838 Y25.12
G1 F2400 X-2.807 Y25.195 E433.99684
G1 X-2.849 Y25.189 E433.99725
G0 F18000 X-24.999 Y24.598
G0 X-24.999 Y24.598
G1 F2400 X-25 Y-24.597 E436.04254
G0 F18000 X-25.5 Y-24.597
G1 F2400 X-25.499 Y24.598 E438.08783
G0 F18000 X-25.999 Y24.599
G1 F2400 X-26 Y-24.597 E440.13316
G0 F18000 X-26.5 Y-24.598
G1 F2400 X-26.499 Y24.599 E442.17853
G1 F6600 E435.37853
G1 Z0.8
G0 F18000 X-23.029 Y17.325
G0 X-23.889 Y15.381
G0 X-24.203 Y13
G0 X-23.889 Y10.618
G0 X-22.97 Y8.399
G0 X-21.507 Y6.491
G0 X-19.6 Y5.028
G0 X-17.379 Y4.109
G0 X-16.697 Y4.049
G0 X-12.812 Y-4.097
G0 X-10.398 Y-5.027
G0 X-8.491 Y-6.49
G0 X-7.028 Y-8.398
G0 X-6.109 Y-10.617
G0 X-5.795 Y-12.999
G0 X-6.109 Y-15.38
G0 X-6.752 Y-16.803
G0 X-2.835 Y-25.015
G0 X-2.663 Y-25.376
G0 X-2.792 Y-25.108
G0 X-2.792 Y-25.108
G1 Z0.5
G1 F6600 E442.27853
G1 F2400 X-2.802 Y-25.161 E442.28043
G1 X-2.831 Y-25.224 E442.28107
; Layer Change GCode
; LAYER:2
G4 P0
M106 S255
G0 F18000 X25.25 Y12.75 Z0.7
G0 X24.75 Y13.25
; TYPE:WALL-INNER
G1 F2400 X24.75 Y13.25 E442.28107
G1 X27.25 Y13.25 E442.38501
G1 X27.25 Y25.157 E442.88005
G1 X2.842 Y25.157 E443.89481
G1 X2.842 Y-25.156 E445.98658
G1 X27.25 Y-25.156 E447.00135
G1 X27.25 Y-13.249 E447.49639
G1 X24.75 Y-13.249 E447.60032
G1 X24.75 Y-6.249 E447.89135
G1 X20.75 Y-6.249 E448.05765
G1 X20.75 Y6.25 E448.5773
G1 X24.75 Y6.25 E448.7436
G1 X24.75 Y13.25 E449.03463
G0 F18000 X25.25 Y12.75
; TYPE:WALL-OUTER
G1 F2100 X25.25 Y12.75 E449.03463
G1 X27.75 Y12.75 E449.13856
G1 X27.75 Y25.657 E449.67518
G1 X2.342 Y25.657 E450.73152
G1 X2.342 Y-25.656 E452.86486
G1 X27.75 Y-25.656 E453.92121
G1 X27.75 Y-12.749 E454.45782
G1 X25.25 Y-12.749 E454.56175
G1 X25.25 Y-5.749 E454.85278
G1 X21.25 Y-5.749 E455.01908
G1 X21.25 Y5.75 E455.49715
G1 X25.25 Y5.75 E455.66345
G1 X25.25 Y12.75 E455.95448
G0 F18000 X24.31 Y12.999
; TYPE:FILL
G1 F2400 X3.281 Y13 E456.82877
G0 F18000 X3.281 Y13.5
G1 F2400 X24.31 Y13.499 E457.70305
G0 F18000 X24.31 Y12.499
G1 F2400 X3.281 Y12.5 E458.57733
G0 F18000 X3.281 Y12
G1 F2400 X24.31 Y11.999 E459.45162
G0 F18000 X24.31 Y11.499
G1 F2400 X3.281 Y11.5 E460.3259
G0 F18000 X3.281 Y11
G1 F2400 X24.31 Y10.999 E461.20019
G0 F18000 X24.31 Y10.499
G1 F2400 X3.281 Y10.5 E462.07447
G0 F18000 X3.281 Y10
G1 F2400 X24.31 Y9.999 E462.94875
G0 F18000 X24.31 Y9.499
G1 F2400 X3.281 Y9.5 E463.82304
G0 F18000 X3.281 Y9
G1 F2400 X24.31 Y8.999 E464.69732
G0 F18000 X24.31 Y8.499
G1 F2400 X3.281 Y8.5 E465.57161
G0 F18000 X3.281 Y8
G1 F2400 X24.31 Y7.999 E466.44589
G0 F18000 X24.31 Y7.499
G1 F2400 X3.281 Y7.5 E467.32018
G0 F18000 X3.281 Y7
G1 F2400 X24.31 Y6.999 E468.19446
G0 F18000 X20.31 Y6.499
G1 F2400 X3.281 Y6.5 E468.90244
G0 F18000 X3.281 Y6
G1 F2400 X20.31 Y5.999 E469.61043
G0 F18000 X20.31 Y5.499
G1 F2400 X3.281 Y5.5 E470.31841
G0 F18000 X3.281 Y5
G1 F2400 X20.31 Y4.999 E471.02639
G0 F18000 X20.31 Y4.499
G1 F2400 X3.281 Y4.5 E471.73438
G0 F18000 X3.281 Y4
G1 F2400 X20.31 Y3.999 E472.44236
G0 F18000 X20.31 Y3.499
G1 F2400 X3.281 Y3.5 E473.15034
G0 F18000 X3.281 Y3
G1 F2400 X20.31 Y2.999 E473.85833
G0 F18000 X20.31 Y2.499
G1 F2400 X3.281 Y2.5 E474.56631
G0 F18000 X3.281 Y1.999
G1 F2400 X20.31 Y1.999 E475.2743
G0 F18000 X20.31 Y1.499
G1 F2400 X3.281 Y1.499 E475.98228
G0 F18000 X3.281 Y0.999
G1 F2400 X20.31 Y0.999 E476.69026
G0 F18000 X20.31 Y0.499
G1 F2400 X3.281 Y0.499 E477.39825
G0 F18000 X3.282 Y0
G1 F2400 X20.31 Y0 E478.10619
G0 F18000 X20.31 Y-0.5
G1 F2400 X3.282 Y-0.5 E478.81413
G0 F18000 X3.282 Y-1
G1 F2400 X20.31 Y-1 E479.52207
G0 F18000 X20.31 Y-1.5
G1 F2400 X3.282 Y-1.5 E480.23001
G0 F18000 X3.282 Y-2
G1 F2400 X20.31 Y-2 E480.93796
G0 F18000 X20.31 Y-2.5
G1 F2400 X3.282 Y-2.5 E481.6459
G0 F18000 X3.282 Y-3
G1 F2400 X20.31 Y-3 E482.35384
G0 F18000 X20.31 Y-3.5
G1 F2400 X3.282 Y-3.5 E483.06178
G0 F18000 X3.281 Y-4
G1 F2400 X20.31 Y-4 E483.76977
G0 F18000 X20.31 Y-4.5
G1 F2400 X3.281 Y-4.5 E484.47775
G0 F18000 X3.281 Y-5
G1 F2400 X20.31 Y-5 E485.18573
G0 F18000 X20.31 Y-5.5
G1 F2400 X3.281 Y-5.5 E485.89372
G0 F18000 X3.281 Y-6
G1 F2400 X20.31 Y-6 E486.6017
G0 F18000 X20.31 Y-6.5
G1 F2400 X3.281 Y-6.5 E487.30968
G0 F18000 X3.281 Y-7
G1 F2400 X24.31 Y-7 E488.18397
G0 F18000 X24.31 Y-7.5
G1 F2400 X3.281 Y-7.5 E489.05825
G0 F18000 X3.281 Y-8
G1 F2400 X24.31 Y-8 E489.93254
G0 F18000 X24.31 Y-8.5
G1 F2400 X3.281 Y-8.5 E490.80682
G0 F18000 X3.281 Y-9
G1 F2400 X24.31 Y-9 E491.6811
G0 F18000 X24.31 Y-9.5
G1 F2400 X3.281 Y-9.5 E492.55539
G0 F18000 X3.281 Y-10
G1 F2400 X24.31 Y-10 E493.42967
G0 F18000 X24.31 Y-10.5
G1 F2400 X3.281 Y-10.5 E494.30396
G0 F18000 X3.281 Y-11
G1 F2400 X24.31 Y-11 E495.17824
G0 F18000 X24.31 Y-11.5
G1 F2400 X3.281 Y-11.5 E496.05253
G0 F18000 X3.281 Y-12
G1 F2400 X24.31 Y-12 E496.92681
G0 F18000 X24.31 Y-12.5
G1 F2400 X3.281 Y-12.5 E497.80109
G0 F18000 X3.281 Y-13
G1 F2400 X24.31 Y-13 E498.67538
G0 F18000 X24.31 Y-13.5
G1 F2400 X3.281 Y-13.5 E499.54966
G0 F18000 X3.281 Y-14
G1 F2400 X26.81 Y-14 E500.52788
G0 F18000 X26.81 Y-14.5
G1 F2400 X3.281 Y-14.5 E501.50611
G0 F18000 X3.281 Y-15
G1 F2400 X26.81 Y-15 E502.48433
G0 F18000 X26.81 Y-15.5
G1 F2400 X3.281 Y-15.5 E503.46255
G0 F18000 X3.281 Y-16
G1 F2400 X26.81 Y-16 E504.44077
G0 F18000 X26.81 Y-16.5
G1 F2400 X3.281 Y-16.5 E505.419
G0 F18000 X3.281 Y-17
G1 F2400 X26.81 Y-17 E506.39722
G0 F18000 X26.81 Y-17.5
G1 F2400 X3.281 Y-17.5 E507.37544
G0 F18000 X3.281 Y-18
G1 F2400 X26.81 Y-18 E508.35366
G0 F18000 X26.81 Y-18.5
G1 F2400 X3.281 Y-18.5 E509.33188
G0 F18000 X3.281 Y-19
G1 F2400 X26.81 Y-19 E510.31011
G0 F18000 X26.81 Y-19.5
G1 F2400 X3.281 Y-19.5 E511.28833
G0 F18000 X3.281 Y-20
G1 F2400 X26.81 Y-20 E512.26655
G0 F18000 X26.81 Y-20.5
G1 F2400 X3.281 Y-20.5 E513.24477
G0 F18000 X3.281 Y-21
G1 F2400 X26.81 Y-21 E514.22299
G0 F18000 X26.81 Y-21.5
G1 F2400 X3.281 Y-21.5 E515.20122
G0 F18000 X3.281 Y-22
G1 F2400 X26.81 Y-22 E516.17944
G0 F18000 X26.81 Y-22.5
G1 F2400 X3.281 Y-22.5 E517.15766
G0 F18000 X3.281 Y-23
G1 F2400 X26.81 Y-23 E518.13588
G0 F18000 X26.81 Y-23.5
G1 F2400 X3.281 Y-23.5 E519.11411
G0 F18000 X3.281 Y-24
G1 F2400 X26.81 Y-24 E520.09233
G0 F18000 X26.81 Y-24.5
G1 F2400 X3.281 Y-24.5 E521.07055
G0 F18000 X3.281 Y14
G0 X3.281 Y14
G1 F2400 X26.81 Y13.999 E522.04877
G0 F18000 X26.81 Y14.499
G1 F2400 X3.281 Y14.5 E523.02699
G0 F18000 X3.281 Y15
G1 F2400 X26.81 Y14.999 E524.00522
G0 F18000 X26.81 Y15.499
G1 F2400 X3.281 Y15.5 E524.98344
G0 F18000 X3.281 Y16
G1 F2400 X26.81 Y15.999 E525.96166
G0 F18000 X26.81 Y16.5
G1 F2400 X3.281 Y16.5 E526.93988
G0 F18000 X3.281 Y17
G1 F2400 X26.81 Y17 E527.9181
G0 F18000 X26.81 Y17.5
G1 F2400 X3.281 Y17.5 E528.89633
G0 F18000 X3.281 Y18
G1 F2400 X26.81 Y18 E529.87455
G0 F18000 X26.81 Y18.5
G1 F2400 X3.281 Y18.5 E530.85277
G0 F18000 X3.281 Y19
G1 F2400 X26.81 Y19 E531.83099
G0 F18000 X26.81 Y19.5
G1 F2400 X3.281 Y19.5 E532.80922
G0 F18000 X3.281 Y20
G1 F2400 X26.81 Y20 E533.78744
G0 F18000 X26.81 Y20.5
G1 F2400 X3.281 Y20.5 E534.76566
G0 F18000 X3.281 Y21
G1 F2400 X26.81 Y21 E535.74388
G0 F18000 X26.81 Y21.5
G1 F2400 X3.281 Y21.5 E536.7221
G0 F18000 X3.281 Y22
G1 F2400 X26.81 Y22 E537.70033
G0 F18000 X26.81 Y22.5
G1 F2400 X3.281 Y22.5 E538.67855
G0 F18000 X3.281 Y23
G1 F2400 X26.81 Y23 E539.65677
G0 F18000 X26.81 Y23.5
G1 F2400 X3.281 Y23.5 E540.63499
G0 F18000 X3.281 Y24
G1 F2400 X26.81 Y24 E541.61321
G0 F18000 X26.81 Y24.5
G1 F2400 X3.281 Y24.5 E542.59144
G1 F6600 E535.79144
G1 Z1
G0 F18000 X-27.749 Y25.657
G0 X-27.249 Y25.157
; TYPE:WALL-INNER
G1 Z0.7
G1 F6600 E542.69144
G1 F2400 X-27.249 Y25.157 E542.69144
G1 X-27.249 Y-25.156 E544.78321
G1 X-3.043 Y-25.156 E545.78958
G1 X-2.936 Y-25.14 E545.79408
G1 X-2.886 Y-25.101 E545.79671
G1 X-2.855 Y-25.038 E545.79963
G1 X-2.842 Y-24.945 E545.80353
G1 X-2.842 Y24.946 E547.87776
G1 X-2.871 Y25.085 E547.88366
G1 X-2.963 Y25.151 E547.88837
G1 X-27.249 Y25.157 E548.89807
G0 F18000 X-27.749 Y25.657
; TYPE:WALL-OUTER
G1 F2100 X-27.749 Y25.657 E548.89807
G1 X-27.749 Y-25.656 E551.03141
G1 X-3.017 Y-25.656 E552.05965
G1 X-2.828 Y-25.635 E552.06756
G1 X-2.711 Y-25.59 E552.07277
G1 X-2.582 Y-25.511 E552.07906
G1 X-2.467 Y-25.385 E552.08615
G1 X-2.371 Y-25.186 E552.09534
G1 X-2.342 Y-24.978 E552.10407
G1 X-2.342 Y24.979 E554.18104
G1 X-2.371 Y25.189 E554.18985
G1 X-2.447 Y25.361 E554.19767
G1 X-2.582 Y25.51 E554.20603
G1 X-2.79 Y25.627 E554.21595
G1 X-2.917 Y25.651 E554.22132
G1 X-27.749 Y25.657 E555.25372
G0 F18000 X-27.399 Y25.397
G0 X-21.544 Y19.545
G0 X-21.544 Y19.545
; TYPE:WALL-INNER
G1 F2400 X-21.544 Y19.545 E555.25372
G1 X-19.627 Y21.016 E555.35418
G1 X-17.394 Y21.941 E555.45467
G1 X-14.999 Y22.256 E555.5551
G1 X-12.604 Y21.941 E555.65553
G1 X-10.371 Y21.016 E555.75601
G1 X-8.454 Y19.545 E555.85647
G1 X-6.983 Y17.628 E555.95693
G1 X-6.058 Y15.395 E556.05742
G1 X-5.743 Y13 E556.15785
G1 X-6.058 Y10.604 E556.25832
G1 X-6.983 Y8.372 E556.35877
G1 X-8.454 Y6.454 E556.45926
G1 X-10.371 Y4.983 E556.55972
G1 X-12.604 Y4.058 E556.66021
G1 X-14.999 Y3.744 E556.76064
G1 X-17.394 Y4.058 E556.86106
G1 X-19.627 Y4.983 E556.96155
G1 X-21.544 Y6.454 E557.06201
G1 X-23.015 Y8.372 E557.1625
G1 X-23.94 Y10.604 E557.26295
G1 X-24.255 Y13 E557.36342
G1 X-23.94 Y15.395 E557.46385
G1 X-23.015 Y17.628 E557.56434
G1 X-21.544 Y19.545 E557.6648
G0 F18000 X-20.892 Y19.8
G0 X-19.6 Y20.971
G0 X-17.38 Y21.89
G0 X-15.241 Y22.019
G0 X-15.045 Y22.098
G0 X-15.045 Y22.098
G0 X-14.999 Y21.752
; TYPE:WALL-OUTER
G1 F2100 X-14.999 Y21.752 E557.6648
G1 X-12.735 Y21.454 E557.75974
G1 X-10.623 Y20.579 E557.85478
G1 X-8.811 Y19.188 E557.94975
G1 X-7.42 Y17.376 E558.04472
G1 X-6.545 Y15.264 E558.13977
G1 X-6.247 Y13 E558.23471
G1 X-6.545 Y10.735 E558.32969
G1 X-7.42 Y8.624 E558.42469
G1 X-8.811 Y6.811 E558.5197
G1 X-10.623 Y5.42 E558.61467
G1 X-12.735 Y4.545 E558.70971
G1 X-14.999 Y4.248 E558.80465
G1 X-17.263 Y4.545 E558.89958
G1 X-19.375 Y5.42 E558.99462
G1 X-21.187 Y6.811 E559.08959
G1 X-22.578 Y8.624 E559.1846
G1 X-23.453 Y10.735 E559.27961
G1 X-23.751 Y13 E559.37458
G1 X-23.453 Y15.264 E559.46952
G1 X-22.578 Y17.376 E559.56457
G1 X-21.187 Y19.188 E559.65954
G1 X-19.375 Y20.579 E559.75451
G1 X-17.263 Y21.454 E559.84956
G1 X-14.999 Y21.752 E559.94449
G1 F6600 E553.14449
G1 Z1
G0 F18000 X-15.045 Y22.098
G0 X-15.044 Y22.209
G0 X-12.618 Y21.89
G0 X-10.398 Y20.971
G0 X-8.491 Y19.508
G0 X-7.028 Y17.601
G0 X-6.109 Y15.381
G0 X-5.795 Y13
G0 X-6.109 Y10.618
G0 X-7.028 Y8.399
G0 X-8.491 Y6.491
G0 X-10.398 Y5.028
G0 X-12.619 Y4.109
G0 X-15.011 Y3.794
G0 X-14.999 Y-3.743
G0 X-14.999 Y-3.743
; TYPE:WALL-INNER
G1 Z0.7
G1 F6600 E560.04449
G1 F2400 X-14.999 Y-3.743 E560.04449
G1 X-12.604 Y-4.057 E560.14492
G1 X-10.371 Y-4.982 E560.24541
G1 X-8.454 Y-6.453 E560.34587
G1 X-6.983 Y-8.371 E560.44636
G1 X-6.058 Y-10.603 E560.54681
G1 X-5.743 Y-12.999 E560.64728
G1 X-6.058 Y-15.394 E560.74771
G1 X-6.983 Y-17.627 E560.8482
G1 X-8.454 Y-19.544 E560.94866
G1 X-10.371 Y-21.015 E561.04912
G1 X-12.604 Y-21.94 E561.1496
G1 X-14.999 Y-22.255 E561.25003
G1 X-17.394 Y-21.94 E561.35046
G1 X-19.627 Y-21.015 E561.45095
G1 X-21.544 Y-19.544 E561.55141
G1 X-23.015 Y-17.627 E561.65187
G1 X-23.94 Y-15.394 E561.75236
G1 X-24.255 Y-12.999 E561.85279
G1 X-23.94 Y-10.603 E561.95326
G1 X-23.015 Y-8.371 E562.05371
G1 X-21.544 Y-6.453 E562.1542
G1 X-19.627 Y-4.982 E562.25466
G1 X-17.394 Y-4.057 E562.35515
G1 X-14.999 Y-3.743 E562.45557
G0 F18000 X-14.999 Y-4.247
; TYPE:WALL-OUTER
G1 F2100 X-14.999 Y-4.247 E562.45557
G1 X-12.735 Y-4.544 E562.55051
G1 X-10.623 Y-5.419 E562.64555
G1 X-8.811 Y-6.81 E562.74052
G1 X-7.42 Y-8.623 E562.83553
G1 X-6.545 Y-10.734 E562.93053
G1 X-6.247 Y-12.999 E563.02551
G1 X-6.545 Y-15.263 E563.12045
G1 X-7.42 Y-17.375 E563.2155
G1 X-8.811 Y-19.187 E563.31047
G1 X-10.623 Y-20.578 E563.40544
G1 X-12.735 Y-21.453 E563.50048
G1 X-14.999 Y-21.751 E563.59542
G1 X-17.263 Y-21.453 E563.69036
G1 X-19.375 Y-20.578 E563.7854
G1 X-21.187 Y-19.187 E563.88038
G1 X-22.578 Y-17.375 E563.97535
G1 X-23.453 Y-15.263 E564.07039
G1 X-23.751 Y-12.999 E564.16533
G1 X-23.453 Y-10.734 E564.26031
G1 X-22.578 Y-8.623 E564.35531
G1 X-21.187 Y-6.81 E564.45032
G1 X-19.375 Y-5.419 E564.54529
G1 X-17.263 Y-4.544 E564.64034
G1 X-14.999 Y-4.247 E564.73527
G0 F18000 X-15.045 Y-3.901
G0 X-16.532 Y-3.499
G0 X-16.532 Y-3.499
; TYPE:FILL
G1 F2400 X-26.809 Y-3.499 E565.16254
G0 F18000 X-26.809 Y-3.999
G1 F2400 X-18.406 Y-3.999 E565.51189
G0 F18000 X-19.613 Y-4.499
G1 F2400 X-26.809 Y-4.499 E565.81107
G0 F18000 X-26.809 Y-4.999
G1 F2400 X-20.372 Y-4.999 E566.07869
G0 F18000 X-21.024 Y-5.499
G1 F2400 X-26.809 Y-5.499 E566.3192
G0 F18000 X-26.809 Y-5.999
G1 F2400 X-21.677 Y-5.999 E566.53256
G0 F18000 X-22.135 Y-6.499
G1 F2400 X-26.809 Y-6.499 E566.72689
G0 F18000 X-26.809 Y-6.999
G1 F2400 X-22.518 Y-6.999 E566.90528
G0 F18000 X-22.901 Y-7.499
G1 F2400 X-26.809 Y-7.499 E567.06776
G0 F18000 X-26.809 Y-7.999
G1 F2400 X-23.284 Y-7.999 E567.21431
G0 F18000 X-23.545 Y-8.499
G1 F2400 X-26.809 Y-8.499 E567.35001
G0 F18000 X-26.809 Y-8.999
G1 F2400 X-23.752 Y-8.999 E567.47711
G0 F18000 X-23.959 Y-9.499
G1 F2400 X-26.809 Y-9.499 E567.5956
G0 F18000 X-26.809 Y-9.999
G1 F2400 X-24.167 Y-9.999 E567.70544
G0 F18000 X-24.371 Y-10.499
G1 F2400 X-26.809 Y-10.499 E567.8068
G0 F18000 X-26.809 Y-10.999
G1 F2400 X-24.436 Y-10.999 E567.90546
G0 F18000 X-24.502 Y-11.499
G1 F2400 X-26.809 Y-11.499 E568.00137
G0 F18000 X-26.809 Y-11.999
G1 F2400 X-24.568 Y-11.999 E568.09454
G0 F18000 X-24.633 Y-12.499
G1 F2400 X-26.809 Y-12.499 E568.18501
G0 F18000 X-26.809 Y-12.999
G1 F2400 X-24.699 Y-12.999 E568.27273
G0 F18000 X-24.633 Y-13.499
G1 F2400 X-26.809 Y-13.499 E568.3632
G0 F18000 X-26.809 Y-13.999
G1 F2400 X-24.567 Y-13.999 E568.45641
G0 F18000 X-24.502 Y-14.499
G1 F2400 X-26.809 Y-14.499 E568.55233
G0 F18000 X-26.809 Y-14.999
G1 F2400 X-24.436 Y-14.999 E568.65098
G0 F18000 X-24.37 Y-15.499
G1 F2400 X-26.809 Y-15.499 E568.75239
G0 F18000 X-26.809 Y-15.999
G1 F2400 X-24.166 Y-15.999 E568.86227
G0 F18000 X-23.958 Y-16.5
G1 F2400 X-26.809 Y-16.5 E568.9808
G0 F18000 X-26.809 Y-17
G1 F2400 X-23.751 Y-17 E569.10794
G0 F18000 X-23.544 Y-17.5
G1 F2400 X-26.809 Y-17.5 E569.24368
G0 F18000 X-26.809 Y-18
G1 F2400 X-23.282 Y-18 E569.39032
G0 F18000 X-22.899 Y-18.5
G1 F2400 X-26.809 Y-18.5 E569.55287
G0 F18000 X-26.809 Y-19
G1 F2400 X-22.516 Y-19 E569.73136
G0 F18000 X-22.132 Y-19.5
G1 F2400 X-26.809 Y-19.5 E569.9258
G0 F18000 X-26.809 Y-20
G1 F2400 X-21.673 Y-20 E570.13933
G0 F18000 X-21.02 Y-20.5
G1 F2400 X-26.809 Y-20.5 E570.38001
G0 F18000 X-26.809 Y-21
G1 F2400 X-20.368 Y-21 E570.6478
G0 F18000 X-19.606 Y-21.5
G1 F2400 X-26.809 Y-21.5 E570.94726
G0 F18000 X-26.809 Y-22
G1 F2400 X-18.399 Y-22 E571.29691
G0 F18000 X-16.512 Y-22.5
G0 X-16.512 Y-22.5
G1 F2400 X-26.809 Y-22.5 E571.72501
G0 F18000 X-26.809 Y-23
G1 F2400 X-3.281 Y-23 E572.70319
G0 F18000 X-3.281 Y-22.5
G1 F2400 X-13.484 Y-22.5 E573.12738
G0 F18000 X-11.598 Y-22
G0 X-11.598 Y-22
G1 F2400 X-3.281 Y-22 E573.47316
G0 F18000 X-3.281 Y-21.5
G1 F2400 X-10.391 Y-21.5 E573.76876
G0 F18000 X-9.629 Y-21
G1 F2400 X-3.281 Y-21 E574.03268
G0 F18000 X-3.281 Y-20.5
G1 F2400 X-8.977 Y-20.5 E574.26949
G0 F18000 X-8.324 Y-20
G1 F2400 X-3.281 Y-20 E574.47916
G0 F18000 X-3.281 Y-19.5
G1 F2400 X-7.865 Y-19.5 E574.66974
G0 F18000 X-7.481 Y-19
G1 F2400 X-3.281 Y-19 E574.84435
G0 F18000 X-3.281 Y-18.5
G1 F2400 X-7.098 Y-18.5 E575.00305
G0 F18000 X-6.715 Y-18
G1 F2400 X-3.281 Y-18 E575.14582
G0 F18000 X-3.281 Y-17.5
G1 F2400 X-6.453 Y-17.5 E575.27769
G0 F18000 X-6.246 Y-17
G1 F2400 X-3.281 Y-17 E575.40096
G0 F18000 X-3.281 Y-16.5
G1 F2400 X-6.039 Y-16.5 E575.51563
G0 F18000 X-5.831 Y-16
G1 F2400 X-3.281 Y-16 E575.62164
G0 F18000 X-3.281 Y-15.5
G1 F2400 X-5.627 Y-15.5 E575.71918
G0 F18000 X-5.561 Y-15
G1 F2400 X-3.281 Y-15 E575.81397
G0 F18000 X-3.281 Y-14.5
G1 F2400 X-5.495 Y-14.5 E575.90602
G0 F18000 X-5.43 Y-14
G1 F2400 X-3.281 Y-14 E575.99536
G0 F18000 X-3.281 Y-13.5
G1 F2400 X-5.364 Y-13.5 E576.08196
G0 F18000 X-5.298 Y-13
G1 F2400 X-3.281 Y-13 E576.16582
G0 F18000 X-3.281 Y-12.5
G1 F2400 X-5.364 Y-12.5 E576.25242
G0 F18000 X-5.429 Y-12
G1 F2400 X-3.281 Y-12 E576.34173
G0 F18000 X-3.281 Y-11.5
G1 F2400 X-5.495 Y-11.5 E576.43377
G0 F18000 X-5.561 Y-11
G1 F2400 X-3.281 Y-11 E576.52856
G0 F18000 X-3.281 Y-10.5
G1 F2400 X-5.626 Y-10.5 E576.62606
G0 F18000 X-5.83 Y-10
G1 F2400 X-3.281 Y-10 E576.73203
G0 F18000 X-3.281 Y-9.5
G1 F2400 X-6.038 Y-9.5 E576.84666
G0 F18000 X-6.245 Y-9
G1 F2400 X-3.281 Y-9 E576.96988
G0 F18000 X-3.281 Y-8.5
G1 F2400 X-6.452 Y-8.5 E577.10172
G0 F18000 X-6.713 Y-8
G1 F2400 X-3.281 Y-8 E577.24441
G0 F18000 X-3.281 Y-7.5
G1 F2400 X-7.097 Y-7.5 E577.40306
G0 F18000 X-7.48 Y-6.999
G1 F2400 X-3.281 Y-7 E577.57763
G0 F18000 X-3.281 Y-6.5
G1 F2400 X-7.863 Y-6.499 E577.76813
G0 F18000 X-8.321 Y-5.999
G1 F2400 X-3.281 Y-6 E577.97767
G0 F18000 X-3.281 Y-5.5
G1 F2400 X-8.974 Y-5.499 E578.21435
G0 F18000 X-9.626 Y-4.999
G1 F2400 X-3.281 Y-5 E578.47815
G0 F18000 X-3.281 Y-4.5
G1 F2400 X-10.385 Y-4.499 E578.7735
G0 F18000 X-11.592 Y-3.999
G1 F2400 X-3.281 Y-4 E579.11903
G0 F18000 X-3.281 Y-3.5
G1 F2400 X-13.466 Y-3.499 E579.54247
G0 F18000 X-13.466 Y3.5
G0 X-13.466 Y3.5
G1 F2400 X-3.282 Y3.5 E579.96587
G0 F18000 X-3.282 Y3
G1 F2400 X-26.809 Y3 E580.94401
G0 F18000 X-26.809 Y2.5
G1 F2400 X-3.282 Y2.5 E581.92215
G0 F18000 X-3.282 Y2
G1 F2400 X-26.809 Y2 E582.90029
G0 F18000 X-26.809 Y1.5
G1 F2400 X-3.282 Y1.5 E583.87843
G0 F18000 X-3.282 Y1
G1 F2400 X-26.809 Y1 E584.85657
G0 F18000 X-26.809 Y0.5
G1 F2400 X-3.282 Y0.5 E585.83471
G0 F18000 X-3.282 Y0
G1 F2400 X-26.809 Y0 E586.81285
G0 F18000 X-26.809 Y-0.499
G1 F2400 X-3.281 Y-0.499 E587.79103
G0 F18000 X-3.281 Y-0.999
G1 F2400 X-26.809 Y-0.999 E588.76921
G0 F18000 X-26.809 Y-1.499
G1 F2400 X-3.281 Y-1.499 E589.74739
G0 F18000 X-3.281 Y-1.999
G1 F2400 X-26.809 Y-1.999 E590.72557
G0 F18000 X-26.809 Y-2.499
G1 F2400 X-3.281 Y-2.5 E591.70375
G0 F18000 X-3.281 Y-3
G1 F2400 X-26.809 Y-2.999 E592.68193
G0 F18000 X-26.809 Y3.5
G0 X-26.809 Y3.5
G1 F2400 X-16.532 Y3.5 E593.1092
G0 F18000 X-18.406 Y4
G0 X-18.406 Y4
G1 F2400 X-26.809 Y4 E593.45856
G0 F18000 X-26.809 Y4.5
G1 F2400 X-19.613 Y4.5 E593.75773
G0 F18000 X-20.372 Y5
G1 F2400 X-26.809 Y5 E594.02535
G0 F18000 X-26.809 Y5.5
G1 F2400 X-21.024 Y5.5 E594.26586
G0 F18000 X-21.677 Y6
G1 F2400 X-26.809 Y6 E594.47923
G0 F18000 X-26.809 Y6.5
G1 F2400 X-22.135 Y6.5 E594.67355
G0 F18000 X-22.518 Y7
G1 F2400 X-26.809 Y7 E594.85195
G0 F18000 X-26.809 Y7.5
G1 F2400 X-22.901 Y7.5 E595.01442
G0 F18000 X-23.284 Y8
G1 F2400 X-26.809 Y8 E595.16098
G0 F18000 X-26.809 Y8.5
G1 F2400 X-23.545 Y8.5 E595.29668
G0 F18000 X-23.752 Y9
G1 F2400 X-26.809 Y9 E595.42377
G0 F18000 X-26.809 Y9.5
G1 F2400 X-23.959 Y9.5 E595.54226
G0 F18000 X-24.167 Y10
G1 F2400 X-26.809 Y10 E595.6521
G0 F18000 X-26.809 Y10.5
G1 F2400 X-24.371 Y10.5 E595.75346
G0 F18000 X-24.436 Y11
G1 F2400 X-26.809 Y11 E595.85212
G0 F18000 X-26.809 Y11.5
G1 F2400 X-24.502 Y11.5 E595.94803
G0 F18000 X-24.568 Y12
G1 F2400 X-26.809 Y12 E596.0412
G0 F18000 X-26.809 Y12.5
G1 F2400 X-24.633 Y12.5 E596.13167
G0 F18000 X-24.699 Y13
G1 F2400 X-26.809 Y13 E596.2194
G0 F18000 X-26.809 Y13.5
G1 F2400 X-24.633 Y13.5 E596.30986
G0 F18000 X-24.567 Y14
G1 F2400 X-26.809 Y14 E596.40307
G0 F18000 X-26.809 Y14.5
G1 F2400 X-24.502 Y14.5 E596.49899
G0 F18000 X-24.436 Y15
G1 F2400 X-26.809 Y15 E596.59765
G0 F18000 X-26.809 Y15.5
G1 F2400 X-24.37 Y15.5 E596.69905
G0 F18000 X-24.166 Y16
G1 F2400 X-26.809 Y16 E596.80893
G0 F18000 X-26.809 Y16.5
G1 F2400 X-23.959 Y16.5 E596.92742
G0 F18000 X-23.751 Y17
G1 F2400 X-26.809 Y17 E597.05456
G0 F18000 X-26.809 Y17.5
G1 F2400 X-23.544 Y17.5 E597.1903
G0 F18000 X-23.283 Y18
G1 F2400 X-26.809 Y18 E597.33689
G0 F18000 X-26.809 Y18.5
G1 F2400 X-22.9 Y18.5 E597.49941
G0 F18000 X-22.516 Y19
G1 F2400 X-26.809 Y19 E597.67789
G0 F18000 X-26.809 Y19.5
G1 F2400 X-22.133 Y19.5 E597.8723
G0 F18000 X-21.674 Y20
G1 F2400 X-26.809 Y20 E598.08579
G0 F18000 X-26.809 Y20.5
G1 F2400 X-21.022 Y20.5 E598.32638
G0 F18000 X-20.369 Y21
G1 F2400 X-26.809 Y21 E598.59413
G0 F18000 X-26.809 Y21.5
G1 F2400 X-19.609 Y21.5 E598.89347
G0 F18000 X-18.402 Y22
G1 F2400 X-26.809 Y22 E599.24299
G0 F18000 X-26.809 Y22.5
G1 F2400 X-16.52 Y22.5 E599.67076
G0 F18000 X-13.477 Y22.5
G0 X-13.477 Y22.5
G1 F2400 X-3.281 Y22.5 E600.09466
G0 F18000 X-3.281 Y22
G1 F2400 X-11.595 Y22 E600.44031
G0 F18000 X-10.388 Y21.5
G1 F2400 X-3.281 Y21.5 E600.73579
G0 F18000 X-3.281 Y21
G1 F2400 X-9.628 Y21 E600.99967
G0 F18000 X-8.975 Y20.5
G1 F2400 X-3.281 Y20.5 E601.2364
G0 F18000 X-3.281 Y20
G1 F2400 X-8.323 Y20 E601.44602
G0 F18000 X-7.864 Y19.5
G1 F2400 X-3.281 Y19.5 E601.63656
G0 F18000 X-3.281 Y19
G1 F2400 X-7.481 Y19 E601.81117
G0 F18000 X-7.097 Y18.5
G1 F2400 X-3.281 Y18.5 E601.96982
G0 F18000 X-3.281 Y18
G1 F2400 X-6.714 Y18 E602.11255
G0 F18000 X-6.453 Y17.5
G1 F2400 X-3.281 Y17.5 E602.24443
G0 F18000 X-3.281 Y17
G1 F2400 X-6.245 Y17 E602.36766
G0 F18000 X-6.038 Y16.5
G1 F2400 X-3.281 Y16.5 E602.48228
G0 F18000 X-3.281 Y16
G1 F2400 X-5.831 Y16 E602.5883
G0 F18000 X-5.627 Y15.5
G1 F2400 X-3.281 Y15.5 E602.68583
G0 F18000 X-3.281 Y15
G1 F2400 X-5.561 Y15 E602.78062
G0 F18000 X-5.495 Y14.5
G1 F2400 X-3.281 Y14.5 E602.87267
G0 F18000 X-3.281 Y14
G1 F2400 X-5.429 Y14 E602.96197
G0 F18000 X-5.364 Y13.5
G1 F2400 X-3.281 Y13.5 E603.04857
G0 F18000 X-3.281 Y13
G1 F2400 X-5.298 Y13 E603.13243
G0 F18000 X-5.364 Y12.5
G1 F2400 X-3.281 Y12.5 E603.21903
G0 F18000 X-3.281 Y12
G1 F2400 X-5.429 Y12 E603.30834
G0 F18000 X-5.495 Y11.5
G1 F2400 X-3.281 Y11.5 E603.40038
G0 F18000 X-3.281 Y11
G1 F2400 X-5.561 Y11 E603.49517
G0 F18000 X-5.627 Y10.5
G1 F2400 X-3.281 Y10.5 E603.59271
G0 F18000 X-3.281 Y10
G1 F2400 X-5.831 Y10 E603.69873
G0 F18000 X-6.038 Y9.5
G1 F2400 X-3.281 Y9.5 E603.81335
G0 F18000 X-3.281 Y9
G1 F2400 X-6.245 Y9 E603.93658
G0 F18000 X-6.453 Y8.5
G1 F2400 X-3.281 Y8.5 E604.06845
G0 F18000 X-3.281 Y8
G1 F2400 X-6.714 Y8 E604.21118
G0 F18000 X-7.097 Y7.5
G1 F2400 X-3.281 Y7.5 E604.36983
G0 F18000 X-3.281 Y7
G1 F2400 X-7.481 Y7 E604.54445
G0 F18000 X-7.864 Y6.5
G1 F2400 X-3.281 Y6.5 E604.73499
G0 F18000 X-3.281 Y6
G1 F2400 X-8.321 Y6 E604.94453
G0 F18000 X-8.974 Y5.5
G1 F2400 X-3.281 Y5.5 E605.18121
G0 F18000 X-3.281 Y5
G1 F2400 X-9.626 Y5 E605.44501
G0 F18000 X-10.385 Y4.5
G1 F2400 X-3.281 Y4.5 E605.74036
G0 F18000 X-3.281 Y4
G1 F2400 X-11.592 Y4 E606.08589
G1 F6600 E599.28589
G1 Z1
G0 F18000 X-11.272 Y4.729
G0 X-10.398 Y5.028
G0 X-8.491 Y6.491
G0 X-7.028 Y8.399
G0 X-6.109 Y10.618
G0 X-5.795 Y13
G0 X-6.109 Y15.381
G0 X-6.383 Y15.905
G0 X-3.281 Y23
G0 X-3.281 Y23
G1 Z0.7
G1 F6600 E606.18589
G1 F2400 X-26.809 Y23 E607.16407
G0 F18000 X-26.809 Y23.5
G1 F2400 X-3.281 Y23.5 E608.14225
G0 F18000 X-3.281 Y24
G1 F2400 X-26.809 Y24 E609.12043
G0 F18000 X-26.809 Y24.5
G1 F2400 X-3.281 Y24.5 E610.09861
G0 F18000 X-2.665 Y25.139
G1 F2400 X-2.667 Y25.219 E610.1004
G1 X-2.771 Y25.283 E610.10243
G1 X-2.809 Y25.35 E610.10346
G0 F18000 X-3.281 Y-23.5
G0 X-3.281 Y-23.5
G1 F2400 X-26.809 Y-23.5 E611.08164
G0 F18000 X-26.809 Y-24
G1 F2400 X-3.281 Y-24 E612.05983
G0 F18000 X-3.281 Y-24.5
G1 F2400 X-26.809 Y-24.5 E613.03801
G0 F18000 X-2.879 Y-25.244
G0 X-2.48 Y-25.257
G0 X-2.751 Y-25.249
G0 X-2.751 Y-25.249
G1 F2400 X-2.713 Y-25.258 E613.04029
G1 X-2.687 Y-25.153 E613.04258
G1 X-2.644 Y-25.176 E613.04319
G0 F18000 X-3.551 Y-24.406
; Layer Change GCode
; LAYER:3
G1 F6600 E606.24319
G1 Z1
G0 F18000 X25.25 Y12.75 Z1.2
G0 X24.75 Y13.25
; TYPE:WALL-INNER
G1 Z0.9
G1 F6600 E613.14319
G1 F2400 X24.75 Y13.25 E613.14319
G1 X27.25 Y13.25 E613.24713
G1 X27.25 Y25.223 E613.74491
G1 X2.776 Y25.223 E614.76242
G1 X2.776 Y-25.222 E616.85968
G1 X27.25 Y-25.214 E617.87719
G1 X27.25 Y-13.249 E618.37463
G1 X24.75 Y-13.249 E618.47857
G1 X24.75 Y-6.249 E618.7696
G1 X20.75 Y-6.249 E618.9359
G1 X20.75 Y6.25 E619.45555
G1 X24.75 Y6.25 E619.62185
G1 X24.75 Y13.25 E619.91287
G0 F18000 X25.25 Y12.75
; TYPE:WALL-OUTER
G1 F2100 X25.25 Y12.75 E619.91287
G1 X27.75 Y12.75 E620.01681
G1 X27.75 Y25.723 E620.55617
G1 X2.276 Y25.723 E621.61525
G1 X2.276 Y-25.722 E623.75409
G1 X27.75 Y-25.714 E624.81317
G1 X27.75 Y-12.749 E625.35219
G1 X25.25 Y-12.749 E625.45613
G1 X25.25 Y-5.749 E625.74716
G1 X21.25 Y-5.749 E625.91346
G1 X21.25 Y5.75 E626.39153
G1 X25.25 Y5.75 E626.55783
G1 X25.25 Y12.75 E626.84886
G0 F18000 X25 Y13.689
; TYPE:FILL
G1 F2400 X25 Y24.782 E627.31005
G0 F18000 X25.5 Y24.782
G1 F2400 X25.5 Y13.689 E627.77124
G0 F18000 X26 Y13.689
G1 F2400 X26 Y24.782 E628.23244
G0 F18000 X26.5 Y24.782
G1 F2400 X26.5 Y13.689 E628.69363
G0 F18000 X24.5 Y13.689
G1 F2400 X24.5 Y24.782 E629.15482
G0 F18000 X24 Y24.782
G1 F2400 X24 Y6.689 E629.90704
G0 F18000 X23.5 Y6.689
G1 F2400 X23.5 Y24.782 E630.65926
G0 F18000 X23 Y24.782
G1 F2400 X23 Y6.689 E631.41148
G0 F18000 X22.5 Y6.689
G1 F2400 X22.5 Y24.782 E632.1637
G0 F18000 X22 Y24.782
G1 F2400 X22 Y6.689 E632.91592
G0 F18000 X21.5 Y6.689
G1 F2400 X21.5 Y24.782 E633.66814
G0 F18000 X21 Y24.782
G1 F2400 X21 Y6.689 E634.42036
G0 F18000 X20.5 Y6.689
G1 F2400 X20.5 Y24.782 E635.17258
G0 F18000 X20 Y24.782
G1 F2400 X19.999 Y-24.776 E637.23296
G0 F18000 X19.499 Y-24.776
G1 F2400 X19.5 Y24.782 E639.29335
G0 F18000 X19 Y24.782
G1 F2400 X18.999 Y-24.776 E641.35373
G0 F18000 X18.499 Y-24.776
G1 F2400 X18.5 Y24.782 E643.41411
G0 F18000 X18 Y24.782
G1 F2400 X17.999 Y-24.776 E645.47449
G0 F18000 X17.499 Y-24.777
G1 F2400 X17.5 Y24.782 E647.53492
G0 F18000 X17 Y24.782
G1 F2400 X16.999 Y-24.777 E649.59534
G0 F18000 X16.499 Y-24.777
G1 F2400 X16.5 Y24.782 E651.65576
G0 F18000 X16 Y24.782
G1 F2400 X15.999 Y-24.777 E653.71619
G0 F18000 X15.499 Y-24.777
G1 F2400 X15.5 Y24.782 E655.77661
G0 F18000 X15 Y24.782
G1 F2400 X14.999 Y-24.778 E657.83708
G0 F18000 X14.499 Y-24.778
G1 F2400 X14.5 Y24.783 E659.89758
G0 F18000 X14 Y24.783
G1 F2400 X13.999 Y-24.778 E661.95809
G0 F18000 X13.499 Y-24.778
G1 F2400 X13.5 Y24.783 E664.0186
G0 F18000 X13 Y24.783
G1 F2400 X12.999 Y-24.778 E666.0791
G0 F18000 X12.499 Y-24.778
G1 F2400 X12.5 Y24.783 E668.13961
G0 F18000 X12 Y24.783
G1 F2400 X11.999 Y-24.779 E670.20016
G0 F18000 X11.499 Y-24.779
G1 F2400 X11.5 Y24.783 E672.26071
G0 F18000 X11 Y24.783
G1 F2400 X10.999 Y-24.779 E674.32126
G0 F18000 X10.499 Y-24.779
G1 F2400 X10.5 Y24.783 E676.38181
G0 F18000 X10 Y24.783
G1 F2400 X9.999 Y-24.779 E678.44235
G0 F18000 X9.499 Y-24.78
G1 F2400 X9.5 Y24.783 E680.50294
G0 F18000 X9 Y24.783
G1 F2400 X8.999 Y-24.78 E682.56353
G0 F18000 X8.499 Y-24.78
G1 F2400 X8.5 Y24.783 E684.62412
G0 F18000 X8 Y24.783
G1 F2400 X7.999 Y-24.78 E686.68471
G0 F18000 X7.499 Y-24.78
G1 F2400 X7.5 Y24.783 E688.7453
G0 F18000 X7 Y24.783
G1 F2400 X6.999 Y-24.781 E690.80594
G0 F18000 X6.499 Y-24.781
G1 F2400 X6.5 Y24.783 E692.86657
G0 F18000 X6 Y24.783
G1 F2400 X5.999 Y-24.781 E694.9272
G0 F18000 X5.499 Y-24.781
G1 F2400 X5.5 Y24.783 E696.98783
G0 F18000 X5 Y24.783
G1 F2400 X4.999 Y-24.781 E699.04846
G0 F18000 X4.499 Y-24.782
G1 F2400 X4.5 Y24.783 E701.10914
G0 F18000 X4 Y24.783
G1 F2400 X3.999 Y-24.782 E703.16981
G0 F18000 X3.499 Y-24.782
G1 F2400 X3.5 Y24.783 E705.23048
G0 F18000 X20.5 Y-6.688
G0 X20.5 Y-6.688
G1 F2400 X20.499 Y-24.775 E705.98245
G0 F18000 X20.999 Y-24.775
G1 F2400 X21 Y-6.688 E706.73442
G0 F18000 X21.5 Y-6.688
G1 F2400 X21.499 Y-24.775 E707.48639
G0 F18000 X21.999 Y-24.775
G1 F2400 X22 Y-6.688 E708.23836
G0 F18000 X22.5 Y-6.688
G1 F2400 X22.499 Y-24.775 E708.99033
G0 F18000 X22.999 Y-24.774
G1 F2400 X23 Y-6.688 E709.74226
G0 F18000 X23.5 Y-6.688
G1 F2400 X23.499 Y-24.774 E710.49419
G0 F18000 X23.999 Y-24.774
G1 F2400 X24 Y-6.688 E711.24612
G0 F18000 X24.5 Y-13.688
G0 X24.5 Y-13.688
G1 F2400 X24.499 Y-24.774 E711.70702
G0 F18000 X24.999 Y-24.774
G1 F2400 X25 Y-13.688 E712.16792
G0 F18000 X25.5 Y-13.688
G1 F2400 X25.499 Y-24.773 E712.62878
G0 F18000 X25.999 Y-24.773
G1 F2400 X26 Y-13.688 E713.08964
G0 F18000 X26.5 Y-13.688
G1 F2400 X26.499 Y-24.773 E713.5505
G1 F6600 E706.7505
G1 Z1.2
G0 F18000 X-27.749 Y25.716
G0 X-27.249 Y25.216
; TYPE:WALL-INNER
G1 Z0.9
G1 F6600 E713.6505
G1 F2400 X-27.249 Y25.216 E713.6505
G1 X-27.249 Y-25.222 E715.74747
G1 X-2.962 Y-25.214 E716.75721
G1 X-2.845 Y-25.157 E716.76262
G1 X-2.79 Y-25.054 E716.76747
G1 X-2.776 Y24.948 E718.84632
G1 X-2.806 Y25.099 E718.85272
G1 X-2.892 Y25.191 E718.85795
G1 X-2.961 Y25.215 E718.86099
G1 X-27.249 Y25.216 E719.87077
G0 F18000 X-27.749 Y25.716
; TYPE:WALL-OUTER
G1 F2100 X-27.749 Y25.716 E719.87077
G1 X-27.749 Y-25.722 E722.00931
G1 X-2.88 Y-25.714 E723.04324
G1 X-2.661 Y-25.64 E723.05286
G1 X-2.496 Y-25.522 E723.06129
G1 X-2.394 Y-25.393 E723.06813
G1 X-2.303 Y-25.188 E723.07745
G1 X-2.284 Y-25.041 E723.08361
G1 X-2.276 Y24.982 E725.16333
G1 X-2.304 Y25.193 E725.17218
G1 X-2.368 Y25.348 E725.17915
G1 X-2.5 Y25.526 E725.18836
G1 X-2.661 Y25.641 E725.19659
G1 X-2.88 Y25.715 E725.2062
G1 X-27.749 Y25.716 E726.24013
G0 F18000 X-27.399 Y25.456
G0 X-21.544 Y19.545
G0 X-21.544 Y19.545
; TYPE:WALL-INNER
G1 F2400 X-21.544 Y19.545 E726.24013
G1 X-19.627 Y21.016 E726.34059
G1 X-17.394 Y21.941 E726.44108
G1 X-14.999 Y22.256 E726.54151
G1 X-12.604 Y21.941 E726.64194
G1 X-10.371 Y21.016 E726.74243
G1 X-8.454 Y19.545 E726.84289
G1 X-6.983 Y17.628 E726.94335
G1 X-6.058 Y15.395 E727.04383
G1 X-5.743 Y13 E727.14426
G1 X-6.058 Y10.604 E727.24474
G1 X-6.983 Y8.372 E727.34518
G1 X-8.454 Y6.454 E727.44568
G1 X-10.371 Y4.983 E727.54614
G1 X-12.604 Y4.058 E727.64662
G1 X-14.999 Y3.744 E727.74705
G1 X-17.394 Y4.058 E727.84747
G1 X-19.627 Y4.983 E727.94796
G1 X-21.544 Y6.454 E728.04842
G1 X-23.015 Y8.372 E728.14891
G1 X-23.94 Y10.604 E728.24936
G1 X-24.255 Y13 E728.34983
G1 X-23.94 Y15.395 E728.45026
G1 X-23.015 Y17.628 E728.55075
G1 X-21.544 Y19.545 E728.65121
G0 F18000 X-20.892 Y19.8
G0 X-19.6 Y20.971
G0 X-17.38 Y21.89
G0 X-15.241 Y22.019
G0 X-15.045 Y22.098
G0 X-15.045 Y22.098
G0 X-14.999 Y21.752
; TYPE:WALL-OUTER
G1 F2100 X-14.999 Y21.752 E728.65121
G1 X-12.735 Y21.454 E728.74615
G1 X-10.623 Y20.579 E728.84119
G1 X-8.811 Y19.188 E728.93617
G1 X-7.42 Y17.376 E729.03114
G1 X-6.545 Y15.264 E729.12618
G1 X-6.247 Y13 E729.22112
G1 X-6.545 Y10.735 E729.3161
G1 X-7.42 Y8.624 E729.41111
G1 X-8.811 Y6.811 E729.50611
G1 X-10.623 Y5.42 E729.60108
G1 X-12.735 Y4.545 E729.69613
G1 X-14.999 Y4.248 E729.79106
G1 X-17.263 Y4.545 E729.88599
G1 X-19.375 Y5.42 E729.98104
G1 X-21.187 Y6.811 E730.07601
G1 X-22.578 Y8.624 E730.17101
G1 X-23.453 Y10.735 E730.26602
G1 X-23.751 Y13 E730.361
G1 X-23.453 Y15.264 E730.45594
G1 X-22.578 Y17.376 E730.55098
G1 X-21.187 Y19.188 E730.64595
G1 X-19.375 Y20.579 E730.74092
G1 X-17.263 Y21.454 E730.83597
G1 X-14.999 Y21.752 E730.93091
G1 F6600 E724.13091
G1 Z1.2
G0 F18000 X-15.045 Y22.098
G0 X-15.044 Y22.209
G0 X-12.618 Y21.89
G0 X-10.398 Y20.971
G0 X-8.491 Y19.508
G0 X-7.028 Y17.601
G0 X-6.109 Y15.381
G0 X-5.795 Y13
G0 X-6.109 Y10.618
G0 X-7.028 Y8.399
G0 X-8.491 Y6.491
G0 X-10.398 Y5.028
G0 X-12.619 Y4.109
G0 X-15.011 Y3.794
G0 X-14.999 Y-3.743
G0 X-14.999 Y-3.743
; TYPE:WALL-INNER
G1 Z0.9
G1 F6600 E731.03091
G1 F2400 X-14.999 Y-3.743 E731.03091
G1 X-12.604 Y-4.057 E731.13133
G1 X-10.371 Y-4.982 E731.23182
G1 X-8.454 Y-6.453 E731.33228
G1 X-6.983 Y-8.371 E731.43277
G1 X-6.058 Y-10.603 E731.53322
G1 X-5.743 Y-12.999 E731.63369
G1 X-6.058 Y-15.394 E731.73412
G1 X-6.983 Y-17.627 E731.83461
G1 X-8.454 Y-19.544 E731.93507
G1 X-10.371 Y-21.015 E732.03553
G1 X-12.604 Y-21.94 E732.13602
G1 X-14.999 Y-22.255 E732.23645
G1 X-17.394 Y-21.94 E732.33688
G1 X-19.627 Y-21.015 E732.43736
G1 X-21.544 Y-19.544 E732.53782
G1 X-23.015 Y-17.627 E732.63828
G1 X-23.94 Y-15.394 E732.73877
G1 X-24.255 Y-12.999 E732.8392
G1 X-23.94 Y-10.603 E732.93967
G1 X-23.015 Y-8.371 E733.04012
G1 X-21.544 Y-6.453 E733.14062
G1 X-19.627 Y-4.982 E733.24108
G1 X-17.394 Y-4.057 E733.34156
G1 X-14.999 Y-3.743 E733.44199
G0 F18000 X-14.999 Y-4.247
; TYPE:WALL-OUTER
G1 F2100 X-14.999 Y-4.247 E733.44199
G1 X-12.735 Y-4.544 E733.53692
G1 X-10.623 Y-5.419 E733.63196
G1 X-8.811 Y-6.81 E733.72694
G1 X-7.42 Y-8.623 E733.82194
G1 X-6.545 Y-10.734 E733.91695
G1 X-6.247 Y-12.999 E734.01193
G1 X-6.545 Y-15.263 E734.10686
G1 X-7.42 Y-17.375 E734.20191
G1 X-8.811 Y-19.187 E734.29688
G1 X-10.623 Y-20.578 E734.39185
G1 X-12.735 Y-21.453 E734.4869
G1 X-14.999 Y-21.751 E734.58183
G1 X-17.263 Y-21.453 E734.67677
G1 X-19.375 Y-20.578 E734.77182
G1 X-21.187 Y-19.187 E734.86679
G1 X-22.578 Y-17.375 E734.96176
G1 X-23.453 Y-15.263 E735.05681
G1 X-23.751 Y-12.999 E735.15174
G1 X-23.453 Y-10.734 E735.24672
G1 X-22.578 Y-8.623 E735.34173
G1 X-21.187 Y-6.81 E735.43673
G1 X-19.375 Y-5.419 E735.53171
G1 X-17.263 Y-4.544 E735.62675
G1 X-14.999 Y-4.247 E735.72168
G0 F18000 X-15 Y-3.298
; TYPE:FILL
G1 F2400 X-15 Y3.299 E735.99595
G0 F18000 X-14.5 Y3.364
G1 F2400 X-14.5 Y-3.363 E736.27563
G0 F18000 X-14 Y-3.429
G1 F2400 X-14 Y3.43 E736.56079
G0 F18000 X-13.5 Y3.496
G1 F2400 X-13.5 Y-3.495 E736.85145
G0 F18000 X-13 Y-3.56
G1 F2400 X-13 Y3.561 E737.1475
G0 F18000 X-12.5 Y3.627
G1 F2400 X-12.5 Y-3.626 E737.44905
G0 F18000 X-12 Y-3.83
G1 F2400 X-12 Y3.831 E737.76755
G0 F18000 X-11.5 Y4.038
G1 F2400 X-11.5 Y-4.037 E738.10327
G0 F18000 X-11 Y-4.244
G1 F2400 X-11 Y4.245 E738.45621
G0 F18000 X-10.5 Y4.452
G1 F2400 X-10.5 Y-4.451 E738.82635
G0 F18000 X-10 Y-4.712
G1 F2400 X-10 Y4.713 E739.2182
G0 F18000 X-9.5 Y5.097
G1 F2400 X-9.5 Y-5.095 E739.64193
G0 F18000 X-9 Y-5.478
G1 F2400 X-9 Y5.48 E740.09751
G0 F18000 X-8.5 Y5.863
G1 F2400 X-8.5 Y-5.861 E740.58494
G0 F18000 X-8 Y-6.319
G1 F2400 X-7.999 Y6.322 E741.11049
G0 F18000 X-7.499 Y6.974
G1 F2400 X-7.5 Y-6.972 E741.6903
G0 F18000 X-7 Y-7.625
G1 F2400 X-6.999 Y7.627 E742.3244
G0 F18000 X-6.499 Y8.387
G1 F2400 X-6.5 Y-8.385 E743.0217
G0 F18000 X-6 Y-9.591
G1 F2400 X-5.999 Y9.594 E743.81932
G0 F18000 X-5.499 Y11.471
G0 X-5.499 Y11.471
G1 F2400 X-5.5 Y-11.462 E744.77276
G0 F18000 X-5.5 Y-14.535
G0 X-5.5 Y-14.535
G1 F2400 X-5.5 Y-24.775 E745.19849
G0 F18000 X-6 Y-24.775
G1 F2400 X-6 Y-16.407 E745.54639
G0 F18000 X-6.5 Y-17.613
G1 F2400 X-6.5 Y-24.775 E745.84415
G0 F18000 X-7 Y-24.775
G1 F2400 X-7 Y-18.372 E746.11036
G0 F18000 X-7.5 Y-19.024
G1 F2400 X-7.5 Y-24.775 E746.34946
G0 F18000 X-8 Y-24.776
G1 F2400 X-8 Y-19.677 E746.56145
G0 F18000 X-8.5 Y-20.135
G1 F2400 X-8.5 Y-24.776 E746.7544
G0 F18000 X-9 Y-24.776
G1 F2400 X-9 Y-20.518 E746.93143
G0 F18000 X-9.5 Y-20.901
G1 F2400 X-9.5 Y-24.776 E747.09253
G0 F18000 X-10 Y-24.776
G1 F2400 X-10 Y-21.284 E747.23771
G0 F18000 X-10.5 Y-21.545
G1 F2400 X-10.5 Y-24.776 E747.37204
G0 F18000 X-11 Y-24.777
G1 F2400 X-11 Y-21.752 E747.49781
G0 F18000 X-11.5 Y-21.96
G1 F2400 X-11.5 Y-24.777 E747.61492
G0 F18000 X-12 Y-24.777
G1 F2400 X-12 Y-22.167 E747.72344
G0 F18000 X-12.5 Y-22.371
G1 F2400 X-12.5 Y-24.777 E747.82347
G0 F18000 X-13 Y-24.777
G1 F2400 X-13 Y-22.436 E747.92079
G0 F18000 X-13.5 Y-22.502
G1 F2400 X-13.5 Y-24.777 E748.01538
G0 F18000 X-14 Y-24.778
G1 F2400 X-14 Y-22.568 E748.10726
G0 F18000 X-14.5 Y-22.634
G1 F2400 X-14.5 Y-24.778 E748.19639
G0 F18000 X-15 Y-24.777
G1 F2400 X-15 Y-22.698 E748.28283
G0 F18000 X-15.5 Y-22.632
G1 F2400 X-15.5 Y-24.777 E748.37201
G0 F18000 X-16 Y-24.777
G1 F2400 X-16 Y-22.566 E748.46393
G0 F18000 X-16.5 Y-22.501
G1 F2400 X-16.5 Y-24.778 E748.5586
G0 F18000 X-17 Y-24.778
G1 F2400 X-17 Y-22.435 E748.65601
G0 F18000 X-17.5 Y-22.369
G1 F2400 X-17.5 Y-24.778 E748.75616
G0 F18000 X-18 Y-24.778
G1 F2400 X-18 Y-22.164 E748.86484
G0 F18000 X-18.5 Y-21.957
G1 F2400 X-18.5 Y-24.778 E748.98212
G0 F18000 X-19 Y-24.778
G1 F2400 X-19 Y-21.75 E749.10801
G0 F18000 X-19.5 Y-21.543
G1 F2400 X-19.5 Y-24.779 E749.24255
G0 F18000 X-20 Y-24.779
G1 F2400 X-20 Y-21.28 E749.38802
G0 F18000 X-20.5 Y-20.897
G1 F2400 X-20.5 Y-24.779 E749.54942
G0 F18000 X-21 Y-24.779
G1 F2400 X-21 Y-20.514 E749.72674
G0 F18000 X-21.5 Y-20.131
G1 F2400 X-21.5 Y-24.779 E749.91998
G0 F18000 X-22 Y-24.779
G1 F2400 X-22 Y-19.67 E750.13238
G0 F18000 X-22.5 Y-19.018
G1 F2400 X-22.5 Y-24.78 E750.37194
G0 F18000 X-23 Y-24.78
G1 F2400 X-23 Y-18.366 E750.6386
G0 F18000 X-23.5 Y-17.603
G1 F2400 X-23.5 Y-24.78 E750.93699
G0 F18000 X-24 Y-24.78
G1 F2400 X-24 Y-16.396 E751.28555
G0 F18000 X-24.5 Y-14.507
G0 X-24.5 Y-14.507
G1 F2400 X-24.5 Y-24.78 E751.71266
G0 F18000 X-25 Y-24.78
G1 F2400 X-24.999 Y24.775 E753.77291
G0 F18000 X-24.499 Y24.775
G1 F2400 X-24.5 Y14.513 E754.19956
G0 F18000 X-23.999 Y16.399
G0 X-23.999 Y16.399
G1 F2400 X-23.999 Y24.775 E754.54779
G0 F18000 X-23.499 Y24.775
G1 F2400 X-23.499 Y17.606 E754.84584
G0 F18000 X-22.999 Y18.368
G1 F2400 X-22.999 Y24.775 E755.11222
G0 F18000 X-22.499 Y24.775
G1 F2400 X-22.499 Y19.02 E755.35148
G0 F18000 X-21.999 Y19.673
G1 F2400 X-21.999 Y24.775 E755.5636
G0 F18000 X-21.499 Y24.775
G1 F2400 X-21.499 Y20.132 E755.75663
G0 F18000 X-20.999 Y20.516
G1 F2400 X-20.999 Y24.775 E755.9337
G0 F18000 X-20.499 Y24.775
G1 F2400 X-20.499 Y20.899 E756.09485
G0 F18000 X-19.999 Y21.282
G1 F2400 X-19.999 Y24.775 E756.24007
G0 F18000 X-19.499 Y24.775
G1 F2400 X-19.499 Y21.544 E756.3744
G0 F18000 X-18.999 Y21.751
G1 F2400 X-18.999 Y24.775 E756.50012
G0 F18000 X-18.499 Y24.775
G1 F2400 X-18.499 Y21.958 E756.61724
G0 F18000 X-17.999 Y22.166
G1 F2400 X-17.999 Y24.775 E756.72571
G0 F18000 X-17.499 Y24.775
G1 F2400 X-17.499 Y22.37 E756.8257
G0 F18000 X-16.999 Y22.436
G1 F2400 X-16.999 Y24.775 E756.92294
G0 F18000 X-16.499 Y24.775
G1 F2400 X-16.499 Y22.502 E757.01744
G0 F18000 X-15.999 Y22.567
G1 F2400 X-15.999 Y24.775 E757.10924
G0 F18000 X-15.499 Y24.775
G1 F2400 X-15.499 Y22.633 E757.19829
G0 F18000 X-14.999 Y22.699
G1 F2400 X-14.999 Y24.775 E757.2846
G0 F18000 X-14.499 Y24.775
G1 F2400 X-14.499 Y22.634 E757.37361
G0 F18000 X-13.999 Y22.568
G1 F2400 X-13.999 Y24.775 E757.46537
G0 F18000 X-13.499 Y24.775
G1 F2400 X-13.499 Y22.503 E757.55983
G0 F18000 X-12.999 Y22.437
G1 F2400 X-12.999 Y24.775 E757.65703
G0 F18000 X-12.499 Y24.775
G1 F2400 X-12.499 Y22.371 E757.75698
G0 F18000 X-11.999 Y22.167
G1 F2400 X-11.999 Y24.775 E757.86541
G0 F18000 X-11.499 Y24.775
G1 F2400 X-11.499 Y21.96 E757.98244
G0 F18000 X-10.999 Y21.753
G1 F2400 X-10.999 Y24.775 E758.10808
G0 F18000 X-10.499 Y24.775
G1 F2400 X-10.499 Y21.546 E758.24233
G0 F18000 X-9.999 Y21.285
G1 F2400 X-9.999 Y24.775 E758.38742
G0 F18000 X-9.499 Y24.775
G1 F2400 X-9.499 Y20.901 E758.54849
G0 F18000 X-8.999 Y20.518
G1 F2400 X-8.999 Y24.775 E758.72547
G0 F18000 X-8.499 Y24.775
G1 F2400 X-8.499 Y20.135 E758.91838
G0 F18000 X-7.999 Y19.676
G1 F2400 X-7.999 Y24.775 E759.13037
G0 F18000 X-7.499 Y24.775
G1 F2400 X-7.499 Y19.024 E759.36947
G0 F18000 X-6.999 Y18.372
G1 F2400 X-6.999 Y24.775 E759.63568
G0 F18000 X-6.499 Y24.775
G1 F2400 X-6.499 Y17.612 E759.93348
G0 F18000 X-5.999 Y16.405
G1 F2400 X-5.999 Y24.775 E760.28146
G0 F18000 X-5.499 Y24.775
G1 F2400 X-5.499 Y14.529 E760.70744
G0 F18000 X-4.999 Y24.775
G0 X-4.999 Y24.775
G1 F2400 X-5 Y-24.775 E762.76749
G0 F18000 X-4.5 Y-24.774
G1 F2400 X-4.499 Y24.775 E764.8275
G0 F18000 X-3.999 Y24.775
G1 F2400 X-4 Y-24.774 E766.88751
G0 F18000 X-3.5 Y-24.774
G1 F2400 X-3.499 Y24.775 E768.94752
G0 F18000 X-2.753 Y25.345
G1 F2400 X-2.694 Y25.327 E768.94936
G1 X-2.6 Y25.231 E768.95069
G1 X-2.601 Y25.155 E768.95135
G0 F18000 X-25.499 Y24.775
G0 X-25.499 Y24.775
G1 F2400 X-25.5 Y-24.781 E771.01165
G0 F18000 X-26 Y-24.781
G1 F2400 X-25.999 Y24.775 E773.07195
G0 F18000 X-26.499 Y24.775
G1 F2400 X-26.5 Y-24.781 E775.13225
G0 F18000 X-24.5 Y-11.484
G0 X-24.5 Y-11.484
G1 F2400 X-24.5 Y11.485 E776.08719
G0 F18000 X-24 Y9.598
G0 X-24 Y9.598
G1 F2400 X-24 Y-9.597 E776.88522
G0 F18000 X-23.5 Y-8.391
G1 F2400 X-23.5 Y8.392 E777.58298
G0 F18000 X-23 Y7.63
G1 F2400 X-23 Y-7.629 E778.21738
G0 F18000 X-22.5 Y-6.976
G1 F2400 X-22.5 Y6.977 E778.79747
G0 F18000 X-22 Y6.324
G1 F2400 X-22 Y-6.323 E779.32327
G0 F18000 X-21.5 Y-5.864
G1 F2400 X-21.5 Y5.865 E779.81091
G0 F18000 X-21 Y5.481
G1 F2400 X-21 Y-5.48 E780.26662
G0 F18000 X-20.5 Y-5.097
G1 F2400 X-20.5 Y5.098 E780.69047
G0 F18000 X-20 Y4.715
G1 F2400 X-20 Y-4.714 E781.08249
G0 F18000 X-19.5 Y-4.452
G1 F2400 X-19.5 Y4.453 E781.45271
G0 F18000 X-19 Y4.246
G1 F2400 X-19 Y-4.245 E781.80573
G0 F18000 X-18.5 Y-4.038
G1 F2400 X-18.5 Y4.039 E782.14153
G0 F18000 X-18 Y3.832
G1 F2400 X-18 Y-3.831 E782.46012
G0 F18000 X-17.5 Y-3.626
G1 F2400 X-17.5 Y3.627 E782.76167
G0 F18000 X-17 Y3.561
G1 F2400 X-17 Y-3.56 E783.05772
G0 F18000 X-16.5 Y-3.495
G1 F2400 X-16.5 Y3.496 E783.34837
G0 F18000 X-16 Y3.43
G1 F2400 X-16 Y-3.429 E783.63354
G0 F18000 X-15.5 Y-3.364
G1 F2400 X-15.5 Y3.365 E783.9133
G1 F6600 E777.1133
G1 Z1.2
G0 F18000 X-11.972 Y-4.441
G0 X-10.398 Y-5.027
G0 X-8.491 Y-6.49
G0 X-7.028 Y-8.398
G0 X-6.109 Y-10.617
G0 X-5.795 Y-12.999
G0 X-6.109 Y-15.38
G0 X-6.579 Y-16.378
G0 X-2.647 Y-25.082
G0 X-2.482 Y-25.446
G0 X-2.603 Y-25.182
G0 X-2.603 Y-25.182
G1 Z0.9
G1 F6600 E784.0133
G1 F2400 X-2.619 Y-25.23 E784.01443
G1 X-2.681 Y-25.339 E784.01602
G1 X-2.763 Y-25.361 E784.01693
; Layer Change GCode
; LAYER:4
G0 F18000 X25.25 Y12.75 Z1.1
G0 X24.75 Y13.25
; TYPE:WALL-INNER
G1 F2400 X24.75 Y13.25 E784.01693
G1 X27.25 Y13.25 E784.12087
G1 X27.25 Y25.25 E784.61977
G1 X2.75 Y25.25 E785.63836
G1 X2.75 Y-25.249 E787.73787
G1 X27.25 Y-25.249 E788.75646
G1 X27.25 Y-13.249 E789.25536
G1 X24.75 Y-13.249 E789.3593
G1 X24.75 Y-6.249 E789.65032
G1 X20.75 Y-6.249 E789.81662
G1 X20.75 Y6.25 E790.33627
G1 X24.75 Y6.25 E790.50257
G1 X24.75 Y13.25 E790.7936
G0 F18000 X25.25 Y12.75
; TYPE:WALL-OUTER
G1 F2100 X25.25 Y12.75 E790.7936
G1 X27.75 Y12.75 E790.89754
G1 X27.75 Y25.75 E791.43801
G1 X2.25 Y25.75 E792.49818
G1 X2.25 Y-25.749 E794.63926
G1 X27.75 Y-25.749 E795.69943
G1 X27.75 Y-12.749 E796.2399
G1 X25.25 Y-12.749 E796.34384
G1 X25.25 Y-5.749 E796.63487
G1 X21.25 Y-5.749 E796.80117
G1 X21.25 Y5.75 E797.27924
G1 X25.25 Y5.75 E797.44554
G1 X25.25 Y12.75 E797.73657
G0 F18000 X24.31 Y12.999
; TYPE:FILL
G1 F2400 X3.189 Y13 E798.61468
G0 F18000 X3.189 Y13.5
G1 F2400 X24.31 Y13.499 E799.49279
G0 F18000 X24.31 Y12.499
G1 F2400 X3.189 Y12.5 E800.3709
G0 F18000 X3.189 Y12
G1 F2400 X24.31 Y11.999 E801.24901
G0 F18000 X24.31 Y11.499
G1 F2400 X3.189 Y11.5 E802.12711
G0 F18000 X3.189 Y11
G1 F2400 X24.31 Y10.999 E803.00522
G0 F18000 X24.31 Y10.499
G1 F2400 X3.189 Y10.5 E803.88333
G0 F18000 X3.189 Y10
G1 F2400 X24.31 Y9.999 E804.76144
G0 F18000 X24.31 Y9.499
G1 F2400 X3.189 Y9.5 E805.63955
G0 F18000 X3.189 Y9
G1 F2400 X24.31 Y8.999 E806.51766
G0 F18000 X24.31 Y8.499
G1 F2400 X3.189 Y8.5 E807.39577
G0 F18000 X3.189 Y8
G1 F2400 X24.31 Y7.999 E808.27388
G0 F18000 X24.31 Y7.499
G1 F2400 X3.189 Y7.5 E809.15199
G0 F18000 X3.189 Y7
G1 F2400 X24.31 Y6.999 E810.0301
G0 F18000 X20.31 Y6.499
G1 F2400 X3.189 Y6.5 E810.74191
G0 F18000 X3.189 Y6
G1 F2400 X20.31 Y5.999 E811.45371
G0 F18000 X20.31 Y5.499
G1 F2400 X3.189 Y5.5 E812.16552
G0 F18000 X3.189 Y5
G1 F2400 X20.31 Y4.999 E812.87733
G0 F18000 X20.31 Y4.499
G1 F2400 X3.189 Y4.5 E813.58914
G0 F18000 X3.189 Y4
G1 F2400 X20.31 Y3.999 E814.30095
G0 F18000 X20.31 Y3.499
G1 F2400 X3.189 Y3.5 E815.01276
G0 F18000 X3.189 Y3
G1 F2400 X20.31 Y2.999 E815.72456
G0 F18000 X20.31 Y2.499
G1 F2400 X3.189 Y2.5 E816.43637
G0 F18000 X3.189 Y1.999
G1 F2400 X20.31 Y1.999 E817.14818
G0 F18000 X20.31 Y1.499
G1 F2400 X3.189 Y1.499 E817.85999
G0 F18000 X3.189 Y0.999
G1 F2400 X20.31 Y0.999 E818.5718
G0 F18000 X20.31 Y0.499
G1 F2400 X3.189 Y0.499 E819.28361
G0 F18000 X3.19 Y0
G1 F2400 X20.31 Y0 E819.99537
G0 F18000 X20.31 Y-0.5
G1 F2400 X3.19 Y-0.5 E820.70714
G0 F18000 X3.19 Y-1
G1 F2400 X20.31 Y-1 E821.41891
G0 F18000 X20.31 Y-1.5
G1 F2400 X3.19 Y-1.5 E822.13067
G0 F18000 X3.19 Y-2
G1 F2400 X20.31 Y-2 E822.84244
G0 F18000 X20.31 Y-2.5
G1 F2400 X3.19 Y-2.5 E823.55421
G0 F18000 X3.19 Y-3
G1 F2400 X20.31 Y-3 E824.26598
G0 F18000 X20.31 Y-3.5
G1 F2400 X3.19 Y-3.5 E824.97774
G0 F18000 X3.189 Y-4
G1 F2400 X20.31 Y-4 E825.68955
G0 F18000 X20.31 Y-4.5
G1 F2400 X3.189 Y-4.5 E826.40136
G0 F18000 X3.189 Y-5
G1 F2400 X20.31 Y-5 E827.11317
G0 F18000 X20.31 Y-5.5
G1 F2400 X3.189 Y-5.5 E827.82498
G0 F18000 X3.189 Y-6
G1 F2400 X20.31 Y-6 E828.53678
G0 F18000 X20.31 Y-6.5
G1 F2400 X3.189 Y-6.5 E829.24859
G0 F18000 X3.189 Y-7
G1 F2400 X24.31 Y-7 E830.1267
G0 F18000 X24.31 Y-7.5
G1 F2400 X3.189 Y-7.5 E831.00481
G0 F18000 X3.189 Y-8
G1 F2400 X24.31 Y-8 E831.88292
G0 F18000 X24.31 Y-8.5
G1 F2400 X3.189 Y-8.5 E832.76103
G0 F18000 X3.189 Y-9
G1 F2400 X24.31 Y-9 E833.63914
G0 F18000 X24.31 Y-9.5
G1 F2400 X3.189 Y-9.5 E834.51725
G0 F18000 X3.189 Y-10
G1 F2400 X24.31 Y-10 E835.39536
G0 F18000 X24.31 Y-10.5
G1 F2400 X3.189 Y-10.5 E836.27347
G0 F18000 X3.189 Y-11
G1 F2400 X24.31 Y-11 E837.15158
G0 F18000 X24.31 Y-11.5
G1 F2400 X3.189 Y-11.5 E838.02968
G0 F18000 X3.189 Y-12
G1 F2400 X24.31 Y-12 E838.90779
G0 F18000 X24.31 Y-12.5
G1 F2400 X3.189 Y-12.5 E839.7859
G0 F18000 X3.189 Y-13
G1 F2400 X24.31 Y-13 E840.66401
G0 F18000 X24.31 Y-13.5
G1 F2400 X3.189 Y-13.5 E841.54212
G0 F18000 X3.189 Y-14
G1 F2400 X26.81 Y-14 E842.52417
G0 F18000 X26.81 Y-14.5
G1 F2400 X3.189 Y-14.5 E843.50621
G0 F18000 X3.189 Y-15
G1 F2400 X26.81 Y-15 E844.48826
G0 F18000 X26.81 Y-15.5
G1 F2400 X3.189 Y-15.5 E845.47031
G0 F18000 X3.189 Y-16
G1 F2400 X26.81 Y-16 E846.45236
G0 F18000 X26.81 Y-16.5
G1 F2400 X3.189 Y-16.5 E847.4344
G0 F18000 X3.189 Y-17
G1 F2400 X26.81 Y-17 E848.41645
G0 F18000 X26.81 Y-17.5
G1 F2400 X3.189 Y-17.5 E849.3985
G0 F18000 X3.189 Y-18
G1 F2400 X26.81 Y-18 E850.38054
G0 F18000 X26.81 Y-18.5
G1 F2400 X3.189 Y-18.5 E851.36259
G0 F18000 X3.189 Y-19
G1 F2400 X26.81 Y-19 E852.34464
G0 F18000 X26.81 Y-19.5
G1 F2400 X3.189 Y-19.5 E853.32669
G0 F18000 X3.189 Y-20
G1 F2400 X26.81 Y-20 E854.30873
G0 F18000 X26.81 Y-20.5
G1 F2400 X3.189 Y-20.5 E855.29078
G0 F18000 X3.189 Y-21
G1 F2400 X26.81 Y-21 E856.27283
G0 F18000 X26.81 Y-21.5
G1 F2400 X3.189 Y-21.5 E857.25487
G0 F18000 X3.189 Y-22
G1 F2400 X26.81 Y-22 E858.23692
G0 F18000 X26.81 Y-22.5
G1 F2400 X3.189 Y-22.5 E859.21897
G0 F18000 X3.189 Y-23
G1 F2400 X26.81 Y-23 E860.20101
G0 F18000 X26.81 Y-23.5
G1 F2400 X3.189 Y-23.5 E861.18306
G0 F18000 X3.189 Y-24
G1 F2400 X26.81 Y-24 E862.16511
G0 F18000 X26.81 Y-24.5
G1 F2400 X3.189 Y-24.5 E863.14716
G0 F18000 X3.189 Y14
G0 X3.189 Y14
G1 F2400 X26.81 Y13.999 E864.1292
G0 F18000 X26.81 Y14.499
G1 F2400 X3.189 Y14.5 E865.11125
G0 F18000 X3.189 Y15
G1 F2400 X26.81 Y14.999 E866.0933
G0 F18000 X26.81 Y15.499
G1 F2400 X3.189 Y15.5 E867.07534
G0 F18000 X3.189 Y16
G1 F2400 X26.81 Y15.999 E868.05739
G0 F18000 X26.81 Y16.5
G1 F2400 X3.189 Y16.5 E869.03944
G0 F18000 X3.189 Y17
G1 F2400 X26.81 Y17 E870.02149
G0 F18000 X26.81 Y17.5
G1 F2400 X3.189 Y17.5 E871.00353
G0 F18000 X3.189 Y18
G1 F2400 X26.81 Y18 E871.98558
G0 F18000 X26.81 Y18.5
G1 F2400 X3.189 Y18.5 E872.96763
G0 F18000 X3.189 Y19
G1 F2400 X26.81 Y19 E873.94967
G0 F18000 X26.81 Y19.5
G1 F2400 X3.189 Y19.5 E874.93172
G0 F18000 X3.189 Y20
G1 F2400 X26.81 Y20 E875.91377
G0 F18000 X26.81 Y20.5
G1 F2400 X3.189 Y20.5 E876.89582
G0 F18000 X3.189 Y21
G1 F2400 X26.81 Y21 E877.87786
G0 F18000 X26.81 Y21.5
G1 F2400 X3.189 Y21.5 E878.85991
G0 F18000 X3.189 Y22
G1 F2400 X26.81 Y22 E879.84196
G0 F18000 X26.81 Y22.5
G1 F2400 X3.189 Y22.5 E880.824
G0 F18000 X3.189 Y23
G1 F2400 X26.81 Y23 E881.80605
G0 F18000 X26.81 Y23.5
G1 F2400 X3.189 Y23.5 E882.7881
G0 F18000 X3.189 Y24
G1 F2400 X26.81 Y24 E883.77014
G0 F18000 X26.81 Y24.5
G1 F2400 X3.189 Y24.5 E884.75219
G1 F6600 E877.95219
G1 Z1.4
G0 F18000 X-27.749 Y25.75
G0 X-27.249 Y25.25
; TYPE:WALL-INNER
G1 Z1.1
G1 F6600 E884.85219
G1 F2400 X-27.249 Y25.25 E884.85219
G1 X-27.249 Y-25.249 E886.9517
G1 X-3.048 Y-25.249 E887.95786
G1 X-2.937 Y-25.234 E887.96251
G1 X-2.827 Y-25.171 E887.96778
G1 X-2.764 Y-25.061 E887.97305
G1 X-2.749 Y-24.95 E887.97771
G1 X-2.749 Y24.951 E890.05235
G1 X-2.764 Y25.062 E890.05701
G1 X-2.827 Y25.172 E890.06228
G1 X-2.937 Y25.235 E890.06755
G1 X-3.048 Y25.25 E890.07221
G1 X-27.249 Y25.25 E891.07837
G0 F18000 X-27.749 Y25.75
; TYPE:WALL-OUTER
G1 F2100 X-27.749 Y25.75 E891.07837
G1 X-27.749 Y-25.749 E893.21945
G1 X-3.018 Y-25.749 E894.24764
G1 X-2.804 Y-25.72 E894.25662
G1 X-2.624 Y-25.646 E894.26471
G1 X-2.47 Y-25.528 E894.27278
G1 X-2.352 Y-25.374 E894.28084
G1 X-2.278 Y-25.194 E894.28894
G1 X-2.249 Y-24.98 E894.29791
G1 X-2.249 Y24.981 E896.37505
G1 X-2.278 Y25.195 E896.38403
G1 X-2.352 Y25.375 E896.39212
G1 X-2.47 Y25.529 E896.40019
G1 X-2.624 Y25.647 E896.40825
G1 X-2.804 Y25.721 E896.41634
G1 X-3.018 Y25.75 E896.42532
G1 X-27.749 Y25.75 E897.45352
G0 F18000 X-27.489 Y25.4
G0 X-21.544 Y19.545
G0 X-21.544 Y19.545
; TYPE:WALL-INNER
G1 F2400 X-21.544 Y19.545 E897.45352
G1 X-19.627 Y21.016 E897.55398
G1 X-17.394 Y21.941 E897.65447
G1 X-14.999 Y22.256 E897.7549
G1 X-12.604 Y21.941 E897.85533
G1 X-10.371 Y21.016 E897.95581
G1 X-8.454 Y19.545 E898.05627
G1 X-6.983 Y17.628 E898.15673
G1 X-6.058 Y15.395 E898.25722
G1 X-5.743 Y13 E898.35765
G1 X-6.058 Y10.604 E898.45812
G1 X-6.983 Y8.372 E898.55857
G1 X-8.454 Y6.454 E898.65906
G1 X-10.371 Y4.983 E898.75952
G1 X-12.604 Y4.058 E898.86001
G1 X-14.999 Y3.744 E898.96044
G1 X-17.394 Y4.058 E899.06086
G1 X-19.627 Y4.983 E899.16135
G1 X-21.544 Y6.454 E899.26181
G1 X-23.015 Y8.372 E899.3623
G1 X-23.94 Y10.604 E899.46275
G1 X-24.255 Y13 E899.56322
G1 X-23.94 Y15.395 E899.66365
G1 X-23.015 Y17.628 E899.76414
G1 X-21.544 Y19.545 E899.8646
G0 F18000 X-20.892 Y19.8
G0 X-19.6 Y20.971
G0 X-17.38 Y21.89
G0 X-15.241 Y22.019
G0 X-15.045 Y22.098
G0 X-15.045 Y22.098
G0 X-14.999 Y21.752
; TYPE:WALL-OUTER
G1 F2100 X-14.999 Y21.752 E899.8646
G1 X-12.735 Y21.454 E899.95954
G1 X-10.623 Y20.579 E900.05458
G1 X-8.811 Y19.188 E900.14955
G1 X-7.42 Y17.376 E900.24452
G1 X-6.545 Y15.264 E900.33957
G1 X-6.247 Y13 E900.43451
G1 X-6.545 Y10.735 E900.52949
G1 X-7.42 Y8.624 E900.62449
G1 X-8.811 Y6.811 E900.7195
G1 X-10.623 Y5.42 E900.81447
G1 X-12.735 Y4.545 E900.90951
G1 X-14.999 Y4.248 E901.00445
G1 X-17.263 Y4.545 E901.09938
G1 X-19.375 Y5.42 E901.19442
G1 X-21.187 Y6.811 E901.28939
G1 X-22.578 Y8.624 E901.3844
G1 X-23.453 Y10.735 E901.47941
G1 X-23.751 Y13 E901.57439
G1 X-23.453 Y15.264 E901.66932
G1 X-22.578 Y17.376 E901.76437
G1 X-21.187 Y19.188 E901.85934
G1 X-19.375 Y20.579 E901.95431
G1 X-17.263 Y21.454 E902.04936
G1 X-14.999 Y21.752 E902.14429
G1 F6600 E895.34429
G1 Z1.4
G0 F18000 X-15.045 Y22.098
G0 X-15.044 Y22.209
G0 X-12.618 Y21.89
G0 X-10.398 Y20.971
G0 X-8.491 Y19.508
G0 X-7.028 Y17.601
G0 X-6.109 Y15.381
G0 X-5.795 Y13
G0 X-6.109 Y10.618
G0 X-7.028 Y8.399
G0 X-8.491 Y6.491
G0 X-10.398 Y5.028
G0 X-12.619 Y4.109
G0 X-15.011 Y3.794
G0 X-14.999 Y-3.743
G0 X-14.999 Y-3.743
; TYPE:WALL-INNER
G1 Z1.1
G1 F6600 E902.24429
G1 F2400 X-14.999 Y-3.743 E902.24429
G1 X-12.604 Y-4.057 E902.34472
G1 X-10.371 Y-4.982 E902.44521
G1 X-8.454 Y-6.453 E902.54567
G1 X-6.983 Y-8.371 E902.64616
G1 X-6.058 Y-10.603 E902.74661
G1 X-5.743 Y-12.999 E902.84708
G1 X-6.058 Y-15.394 E902.94751
G1 X-6.983 Y-17.627 E903.048
G1 X-8.454 Y-19.544 E903.14846
G1 X-10.371 Y-21.015 E903.24892
G1 X-12.604 Y-21.94 E903.3494
G1 X-14.999 Y-22.255 E903.44983
G1 X-17.394 Y-21.94 E903.55026
G1 X-19.627 Y-21.015 E903.65075
G1 X-21.544 Y-19.544 E903.75121
G1 X-23.015 Y-17.627 E903.85167
G1 X-23.94 Y-15.394 E903.95216
G1 X-24.255 Y-12.999 E904.05259
G1 X-23.94 Y-10.603 E904.15306
G1 X-23.015 Y-8.371 E904.25351
G1 X-21.544 Y-6.453 E904.354
G1 X-19.627 Y-4.982 E904.45446
G1 X-17.394 Y-4.057 E904.55495
G1 X-14.999 Y-3.743 E904.65537
G0 F18000 X-14.999 Y-4.247
; TYPE:WALL-OUTER
G1 F2100 X-14.999 Y-4.247 E904.65537
G1 X-12.735 Y-4.544 E904.75031
G1 X-10.623 Y-5.419 E904.84535
G1 X-8.811 Y-6.81 E904.94032
G1 X-7.42 Y-8.623 E905.03533
G1 X-6.545 Y-10.734 E905.13033
G1 X-6.247 Y-12.999 E905.22531
G1 X-6.545 Y-15.263 E905.32025
G1 X-7.42 Y-17.375 E905.4153
G1 X-8.811 Y-19.187 E905.51027
G1 X-10.623 Y-20.578 E905.60524
G1 X-12.735 Y-21.453 E905.70028
G1 X-14.999 Y-21.751 E905.79522
G1 X-17.263 Y-21.453 E905.89016
G1 X-19.375 Y-20.578 E905.9852
G1 X-21.187 Y-19.187 E906.08018
G1 X-22.578 Y-17.375 E906.17515
G1 X-23.453 Y-15.263 E906.27019
G1 X-23.751 Y-12.999 E906.36513
G1 X-23.453 Y-10.734 E906.46011
G1 X-22.578 Y-8.623 E906.55512
G1 X-21.187 Y-6.81 E906.65012
G1 X-19.375 Y-5.419 E906.74509
G1 X-17.263 Y-4.544 E906.84014
G1 X-14.999 Y-4.247 E906.93507
G0 F18000 X-15.045 Y-3.901
G0 X-16.532 Y-3.499
G0 X-16.532 Y-3.499
; TYPE:FILL
G1 F2400 X-26.809 Y-3.499 E907.36234
G0 F18000 X-26.809 Y-3.999
G1 F2400 X-18.406 Y-3.999 E907.71169
G0 F18000 X-19.613 Y-4.499
G1 F2400 X-26.809 Y-4.499 E908.01087
G0 F18000 X-26.809 Y-4.999
G1 F2400 X-20.372 Y-4.999 E908.27849
G0 F18000 X-21.024 Y-5.499
G1 F2400 X-26.809 Y-5.499 E908.519
G0 F18000 X-26.809 Y-5.999
G1 F2400 X-21.677 Y-5.999 E908.73236
G0 F18000 X-22.135 Y-6.499
G1 F2400 X-26.809 Y-6.499 E908.92669
G0 F18000 X-26.809 Y-6.999
G1 F2400 X-22.518 Y-6.999 E909.10508
G0 F18000 X-22.901 Y-7.499
G1 F2400 X-26.809 Y-7.499 E909.26756
G0 F18000 X-26.809 Y-7.999
G1 F2400 X-23.284 Y-7.999 E909.41411
G0 F18000 X-23.545 Y-8.499
G1 F2400 X-26.809 Y-8.499 E909.54981
G0 F18000 X-26.809 Y-8.999
G1 F2400 X-23.752 Y-8.999 E909.67691
G0 F18000 X-23.959 Y-9.499
G1 F2400 X-26.809 Y-9.499 E909.7954
G0 F18000 X-26.809 Y-9.999
G1 F2400 X-24.167 Y-9.999 E909.90524
G0 F18000 X-24.371 Y-10.499
G1 F2400 X-26.809 Y-10.499 E910.0066
G0 F18000 X-26.809 Y-10.999
G1 F2400 X-24.436 Y-10.999 E910.10526
G0 F18000 X-24.502 Y-11.499
G1 F2400 X-26.809 Y-11.499 E910.20117
G0 F18000 X-26.809 Y-11.999
G1 F2400 X-24.568 Y-11.999 E910.29434
G0 F18000 X-24.633 Y-12.499
G1 F2400 X-26.809 Y-12.499 E910.38481
G0 F18000 X-26.809 Y-12.999
G1 F2400 X-24.699 Y-12.999 E910.47253
G0 F18000 X-24.633 Y-13.499
G1 F2400 X-26.809 Y-13.499 E910.563
G0 F18000 X-26.809 Y-13.999
G1 F2400 X-24.567 Y-13.999 E910.65621
G0 F18000 X-24.502 Y-14.499
G1 F2400 X-26.809 Y-14.499 E910.75213
G0 F18000 X-26.809 Y-14.999
G1 F2400 X-24.436 Y-14.999 E910.85078
G0 F18000 X-24.37 Y-15.499
G1 F2400 X-26.809 Y-15.499 E910.95219
G0 F18000 X-26.809 Y-15.999
G1 F2400 X-24.166 Y-15.999 E911.06207
G0 F18000 X-23.958 Y-16.5
G1 F2400 X-26.809 Y-16.5 E911.1806
G0 F18000 X-26.809 Y-17
G1 F2400 X-23.751 Y-17 E911.30774
G0 F18000 X-23.544 Y-17.5
G1 F2400 X-26.809 Y-17.5 E911.44348
G0 F18000 X-26.809 Y-18
G1 F2400 X-23.282 Y-18 E911.59012
G0 F18000 X-22.899 Y-18.5
G1 F2400 X-26.809 Y-18.5 E911.75267
G0 F18000 X-26.809 Y-19
G1 F2400 X-22.516 Y-19 E911.93116
G0 F18000 X-22.132 Y-19.5
G1 F2400 X-26.809 Y-19.5 E912.1256
G0 F18000 X-26.809 Y-20
G1 F2400 X-21.673 Y-20 E912.33913
G0 F18000 X-21.02 Y-20.5
G1 F2400 X-26.809 Y-20.5 E912.57981
G0 F18000 X-26.809 Y-21
G1 F2400 X-20.368 Y-21 E912.8476
G0 F18000 X-19.606 Y-21.5
G1 F2400 X-26.809 Y-21.5 E913.14706
G0 F18000 X-26.809 Y-22
G1 F2400 X-18.399 Y-22 E913.49671
G0 F18000 X-16.512 Y-22.5
G0 X-16.512 Y-22.5
G1 F2400 X-26.809 Y-22.5 E913.92481
G0 F18000 X-26.809 Y-23
G1 F2400 X-3.188 Y-23 E914.90686
G0 F18000 X-3.188 Y-22.5
G1 F2400 X-13.484 Y-22.5 E915.33492
G0 F18000 X-11.598 Y-22
G0 X-11.598 Y-22
G1 F2400 X-3.188 Y-22 E915.68456
G0 F18000 X-3.188 Y-21.5
G1 F2400 X-10.391 Y-21.5 E915.98403
G0 F18000 X-9.629 Y-21
G1 F2400 X-3.188 Y-21 E916.25181
G0 F18000 X-3.188 Y-20.5
G1 F2400 X-8.977 Y-20.5 E916.49249
G0 F18000 X-8.324 Y-20
G1 F2400 X-3.188 Y-20 E916.70602
G0 F18000 X-3.188 Y-19.5
G1 F2400 X-7.865 Y-19.5 E916.90047
G0 F18000 X-7.481 Y-19
G1 F2400 X-3.188 Y-19 E917.07895
G0 F18000 X-3.188 Y-18.5
G1 F2400 X-7.098 Y-18.5 E917.24151
G0 F18000 X-6.715 Y-18
G1 F2400 X-3.188 Y-18 E917.38815
G0 F18000 X-3.188 Y-17.5
G1 F2400 X-6.453 Y-17.5 E917.52389
G0 F18000 X-6.246 Y-17
G1 F2400 X-3.188 Y-17 E917.65103
G0 F18000 X-3.188 Y-16.5
G1 F2400 X-6.039 Y-16.5 E917.76956
G0 F18000 X-5.831 Y-16
G1 F2400 X-3.188 Y-16 E917.87944
G0 F18000 X-3.188 Y-15.5
G1 F2400 X-5.627 Y-15.5 E917.98084
G0 F18000 X-5.561 Y-15
G1 F2400 X-3.188 Y-15 E918.0795
G0 F18000 X-3.188 Y-14.5
G1 F2400 X-5.495 Y-14.5 E918.17541
G0 F18000 X-5.43 Y-14
G1 F2400 X-3.188 Y-14 E918.26863
G0 F18000 X-3.188 Y-13.5
G1 F2400 X-5.364 Y-13.5 E918.35909
G0 F18000 X-5.298 Y-13
G1 F2400 X-3.188 Y-13 E918.44682
G0 F18000 X-3.188 Y-12.5
G1 F2400 X-5.364 Y-12.5 E918.53728
G0 F18000 X-5.429 Y-12
G1 F2400 X-3.188 Y-12 E918.63045
G0 F18000 X-3.188 Y-11.5
G1 F2400 X-5.495 Y-11.5 E918.72637
G0 F18000 X-5.561 Y-11
G1 F2400 X-3.188 Y-11 E918.82503
G0 F18000 X-3.188 Y-10.5
G1 F2400 X-5.626 Y-10.5 E918.92639
G0 F18000 X-5.83 Y-10
G1 F2400 X-3.188 Y-10 E919.03623
G0 F18000 X-3.188 Y-9.5
G1 F2400 X-6.038 Y-9.5 E919.15472
G0 F18000 X-6.245 Y-9
G1 F2400 X-3.188 Y-9 E919.28181
G0 F18000 X-3.188 Y-8.5
G1 F2400 X-6.452 Y-8.5 E919.41751
G0 F18000 X-6.713 Y-8
G1 F2400 X-3.188 Y-8 E919.56407
G0 F18000 X-3.188 Y-7.5
G1 F2400 X-7.097 Y-7.5 E919.72658
G0 F18000 X-7.48 Y-6.999
G1 F2400 X-3.188 Y-7 E919.90502
G0 F18000 X-3.188 Y-6.5
G1 F2400 X-7.863 Y-6.499 E920.09939
G0 F18000 X-8.321 Y-5.999
G1 F2400 X-3.188 Y-6 E920.31279
G0 F18000 X-3.188 Y-5.5
G1 F2400 X-8.974 Y-5.499 E920.55335
G0 F18000 X-9.626 Y-4.999
G1 F2400 X-3.188 Y-5 E920.82101
G0 F18000 X-3.188 Y-4.5
G1 F2400 X-10.385 Y-4.499 E921.12023
G0 F18000 X-11.592 Y-3.999
G1 F2400 X-3.188 Y-4 E921.46962
G0 F18000 X-3.188 Y-3.5
G1 F2400 X-13.466 Y-3.499 E921.89693
G0 F18000 X-13.466 Y3.5
G0 X-13.466 Y3.5
G1 F2400 X-3.189 Y3.5 E922.3242
G0 F18000 X-3.189 Y3
G1 F2400 X-26.809 Y3 E923.30621
G0 F18000 X-26.809 Y2.5
G1 F2400 X-3.189 Y2.5 E924.28821
G0 F18000 X-3.189 Y2
G1 F2400 X-26.809 Y2 E925.27022
G0 F18000 X-26.809 Y1.5
G1 F2400 X-3.189 Y1.5 E926.25222
G0 F18000 X-3.189 Y1
G1 F2400 X-26.809 Y1 E927.23423
G0 F18000 X-26.809 Y0.5
G1 F2400 X-3.189 Y0.5 E928.21623
G0 F18000 X-3.188 Y0
G1 F2400 X-26.809 Y0 E929.19828
G0 F18000 X-26.809 Y-0.499
G1 F2400 X-3.188 Y-0.499 E930.18033
G0 F18000 X-3.188 Y-0.999
G1 F2400 X-26.809 Y-0.999 E931.16237
G0 F18000 X-26.809 Y-1.499
G1 F2400 X-3.188 Y-1.499 E932.14442
G0 F18000 X-3.188 Y-1.999
G1 F2400 X-26.809 Y-1.999 E933.12647
