; Generated with MatterSlice 1.0
; filamentDiameter = 1.75
; extrusionWidth = 0.5
; firstLayerExtrusionWidth = 0.4
; layerThickness = 0.1
; firstLayerThickness = 0.3
; automatic settings before start_gcode
G21 ; set units to millimeters
M107 ; fan off
T0 ; set the active extruder to 0
; settings from start_gcode
M104 S190
M190 S60
M109 S190
G28
; automatic settings after start_gcode
T0 ; set the active extruder to 0
G90 ; use absolute coordinates
G92 E0 ; reset the expected extruder position
M82 ; use absolute distance for extrusion
; Layer count: 238
; Layer Change GCode
; LAYER:0
G4 P0
M107
G0 F18000 X27.686 Y-28.438 Z0.6
; TYPE:SKIRT
G1 Z0.3
G1 F6600 E0
G1 F720 X29.043 Y-27.875 E0.0733
G1 X30.212 Y-26.98 E0.14675
G1 X31.095 Y-25.825 E0.21928
G1 X31.661 Y-24.479 E0.29213
G1 X31.827 Y-23.25 E0.354
G1 X31.828 Y-11.999 E0.91532
G1 X31.828 Y23.236 E2.6732
G1 X31.669 Y24.441 E2.73384
G1 X31.113 Y25.8 E2.80709
G1 X30.205 Y26.987 E2.88165
G1 X29.042 Y27.877 E2.95471
G1 X27.686 Y28.439 E3.02795
G1 X26.463 Y28.6 E3.08949
G1 X-6.226 Y28.6 E4.72035
G1 X-26.514 Y28.597 E5.73252
G1 X-27.754 Y28.416 E5.79504
G1 X-29.083 Y27.846 E5.86719
G1 X-30.209 Y26.981 E5.93802
G1 X-31.105 Y25.814 E6.01143
G1 X-31.747 Y24.256 E6.0955
G1 X-31.826 Y19.156 E6.34997
G1 X-31.826 Y-23.234 E8.46481
G1 X-31.666 Y-24.454 E8.5262
G1 X-31.105 Y-25.814 E8.5996
G1 X-30.208 Y-26.98 E8.67299
G1 X-29.043 Y-27.875 E8.74628
G1 X-27.683 Y-28.438 E8.81972
G1 X-26.463 Y-28.599 E8.88111
G1 X26.463 Y-28.599 E11.5216
G1 X27.686 Y-28.438 E11.58314
G0 F18000 X27.582 Y-28.049
G1 F720 X28.842 Y-27.526 E11.65121
G1 X29.927 Y-26.694 E11.71942
G1 X30.746 Y-25.623 E11.78668
G1 X31.271 Y-24.373 E11.85432
G1 X31.427 Y-23.223 E11.91222
G1 X31.428 Y-11.999 E12.47219
G1 X31.428 Y23.21 E14.22878
G1 X31.28 Y24.337 E14.28548
G1 X30.763 Y25.599 E14.35352
G1 X29.92 Y26.702 E14.42278
G1 X28.841 Y27.527 E14.49055
G1 X27.582 Y28.05 E14.55856
G1 X26.437 Y28.2 E14.61618
G1 X-6.226 Y28.2 E16.24574
G1 X-26.485 Y28.197 E17.25647
G1 X-27.644 Y28.028 E17.3149
G1 X-28.879 Y27.498 E17.38195
G1 X-29.923 Y26.696 E17.44763
G1 X-30.756 Y25.612 E17.51583
G1 X-31.348 Y24.174 E17.59342
G1 X-31.426 Y19.153 E17.84395
G1 X-31.426 Y-23.208 E19.95734
G1 X-31.276 Y-24.35 E20.01481
G1 X-30.755 Y-25.612 E20.08292
G1 X-29.923 Y-26.695 E20.15106
G1 X-28.841 Y-27.526 E20.21912
G1 X-27.579 Y-28.049 E20.28728
G1 X-26.437 Y-28.199 E20.34474
G1 X26.437 Y-28.199 E22.98264
G1 X27.582 Y-28.049 E23.04025
G1 F6600 E16.24025
G1 Z0.6
G0 F18000 X-6.237 Y24.8
; TYPE:WALL-OUTER
G1 Z0.3
G1 F6600 E23.14025
G1 F720 X-6.237 Y24.8 E23.14025
G1 X-26.238 Y24.797 E24.1381
G1 X-26.713 Y24.728 E24.16205
G1 X-27.145 Y24.542 E24.18551
G1 X-27.499 Y24.27 E24.20779
G1 X-27.785 Y23.898 E24.2312
G1 X-27.959 Y23.476 E24.25397
G1 X-28.026 Y19.128 E24.47092
G1 X-28.026 Y-22.988 E26.57209
G1 X-27.964 Y-23.464 E26.59604
G1 X-27.785 Y-23.897 E26.61942
G1 X-27.498 Y-24.27 E26.6429
G1 X-27.126 Y-24.556 E26.66631
G1 X-26.689 Y-24.737 E26.68991
G1 X-26.216 Y-24.799 E26.71371
G1 X-6.237 Y-24.799 E27.71046
G1 X-5.764 Y-24.737 E27.73426
G1 X-5.327 Y-24.556 E27.75786
G1 X-4.955 Y-24.27 E27.78127
G1 X-4.668 Y-23.897 E27.80475
G1 X-4.489 Y-23.464 E27.82813
G1 X-4.426 Y-22.988 E27.85208
G1 X-4.426 Y22.989 E30.14588
G1 X-4.489 Y23.464 E30.16979
G1 X-4.668 Y23.898 E30.19321
G1 X-4.974 Y24.286 E30.21786
G1 X-5.348 Y24.566 E30.24117
G1 X-5.788 Y24.741 E30.2648
G1 X-6.237 Y24.8 E30.28739
G0 F18000 X-6.267 Y24.4
; TYPE:WALL-INNER
G1 F720 X-6.267 Y24.4 E30.28739
G1 X-26.208 Y24.397 E31.28225
G1 X-26.605 Y24.339 E31.30227
G1 X-26.94 Y24.196 E31.32044
G1 X-27.215 Y23.984 E31.33776
G1 X-27.433 Y23.699 E31.35566
G1 X-27.56 Y23.393 E31.37219
G1 X-27.626 Y19.128 E31.585
G1 X-27.626 Y-22.959 E33.68473
G1 X-27.573 Y-23.36 E33.70491
G1 X-27.434 Y-23.698 E33.72314
G1 X-27.213 Y-23.985 E33.74121
G1 X-26.924 Y-24.207 E33.7594
G1 X-26.588 Y-24.346 E33.77754
G1 X-26.187 Y-24.399 E33.79772
G1 X-6.266 Y-24.399 E34.79158
G1 X-5.865 Y-24.346 E34.81176
G1 X-5.529 Y-24.207 E34.8299
G1 X-5.24 Y-23.985 E34.84808
G1 X-5.019 Y-23.698 E34.86615
G1 X-4.88 Y-23.36 E34.88439
G1 X-4.826 Y-22.958 E34.90462
G1 X-4.826 Y22.958 E37.19538
G1 X-4.88 Y23.36 E37.21562
G1 X-5.018 Y23.697 E37.23378
G1 X-5.256 Y23.998 E37.25293
G1 X-5.545 Y24.214 E37.27093
G1 X-5.885 Y24.349 E37.28918
G1 X-6.267 Y24.4 E37.30841
G0 F18000 X-16.352 Y21.497
G0 X-16.352 Y21.497
G0 X-16.311 Y21.201
; TYPE:WALL-OUTER
G1 F720 X-16.311 Y21.201 E37.30841
G1 X-14.186 Y20.943 E37.4152
G1 X-12.199 Y20.145 E37.52203
G1 X-10.487 Y18.859 E37.62885
G1 X-9.166 Y17.174 E37.73567
G1 X-8.327 Y15.204 E37.8425
G1 X-8.025 Y13.084 E37.94933
G1 X-8.283 Y10.959 E38.05613
G1 X-9.081 Y8.972 E38.16296
G1 X-10.368 Y7.26 E38.26981
G1 X-12.052 Y5.939 E38.37659
G1 X-14.022 Y5.1 E38.48342
G1 X-16.142 Y4.798 E38.59025
G1 X-18.267 Y5.056 E38.69705
G1 X-20.254 Y5.855 E38.8039
G1 X-21.966 Y7.141 E38.91072
G1 X-23.287 Y8.826 E39.01754
G1 X-24.126 Y10.796 E39.12437
G1 X-24.428 Y12.915 E39.23115
G1 X-24.17 Y15.041 E39.338
G1 X-23.372 Y17.027 E39.44478
G1 X-22.085 Y18.739 E39.55163
G1 X-20.401 Y20.06 E39.65841
G1 X-18.431 Y20.899 E39.76524
G1 X-16.311 Y21.201 E39.87207
G0 F18000 X-16.315 Y21.604
; TYPE:WALL-INNER
G1 F720 X-16.315 Y21.604 E39.87207
G1 X-14.085 Y21.334 E39.98414
G1 X-12.001 Y20.496 E40.0962
G1 X-10.204 Y19.147 E40.20831
G1 X-8.819 Y17.379 E40.32035
G1 X-7.938 Y15.313 E40.43241
G1 X-7.622 Y13.088 E40.54453
G1 X-7.892 Y10.858 E40.65659
G1 X-8.73 Y8.774 E40.76866
G1 X-10.08 Y6.977 E40.88079
G1 X-11.847 Y5.592 E40.9928
G1 X-13.913 Y4.711 E41.10485
G1 X-16.138 Y4.395 E41.21697
G1 X-18.368 Y4.665 E41.32904
G1 X-20.452 Y5.504 E41.44112
G1 X-22.249 Y6.853 E41.55322
G1 X-23.634 Y8.621 E41.66527
G1 X-24.515 Y10.687 E41.77733
G1 X-24.831 Y12.911 E41.8894
G1 X-24.561 Y15.142 E42.00151
G1 X-23.723 Y17.225 E42.11353
G1 X-22.373 Y19.022 E42.22566
G1 X-20.606 Y20.407 E42.33767
G1 X-18.54 Y21.288 E42.44972
G1 X-16.315 Y21.604 E42.56184
G1 F6600 E35.76184
G1 Z0.6
G0 F18000 X-16.314 Y21.601
G0 X-16.315 Y21.602
G0 X-18.538 Y21.286
G0 X-20.604 Y20.405
G0 X-22.371 Y19.02
G0 X-23.721 Y17.224
G0 X-24.559 Y15.14
G0 X-24.829 Y12.911
G0 X-24.513 Y10.689
G0 X-23.632 Y8.623
G0 X-22.247 Y6.855
G0 X-20.451 Y5.506
G0 X-18.366 Y4.667
G0 X-16.737 Y4.466
G0 X-16.957 Y-4.421
G0 X-16.967 Y-4.821
G0 X-16.961 Y-4.533
G0 X-16.961 Y-4.533
G0 X-16.898 Y-4.825
; TYPE:WALL-OUTER
G1 Z0.3
G1 F6600 E42.66184
G1 F720 X-16.898 Y-4.825 E42.66184
G1 X-14.76 Y-4.93 E42.76864
G1 X-12.721 Y-5.585 E42.87548
G1 X-10.922 Y-6.744 E42.98225
G1 X-9.483 Y-8.331 E43.08913
G1 X-8.505 Y-10.235 E43.19592
G1 X-8.052 Y-12.327 E43.30271
G1 X-8.158 Y-14.466 E43.40955
G1 X-8.812 Y-16.505 E43.51638
G1 X-9.972 Y-18.304 E43.62318
G1 X-11.558 Y-19.743 E43.73002
G1 X-13.462 Y-20.721 E43.83681
G1 X-15.555 Y-21.173 E43.94363
G1 X-17.693 Y-21.068 E44.05043
G1 X-19.732 Y-20.414 E44.15726
G1 X-21.531 Y-19.254 E44.26405
G1 X-22.97 Y-17.668 E44.37089
G1 X-23.948 Y-15.763 E44.47773
G1 X-24.401 Y-13.671 E44.58452
G1 X-24.295 Y-11.532 E44.69136
G1 X-23.641 Y-9.494 E44.79814
G1 X-22.481 Y-7.695 E44.90494
G1 X-20.895 Y-6.256 E45.01178
G1 X-18.991 Y-5.277 E45.11859
G1 X-16.898 Y-4.825 E45.22542
G0 F18000 X-16.931 Y-4.423
; TYPE:WALL-INNER
G1 F720 X-16.931 Y-4.423 E45.22542
G1 X-14.688 Y-4.533 E45.33746
G1 X-12.548 Y-5.22 E45.44959
G1 X-10.661 Y-6.436 E45.56159
G1 X-9.151 Y-8.102 E45.67376
G1 X-8.125 Y-10.099 E45.78577
G1 X-7.65 Y-12.294 E45.89782
G1 X-7.761 Y-14.538 E46.00991
G1 X-8.447 Y-16.678 E46.12202
G1 X-9.665 Y-18.565 E46.23407
G1 X-11.328 Y-20.075 E46.34614
G1 X-13.326 Y-21.101 E46.4582
G1 X-15.522 Y-21.575 E46.57028
G1 X-17.765 Y-21.465 E46.68232
G1 X-19.905 Y-20.779 E46.79443
G1 X-21.792 Y-19.561 E46.90648
G1 X-23.302 Y-17.897 E47.01859
G1 X-24.328 Y-15.899 E47.13064
G1 X-24.803 Y-13.704 E47.24269
G1 X-24.692 Y-11.46 E47.35478
G1 X-24.006 Y-9.321 E47.46685
G1 X-22.788 Y-7.434 E47.5789
G1 X-21.125 Y-5.925 E47.69093
G1 X-19.127 Y-4.897 E47.80303
G1 X-16.931 Y-4.423 E47.91511
G0 F18000 X-18.435 Y-4.399
; TYPE:BOTTOM-FILL
G1 F720 X-27.286 Y-4.399 E48.35669
G0 F18000 X-27.286 Y-4.799
G1 F720 X-19.684 Y-4.799 E48.73596
G0 F18000 X-20.461 Y-5.199
G1 F720 X-27.286 Y-5.199 E49.07646
G0 F18000 X-27.286 Y-5.599
G1 F720 X-21.239 Y-5.599 E49.37814
G0 F18000 X-21.715 Y-5.999
G1 F720 X-27.286 Y-5.999 E49.65608
G0 F18000 X-27.286 Y-6.399
G1 F720 X-22.156 Y-6.399 E49.91202
G0 F18000 X-22.596 Y-6.799
G1 F720 X-27.286 Y-6.799 E50.146
G0 F18000 X-27.286 Y-7.199
G1 F720 X-23.037 Y-7.199 E50.35799
G0 F18000 X-23.3 Y-7.599
G1 F720 X-27.286 Y-7.599 E50.55685
G0 F18000 X-27.286 Y-7.999
G1 F720 X-23.559 Y-7.999 E50.74279
G0 F18000 X-23.817 Y-8.399
G1 F720 X-27.286 Y-8.399 E50.91586
G0 F18000 X-27.286 Y-8.799
G1 F720 X-24.075 Y-8.799 E51.07606
G0 F18000 X-24.325 Y-9.199
G1 F720 X-27.286 Y-9.199 E51.22378
G0 F18000 X-27.286 Y-9.599
G1 F720 X-24.453 Y-9.599 E51.36512
G0 F18000 X-24.581 Y-9.999
G1 F720 X-27.286 Y-9.999 E51.50007
G0 F18000 X-27.286 Y-10.399
G1 F720 X-24.709 Y-10.399 E51.62864
G0 F18000 X-24.838 Y-10.799
G1 F720 X-27.286 Y-10.799 E51.75077
G0 F18000 X-27.286 Y-11.199
G1 F720 X-24.966 Y-11.199 E51.86652
G0 F18000 X-25.039 Y-11.599
G1 F720 X-27.286 Y-11.599 E51.97862
G0 F18000 X-27.286 Y-11.999
G1 F720 X-25.059 Y-11.999 E52.08972
G0 F18000 X-25.079 Y-12.399
G1 F720 X-27.286 Y-12.399 E52.19983
G0 F18000 X-27.286 Y-12.799
G1 F720 X-25.099 Y-12.799 E52.30894
G0 F18000 X-25.119 Y-13.199
G1 F720 X-27.286 Y-13.199 E52.41705
G0 F18000 X-27.286 Y-13.599
G1 F720 X-25.138 Y-13.599 E52.52422
G0 F18000 X-25.087 Y-13.999
G1 F720 X-27.286 Y-13.999 E52.63393
G0 F18000 X-27.286 Y-14.399
G1 F720 X-25 Y-14.399 E52.74798
G0 F18000 X-24.914 Y-14.799
G1 F720 X-27.286 Y-14.799 E52.86632
G0 F18000 X-27.286 Y-15.199
G1 F720 X-24.827 Y-15.199 E52.989
G0 F18000 X-24.74 Y-15.599
G1 F720 X-27.286 Y-15.599 E53.11602
G0 F18000 X-27.286 Y-15.999
G1 F720 X-24.654 Y-15.999 E53.24733
G0 F18000 X-24.454 Y-16.4
G1 F720 X-27.286 Y-16.4 E53.38862
G0 F18000 X-27.286 Y-16.8
G1 F720 X-24.249 Y-16.8 E53.54013
G0 F18000 X-24.043 Y-17.2
G1 F720 X-27.286 Y-17.2 E53.70193
G0 F18000 X-27.286 Y-17.6
G1 F720 X-23.838 Y-17.6 E53.87395
G0 F18000 X-23.633 Y-18
G1 F720 X-27.286 Y-18 E54.0562
G0 F18000 X-27.286 Y-18.4
G1 F720 X-23.306 Y-18.4 E54.25476
G0 F18000 X-22.943 Y-18.8
G1 F720 X-27.286 Y-18.8 E54.47143
G0 F18000 X-27.286 Y-19.2
G1 F720 X-22.58 Y-19.2 E54.70622
G0 F18000 X-22.217 Y-19.6
G1 F720 X-27.286 Y-19.6 E54.95911
G0 F18000 X-27.286 Y-20
G1 F720 X-21.739 Y-20 E55.23585
G0 F18000 X-21.12 Y-20.4
G1 F720 X-27.286 Y-20.4 E55.54347
G0 F18000 X-27.286 Y-20.8
G1 F720 X-20.5 Y-20.8 E55.88203
G0 F18000 X-19.707 Y-21.2
G1 F720 X-27.286 Y-21.2 E56.26015
G0 F18000 X-27.286 Y-21.6
G1 F720 X-18.458 Y-21.6 E56.70058
G0 F18000 X-14.026 Y-21.6
G0 X-14.026 Y-21.6
G1 F720 X-5.165 Y-21.6 E57.14265
G0 F18000 X-5.165 Y-21.2
G1 F720 X-12.772 Y-21.2 E57.52217
G0 F18000 X-11.992 Y-20.8
G1 F720 X-5.165 Y-20.8 E57.86277
G0 F18000 X-5.165 Y-20.4
G1 F720 X-11.213 Y-20.4 E58.16451
G0 F18000 X-10.737 Y-20
G1 F720 X-5.165 Y-20 E58.44249
G0 F18000 X-5.165 Y-19.6
G1 F720 X-10.297 Y-19.6 E58.69853
G0 F18000 X-9.856 Y-19.2
G1 F720 X-5.165 Y-19.2 E58.93256
G0 F18000 X-5.165 Y-18.8
G1 F720 X-9.416 Y-18.8 E59.14465
G0 F18000 X-9.152 Y-18.4
G1 F720 X-5.165 Y-18.4 E59.34356
G0 F18000 X-5.165 Y-18
G1 F720 X-8.894 Y-18 E59.5296
G0 F18000 X-8.636 Y-17.6
G1 F720 X-5.165 Y-17.6 E59.70277
G0 F18000 X-5.165 Y-17.2
G1 F720 X-8.378 Y-17.2 E59.86307
G0 F18000 X-8.127 Y-16.8
G1 F720 X-5.165 Y-16.8 E60.01084
G0 F18000 X-5.165 Y-16.4
G1 F720 X-7.999 Y-16.4 E60.15223
G0 F18000 X-7.871 Y-16
G1 F720 X-5.165 Y-16 E60.28723
G0 F18000 X-5.165 Y-15.6
G1 F720 X-7.743 Y-15.6 E60.41585
G0 F18000 X-7.615 Y-15.2
G1 F720 X-5.165 Y-15.2 E60.53808
G0 F18000 X-5.165 Y-14.8
G1 F720 X-7.487 Y-14.8 E60.65393
G0 F18000 X-7.413 Y-14.4
G1 F720 X-5.165 Y-14.4 E60.76608
G0 F18000 X-5.165 Y-14
G1 F720 X-7.393 Y-14 E60.87724
G0 F18000 X-7.373 Y-13.6
G1 F720 X-5.165 Y-13.6 E60.98739
G0 F18000 X-5.165 Y-13.2
G1 F720 X-7.353 Y-13.2 E61.09655
G0 F18000 X-7.334 Y-12.8
G1 F720 X-5.165 Y-12.8 E61.20476
G0 F18000 X-5.165 Y-12.4
G1 F720 X-7.314 Y-12.4 E61.31198
G0 F18000 X-7.365 Y-12
G1 F720 X-5.165 Y-12 E61.42174
G0 F18000 X-5.165 Y-11.6
G1 F720 X-7.451 Y-11.6 E61.53579
G0 F18000 X-7.538 Y-11.2
G1 F720 X-5.165 Y-11.2 E61.65418
G0 F18000 X-5.165 Y-10.8
G1 F720 X-7.625 Y-10.8 E61.77691
G0 F18000 X-7.711 Y-10.4
G1 F720 X-5.165 Y-10.4 E61.90393
G0 F18000 X-5.165 Y-10
G1 F720 X-7.798 Y-10 E62.03529
G0 F18000 X-7.997 Y-9.6
G1 F720 X-5.165 Y-9.6 E62.17658
G0 F18000 X-5.165 Y-9.2
G1 F720 X-8.203 Y-9.2 E62.32814
G0 F18000 X-8.408 Y-8.8
G1 F720 X-5.165 Y-8.8 E62.48994
G0 F18000 X-5.165 Y-8.4
G1 F720 X-8.614 Y-8.4 E62.66201
G0 F18000 X-8.82 Y-7.999
G1 F720 X-5.165 Y-8 E62.84436
G0 F18000 X-5.165 Y-7.6
G1 F720 X-9.145 Y-7.599 E63.04292
G0 F18000 X-9.508 Y-7.199
G1 F720 X-5.165 Y-7.2 E63.25959
G0 F18000 X-5.165 Y-6.8
G1 F720 X-9.871 Y-6.799 E63.49438
G0 F18000 X-10.233 Y-6.399
G1 F720 X-5.165 Y-6.4 E63.74722
G0 F18000 X-5.165 Y-6
G1 F720 X-10.708 Y-5.999 E64.02376
G0 F18000 X-11.329 Y-5.599
G1 F720 X-5.165 Y-5.6 E64.33128
G0 F18000 X-5.165 Y-5.2
G1 F720 X-11.95 Y-5.199 E64.66979
G0 F18000 X-12.743 Y-4.799
G1 F720 X-5.165 Y-4.8 E65.04786
G0 F18000 X-5.165 Y-4.4
G1 F720 X-13.99 Y-4.399 E65.48814
G0 F18000 X-13.774 Y4.4
G0 X-13.774 Y4.4
G1 F720 X-5.166 Y4.4 E65.91759
G0 F18000 X-5.166 Y4.8
G1 F720 X-12.835 Y4.8 E66.3002
G0 F18000 X-11.897 Y5.2
G1 F720 X-5.166 Y5.2 E66.63601
G0 F18000 X-5.166 Y5.6
G1 F720 X-11.284 Y5.6 E66.94124
G0 F18000 X-10.774 Y6
G1 F720 X-5.166 Y6 E67.22102
G0 F18000 X-5.166 Y6.4
G1 F720 X-10.264 Y6.4 E67.47536
G0 F18000 X-9.788 Y6.8
G1 F720 X-5.166 Y6.8 E67.70596
G0 F18000 X-5.166 Y7.2
G1 F720 X-9.487 Y7.2 E67.92153
G0 F18000 X-9.187 Y7.6
G1 F720 X-5.165 Y7.6 E68.12219
G0 F18000 X-5.165 Y8
G1 F720 X-8.886 Y8 E68.30783
G0 F18000 X-8.586 Y8.4
G1 F720 X-5.165 Y8.4 E68.47851
G0 F18000 X-5.165 Y8.8
G1 F720 X-8.354 Y8.8 E68.63761
G0 F18000 X-8.193 Y9.2
G1 F720 X-5.165 Y9.2 E68.78867
G0 F18000 X-5.165 Y9.6
G1 F720 X-8.031 Y9.6 E68.93166
G0 F18000 X-7.87 Y10
G1 F720 X-5.165 Y10 E69.06661
G0 F18000 X-5.165 Y10.4
G1 F720 X-7.709 Y10.4 E69.19353
G0 F18000 X-7.556 Y10.8
G1 F720 X-5.165 Y10.8 E69.31282
G0 F18000 X-5.165 Y11.2
G1 F720 X-7.507 Y11.2 E69.42966
G0 F18000 X-7.459 Y11.6
G1 F720 X-5.165 Y11.6 E69.54411
G0 F18000 X-5.165 Y12
G1 F720 X-7.411 Y12 E69.65616
G0 F18000 X-7.363 Y12.4
G1 F720 X-5.165 Y12.4 E69.76582
G0 F18000 X-5.165 Y12.8
G1 F720 X-7.315 Y12.8 E69.87309
G0 F18000 X-7.294 Y13.2
G1 F720 X-5.165 Y13.2 E69.9793
G0 F18000 X-5.165 Y13.6
G1 F720 X-7.351 Y13.6 E70.08836
G0 F18000 X-7.407 Y14
G1 F720 X-5.165 Y14 E70.20022
G0 F18000 X-5.165 Y14.4
G1 F720 X-7.464 Y14.4 E70.31491
G0 F18000 X-7.521 Y14.8
G1 F720 X-5.165 Y14.8 E70.43246
G0 F18000 X-5.165 Y15.2
G1 F720 X-7.577 Y15.2 E70.55279
G0 F18000 X-7.69 Y15.6
G1 F720 X-5.165 Y15.6 E70.67876
G0 F18000 X-5.165 Y16
G1 F720 X-7.861 Y16 E70.81327
G0 F18000 X-8.031 Y16.4
G1 F720 X-5.165 Y16.4 E70.95625
G0 F18000 X-5.165 Y16.8
G1 F720 X-8.202 Y16.8 E71.10777
G0 F18000 X-8.372 Y17.2
G1 F720 X-5.165 Y17.2 E71.26777
G0 F18000 X-5.165 Y17.6
G1 F720 X-8.559 Y17.6 E71.4371
G0 F18000 X-8.873 Y18
G1 F720 X-5.165 Y18 E71.62209
G0 F18000 X-5.165 Y18.4
G1 F720 X-9.186 Y18.4 E71.8227
G0 F18000 X-9.5 Y18.8
G1 F720 X-5.165 Y18.8 E72.03897
G0 F18000 X-5.165 Y19.2
G1 F720 X-9.813 Y19.2 E72.27086
G0 F18000 X-10.241 Y19.6
G1 F720 X-5.165 Y19.6 E72.5241
G0 F18000 X-5.165 Y20
G1 F720 X-10.774 Y20 E72.80394
G0 F18000 X-11.306 Y20.4
G1 F720 X-5.165 Y20.4 E73.11031
G0 F18000 X-5.165 Y20.8
G1 F720 X-11.846 Y20.8 E73.44363
G0 F18000 X-12.84 Y21.2
G1 F720 X-5.165 Y21.2 E73.82654
G0 F18000 X-5.165 Y21.6
G1 F720 X-13.834 Y21.6 E74.25903
G0 F18000 X-18.675 Y21.6
G1 F720 X-27.248 Y21.6 E74.68674
G0 F18000 X-27.254 Y21.2
G1 F720 X-19.613 Y21.2 E75.06795
G0 F18000 X-20.551 Y20.8
G1 F720 X-27.26 Y20.8 E75.40267
G0 F18000 X-27.266 Y20.4
G1 F720 X-21.166 Y20.4 E75.707
G0 F18000 X-21.676 Y20
G1 F720 X-27.273 Y20 E75.98623
G0 F18000 X-27.279 Y19.6
G1 F720 X-22.186 Y19.6 E76.24032
G0 F18000 X-22.664 Y19.2
G1 F720 X-27.285 Y19.2 E76.47087
G0 F18000 X-27.286 Y18.8
G1 F720 X-22.964 Y18.8 E76.68649
G0 F18000 X-23.265 Y18.4
G1 F720 X-27.286 Y18.4 E76.8871
G0 F18000 X-27.286 Y18
G1 F720 X-23.566 Y18 E77.07269
G0 F18000 X-23.866 Y17.6
G1 F720 X-27.286 Y17.6 E77.24332
G0 F18000 X-27.286 Y17.2
G1 F720 X-24.099 Y17.2 E77.40232
G0 F18000 X-24.26 Y16.8
G1 F720 X-27.286 Y16.8 E77.55328
G0 F18000 X-27.286 Y16.4
G1 F720 X-24.421 Y16.4 E77.69622
G0 F18000 X-24.582 Y16
G1 F720 X-27.286 Y16 E77.83112
G0 F18000 X-27.286 Y15.6
G1 F720 X-24.743 Y15.6 E77.95799
G0 F18000 X-24.896 Y15.2
G1 F720 X-27.286 Y15.2 E78.07723
G0 F18000 X-27.286 Y14.8
G1 F720 X-24.944 Y14.8 E78.19407
G0 F18000 X-24.993 Y14.4
G1 F720 X-27.286 Y14.4 E78.30847
G0 F18000 X-27.286 Y14
G1 F720 X-25.041 Y14 E78.42048
G0 F18000 X-25.089 Y13.6
G1 F720 X-27.286 Y13.6 E78.53009
G0 F18000 X-27.286 Y13.2
G1 F720 X-25.137 Y13.2 E78.6373
G0 F18000 X-25.158 Y12.8
G1 F720 X-27.286 Y12.8 E78.74347
G0 F18000 X-27.286 Y12.4
G1 F720 X-25.102 Y12.4 E78.85243
G0 F18000 X-25.045 Y12
G1 F720 X-27.286 Y12 E78.96423
G0 F18000 X-27.286 Y11.6
G1 F720 X-24.988 Y11.6 E79.07888
G0 F18000 X-24.932 Y11.2
G1 F720 X-27.286 Y11.2 E79.19632
G0 F18000 X-27.286 Y10.8
G1 F720 X-24.875 Y10.8 E79.3166
G0 F18000 X-24.762 Y10.4
G1 F720 X-27.286 Y10.4 E79.44253
G0 F18000 X-27.286 Y10
G1 F720 X-24.592 Y10 E79.57693
G0 F18000 X-24.421 Y9.6
G1 F720 X-27.286 Y9.6 E79.71987
G0 F18000 X-27.286 Y9.2
G1 F720 X-24.251 Y9.2 E79.87128
G0 F18000 X-24.08 Y8.8
G1 F720 X-27.286 Y8.8 E80.03123
G0 F18000 X-27.286 Y8.4
G1 F720 X-23.894 Y8.4 E80.20046
G0 F18000 X-23.58 Y8
G1 F720 X-27.286 Y8 E80.38535
G0 F18000 X-27.286 Y7.6
G1 F720 X-23.267 Y7.6 E80.58586
G0 F18000 X-22.953 Y7.2
G1 F720 X-27.286 Y7.2 E80.80204
G0 F18000 X-27.286 Y6.8
G1 F720 X-22.64 Y6.8 E81.03382
G0 F18000 X-22.212 Y6.4
G1 F720 X-27.286 Y6.4 E81.28697
G0 F18000 X-27.286 Y6
G1 F720 X-21.679 Y6 E81.5667
G0 F18000 X-21.147 Y5.6
G1 F720 X-27.286 Y5.6 E81.87298
G0 F18000 X-27.286 Y5.2
G1 F720 X-20.609 Y5.2 E82.2061
G0 F18000 X-19.616 Y4.8
G1 F720 X-27.286 Y4.8 E82.58875
G0 F18000 X-27.286 Y4.4
G1 F720 X-18.623 Y4.4 E83.02095
G0 F18000 X-27.286 Y4
G0 X-27.286 Y4
G1 F720 X-5.166 Y4 E84.12452
G0 F18000 X-5.166 Y3.6
G1 F720 X-27.286 Y3.6 E85.22809
G0 F18000 X-27.286 Y3.2
G1 F720 X-5.166 Y3.2 E86.33167
G0 F18000 X-5.166 Y2.8
G1 F720 X-27.286 Y2.8 E87.43524
G0 F18000 X-27.286 Y2.4
G1 F720 X-5.166 Y2.4 E88.53881
G0 F18000 X-5.166 Y2
G1 F720 X-27.286 Y2 E89.64238
G0 F18000 X-27.286 Y1.6
G1 F720 X-5.166 Y1.6 E90.74595
G0 F18000 X-5.166 Y1.2
G1 F720 X-27.286 Y1.2 E91.84952
G0 F18000 X-27.286 Y0.8
G1 F720 X-5.166 Y0.8 E92.95309
G0 F18000 X-5.166 Y0.4
G1 F720 X-27.286 Y0.4 E94.05666
G0 F18000 X-27.286 Y0
G1 F720 X-5.166 Y0 E95.16024
G0 F18000 X-5.165 Y-0.399
G1 F720 X-27.286 Y-0.399 E96.26386
G0 F18000 X-27.286 Y-0.799
G1 F720 X-5.165 Y-0.799 E97.36748
G0 F18000 X-5.165 Y-1.199
G1 F720 X-27.286 Y-1.199 E98.4711
G0 F18000 X-27.286 Y-1.599
G1 F720 X-5.165 Y-1.599 E99.57472
G0 F18000 X-5.165 Y-1.999
G1 F720 X-27.286 Y-1.999 E100.67834
G0 F18000 X-27.286 Y-2.399
G1 F720 X-5.165 Y-2.399 E101.78196
G0 F18000 X-5.165 Y-2.799
G1 F720 X-27.286 Y-2.799 E102.88558
G0 F18000 X-27.286 Y-3.199
G1 F720 X-5.165 Y-3.199 E103.98921
G0 F18000 X-5.165 Y-3.599
G1 F720 X-27.286 Y-3.599 E105.09283
G0 F18000 X-27.286 Y-3.999
G1 F720 X-5.165 Y-3.999 E106.19645
G0 F18000 X-5.165 Y-22
G0 X-5.165 Y-22
G1 F720 X-27.286 Y-22 E107.30007
G0 F18000 X-27.286 Y-22.4
G1 F720 X-5.165 Y-22.4 E108.40369
G0 F18000 X-5.165 Y-22.8
G1 F720 X-27.286 Y-22.8 E109.50731
G0 F18000 X-27.251 Y-23.2
G1 F720 X-5.2 Y-23.2 E110.60744
G0 F18000 X-5.372 Y-23.6
G1 F720 X-27.08 Y-23.6 E111.69046
G0 F18000 X-26.533 Y-24
G1 F720 X-5.919 Y-24 E112.71889
G0 F18000 X-5.165 Y22
G0 X-5.165 Y22
G1 F720 X-27.242 Y22 E113.82032
G0 F18000 X-27.235 Y22.4
G1 F720 X-5.165 Y22.4 E114.9214
G0 F18000 X-5.165 Y22.8
G1 F720 X-27.229 Y22.8 E116.02217
G0 F18000 X-27.223 Y23.2
G1 F720 X-5.2 Y23.2 E117.12091
G0 F18000 X-5.374 Y23.6
G1 F720 X-27.08 Y23.6 E118.20382
G0 F18000 X-26.531 Y24
G1 F720 X-5.928 Y24 E119.23171
G1 F6600 E112.43171
G1 Z0.6
G0 F18000 X26.028 Y12.2
; TYPE:WALL-OUTER
G1 Z0.3
G1 F6600 E119.33171
G1 F720 X26.028 Y12.2 E119.33171
G1 X28.028 Y12.2 E119.43149
G1 X28.028 Y22.989 E119.96976
G1 X27.967 Y23.456 E119.99325
G1 X27.789 Y23.891 E120.0167
G1 X27.494 Y24.276 E120.0409
G1 X27.127 Y24.557 E120.06396
G1 X26.691 Y24.738 E120.08751
G1 X26.217 Y24.8 E120.11136
G1 X6.24 Y24.8 E121.10802
G1 X5.757 Y24.735 E121.13233
G1 X5.33 Y24.558 E121.15539
G1 X4.957 Y24.271 E121.17887
G1 X4.674 Y23.902 E121.20207
G1 X4.494 Y23.472 E121.22533
G1 X4.429 Y22.996 E121.2493
G1 X4.428 Y-22.988 E123.54345
G1 X4.489 Y-23.456 E123.56699
G1 X4.667 Y-23.89 E123.5904
G1 X4.963 Y-24.275 E123.61463
G1 X5.329 Y-24.556 E123.63765
G1 X5.766 Y-24.737 E123.66124
G1 X6.239 Y-24.799 E123.68504
G1 X26.217 Y-24.799 E124.68175
G1 X26.691 Y-24.737 E124.7056
G1 X27.127 Y-24.556 E124.72915
G1 X27.502 Y-24.269 E124.75271
G1 X27.782 Y-23.903 E124.7757
G1 X27.962 Y-23.472 E124.799
G1 X28.027 Y-22.995 E124.82302
G1 X28.028 Y-12.193 E125.36194
G1 X26.028 Y-12.131 E125.46176
G1 X26.028 Y-3.168 E125.90893
G1 X24.028 Y-3.168 E126.00871
G1 X24.028 Y3.2 E126.32641
G1 X26.028 Y3.2 E126.42619
G1 X26.028 Y12.2 E126.8752
G0 F18000 X25.628 Y12.6
; TYPE:WALL-INNER
G1 F720 X25.628 Y12.6 E126.8752
G1 X27.628 Y12.6 E126.97498
G1 X27.628 Y22.96 E127.49185
G1 X27.576 Y23.355 E127.51172
G1 X27.439 Y23.691 E127.52983
G1 X27.209 Y23.991 E127.54869
G1 X26.926 Y24.208 E127.56648
G1 X26.59 Y24.347 E127.58462
G1 X26.188 Y24.4 E127.60485
G1 X6.272 Y24.4 E128.59846
G1 X5.858 Y24.344 E128.6193
G1 X5.532 Y24.209 E128.63691
G1 X5.242 Y23.986 E128.65516
G1 X5.024 Y23.702 E128.67302
G1 X4.884 Y23.368 E128.69109
G1 X4.829 Y22.964 E128.71143
G1 X4.828 Y-22.959 E131.00254
G1 X4.88 Y-23.354 E131.02241
G1 X5.018 Y-23.691 E131.04058
G1 X5.248 Y-23.99 E131.0594
G1 X5.53 Y-24.207 E131.07716
G1 X5.867 Y-24.346 E131.09534
G1 X6.268 Y-24.399 E131.11552
G1 X26.188 Y-24.399 E132.10934
G1 X26.59 Y-24.346 E132.12956
G1 X26.926 Y-24.207 E132.14771
G1 X27.214 Y-23.986 E132.16582
G1 X27.432 Y-23.701 E132.18372
G1 X27.572 Y-23.368 E132.20174
G1 X27.627 Y-22.963 E132.22213
G1 X27.628 Y-12.581 E132.74009
G1 X25.628 Y-12.519 E132.83992
G1 X25.628 Y-3.568 E133.28649
G1 X23.628 Y-3.568 E133.38627
G1 X23.628 Y3.6 E133.74388
G1 X25.628 Y3.6 E133.84366
G1 X25.628 Y12.6 E134.29267
G0 F18000 X25.288 Y12.799
; TYPE:BOTTOM-FILL
G1 F720 X5.168 Y12.8 E135.29646
G0 F18000 X5.168 Y12.4
G1 F720 X25.288 Y12.399 E136.30025
G0 F18000 X25.288 Y11.999
G1 F720 X5.168 Y12 E137.30404
G0 F18000 X5.168 Y11.6
G1 F720 X25.288 Y11.599 E138.30784
G0 F18000 X25.288 Y11.199
G1 F720 X5.168 Y11.2 E139.31163
G0 F18000 X5.168 Y10.8
G1 F720 X25.288 Y10.799 E140.31542
G0 F18000 X25.288 Y10.399
G1 F720 X5.168 Y10.4 E141.31921
G0 F18000 X5.168 Y10
G1 F720 X25.288 Y9.999 E142.323
G0 F18000 X25.288 Y9.599
G1 F720 X5.168 Y9.6 E143.32679
G0 F18000 X5.168 Y9.2
G1 F720 X25.288 Y9.199 E144.33058
G0 F18000 X25.288 Y8.799
G1 F720 X5.168 Y8.8 E145.33437
G0 F18000 X5.168 Y8.4
G1 F720 X25.288 Y8.399 E146.33816
G0 F18000 X25.288 Y7.999
G1 F720 X5.168 Y8 E147.34195
G0 F18000 X5.168 Y7.6
G1 F720 X25.288 Y7.599 E148.34574
G0 F18000 X25.288 Y7.199
G1 F720 X5.168 Y7.2 E149.34954
G0 F18000 X5.168 Y6.8
G1 F720 X25.288 Y6.799 E150.35333
G0 F18000 X25.288 Y6.399
G1 F720 X5.168 Y6.4 E151.35712
G0 F18000 X5.168 Y6
G1 F720 X25.288 Y5.999 E152.36091
G0 F18000 X25.288 Y5.599
G1 F720 X5.168 Y5.6 E153.3647
G0 F18000 X5.168 Y5.2
G1 F720 X25.288 Y5.199 E154.36849
G0 F18000 X25.288 Y4.799
G1 F720 X5.168 Y4.8 E155.37228
G0 F18000 X5.168 Y4.4
G1 F720 X25.288 Y4.399 E156.37607
G0 F18000 X25.288 Y3.999
G1 F720 X5.168 Y3.999 E157.37986
G0 F18000 X5.168 Y3.599
G1 F720 X23.288 Y3.599 E158.28387
G0 F18000 X23.288 Y3.199
G1 F720 X5.168 Y3.199 E159.18788
G0 F18000 X5.168 Y2.799
G1 F720 X23.288 Y2.799 E160.09189
G0 F18000 X23.288 Y2.399
G1 F720 X5.168 Y2.399 E160.9959
G0 F18000 X5.168 Y1.999
G1 F720 X23.288 Y1.999 E161.89991
G0 F18000 X23.288 Y1.599
G1 F720 X5.168 Y1.599 E162.80393
G0 F18000 X5.168 Y1.199
G1 F720 X23.288 Y1.199 E163.70794
G0 F18000 X23.288 Y0.799
G1 F720 X5.168 Y0.799 E164.61195
G0 F18000 X5.168 Y0.399
G1 F720 X23.288 Y0.399 E165.51596
G0 F18000 X23.288 Y0
G1 F720 X5.168 Y0 E166.41997
G0 F18000 X5.168 Y-0.4
G1 F720 X23.288 Y-0.4 E167.32398
G0 F18000 X23.288 Y-0.8
G1 F720 X5.168 Y-0.8 E168.22799
G0 F18000 X5.168 Y-1.2
G1 F720 X23.288 Y-1.2 E169.132
G0 F18000 X23.288 Y-1.6
G1 F720 X5.168 Y-1.6 E170.03601
G0 F18000 X5.168 Y-2
G1 F720 X23.288 Y-2 E170.94002
G0 F18000 X23.288 Y-2.4
G1 F720 X5.168 Y-2.4 E171.84403
G0 F18000 X5.168 Y-2.8
G1 F720 X23.288 Y-2.8 E172.74804
G0 F18000 X23.288 Y-3.2
G1 F720 X5.168 Y-3.2 E173.65205
G0 F18000 X5.168 Y-3.6
G1 F720 X23.288 Y-3.6 E174.55606
G0 F18000 X25.288 Y-4
G1 F720 X5.168 Y-4 E175.55985
G0 F18000 X5.168 Y-4.4
G1 F720 X25.288 Y-4.4 E176.56364
G0 F18000 X25.288 Y-4.8
G1 F720 X5.168 Y-4.8 E177.56743
G0 F18000 X5.168 Y-5.2
G1 F720 X25.288 Y-5.2 E178.57122
G0 F18000 X25.288 Y-5.6
G1 F720 X5.168 Y-5.6 E179.57502
G0 F18000 X5.168 Y-6
G1 F720 X25.288 Y-6 E180.57881
G0 F18000 X25.288 Y-6.4
G1 F720 X5.168 Y-6.4 E181.5826
G0 F18000 X5.168 Y-6.8
G1 F720 X25.288 Y-6.8 E182.58639
G0 F18000 X25.288 Y-7.2
G1 F720 X5.168 Y-7.2 E183.59018
G0 F18000 X5.167 Y-7.6
G1 F720 X25.288 Y-7.6 E184.59402
G0 F18000 X25.288 Y-8
G1 F720 X5.167 Y-8 E185.59786
G0 F18000 X5.167 Y-8.4
G1 F720 X25.288 Y-8.4 E186.6017
G0 F18000 X25.288 Y-8.8
G1 F720 X5.167 Y-8.8 E187.60554
G0 F18000 X5.167 Y-9.2
G1 F720 X25.288 Y-9.2 E188.60938
G0 F18000 X25.288 Y-9.6
G1 F720 X5.167 Y-9.6 E189.61322
G0 F18000 X5.167 Y-10
G1 F720 X25.288 Y-10 E190.61706
G0 F18000 X25.288 Y-10.4
G1 F720 X5.167 Y-10.4 E191.62091
G0 F18000 X5.167 Y-10.8
G1 F720 X25.288 Y-10.8 E192.62475
G0 F18000 X25.288 Y-11.2
G1 F720 X5.167 Y-11.2 E193.62859
G0 F18000 X5.167 Y-11.6
G1 F720 X25.288 Y-11.6 E194.63243
G0 F18000 X25.288 Y-12
G1 F720 X5.167 Y-12 E195.63627
G0 F18000 X5.167 Y-12.4
G1 F720 X25.288 Y-12.4 E196.64011
G0 F18000 X25.288 Y-12.8
G1 F720 X5.167 Y-12.8 E197.64395
G0 F18000 X5.167 Y-13.2
G1 F720 X27.288 Y-13.2 E198.74757
G0 F18000 X27.288 Y-13.6
G1 F720 X5.167 Y-13.6 E199.85119
G0 F18000 X5.167 Y-14
G1 F720 X27.288 Y-14 E200.95481
G0 F18000 X27.288 Y-14.4
G1 F720 X5.167 Y-14.4 E202.05843
G0 F18000 X5.167 Y-14.8
G1 F720 X27.288 Y-14.8 E203.16206
G0 F18000 X27.288 Y-15.2
G1 F720 X5.167 Y-15.2 E204.26568
G0 F18000 X5.167 Y-15.6
G1 F720 X27.288 Y-15.6 E205.3693
G0 F18000 X27.288 Y-16
G1 F720 X5.167 Y-16 E206.47292
G0 F18000 X5.167 Y-16.4
G1 F720 X27.288 Y-16.4 E207.57654
G0 F18000 X27.288 Y-16.8
G1 F720 X5.167 Y-16.8 E208.68016
G0 F18000 X5.167 Y-17.2
G1 F720 X27.288 Y-17.2 E209.78378
G0 F18000 X27.288 Y-17.6
G1 F720 X5.167 Y-17.6 E210.8874
G0 F18000 X5.167 Y-18
G1 F720 X27.287 Y-18 E211.99098
G0 F18000 X27.287 Y-18.4
G1 F720 X5.167 Y-18.4 E213.09455
G0 F18000 X5.167 Y-18.8
G1 F720 X27.287 Y-18.8 E214.19812
G0 F18000 X27.287 Y-19.2
G1 F720 X5.167 Y-19.2 E215.30169
G0 F18000 X5.167 Y-19.6
G1 F720 X27.287 Y-19.6 E216.40526
G0 F18000 X27.287 Y-20
G1 F720 X5.167 Y-20 E217.50883
G0 F18000 X5.167 Y-20.4
G1 F720 X27.287 Y-20.4 E218.6124
G0 F18000 X27.287 Y-20.8
G1 F720 X5.167 Y-20.8 E219.71597
G0 F18000 X5.167 Y-21.2
G1 F720 X27.287 Y-21.2 E220.81955
G0 F18000 X27.287 Y-21.6
G1 F720 X5.167 Y-21.6 E221.92312
G0 F18000 X5.167 Y-22
G1 F720 X27.287 Y-22 E223.02669
G0 F18000 X27.287 Y-22.4
G1 F720 X5.167 Y-22.4 E224.13026
G0 F18000 X5.167 Y-22.8
G1 F720 X27.287 Y-22.8 E225.23383
G0 F18000 X27.251 Y-23.2
G1 F720 X5.202 Y-23.2 E226.33386
G0 F18000 X5.376 Y-23.6
G1 F720 X27.081 Y-23.6 E227.41673
G0 F18000 X26.536 Y-24
G1 F720 X5.92 Y-24 E228.44526
G0 F18000 X5.168 Y13.2
G0 X5.168 Y13.2
G1 F720 X27.288 Y13.199 E229.54883
G0 F18000 X27.288 Y13.599
G1 F720 X5.168 Y13.6 E230.65241
G0 F18000 X5.168 Y14
G1 F720 X27.288 Y13.999 E231.75598
G0 F18000 X27.288 Y14.399
G1 F720 X5.168 Y14.4 E232.85955
G0 F18000 X5.168 Y14.8
G1 F720 X27.288 Y14.799 E233.96312
G0 F18000 X27.288 Y15.199
G1 F720 X5.168 Y15.2 E235.06669
G0 F18000 X5.168 Y15.6
G1 F720 X27.288 Y15.599 E236.17026
G0 F18000 X27.288 Y15.999
G1 F720 X5.168 Y16 E237.27383
G0 F18000 X5.168 Y16.4
G1 F720 X27.288 Y16.4 E238.3774
G0 F18000 X27.288 Y16.8
G1 F720 X5.168 Y16.8 E239.48098
G0 F18000 X5.168 Y17.2
G1 F720 X27.288 Y17.2 E240.58455
G0 F18000 X27.288 Y17.6
G1 F720 X5.168 Y17.6 E241.68812
G0 F18000 X5.168 Y18
G1 F720 X27.288 Y18 E242.79169
G0 F18000 X27.288 Y18.4
G1 F720 X5.168 Y18.4 E243.89526
G0 F18000 X5.168 Y18.8
G1 F720 X27.288 Y18.8 E244.99883
G0 F18000 X27.288 Y19.2
G1 F720 X5.168 Y19.2 E246.1024
G0 F18000 X5.168 Y19.6
G1 F720 X27.288 Y19.6 E247.20597
G0 F18000 X27.288 Y20
G1 F720 X5.168 Y20 E248.30955
G0 F18000 X5.168 Y20.4
G1 F720 X27.288 Y20.4 E249.41312
G0 F18000 X27.288 Y20.8
G1 F720 X5.168 Y20.8 E250.51669
G0 F18000 X5.168 Y21.2
G1 F720 X27.288 Y21.2 E251.62026
G0 F18000 X27.288 Y21.6
G1 F720 X5.168 Y21.6 E252.72383
G0 F18000 X5.168 Y22
G1 F720 X27.288 Y22 E253.8274
G0 F18000 X27.288 Y22.4
G1 F720 X5.168 Y22.4 E254.93097
G0 F18000 X5.168 Y22.8
G1 F720 X27.288 Y22.8 E256.03454
G0 F18000 X27.253 Y23.2
G1 F720 X5.204 Y23.2 E257.13457
G0 F18000 X5.373 Y23.6
G1 F720 X27.081 Y23.6 E258.21759
G0 F18000 X26.538 Y24
G1 F720 X5.918 Y24 E259.24633
; Layer Change GCode
; LAYER:1
G1 F6600 E252.44633
G1 Z0.6
G0 F18000 X-6.244 Y24.75 Z0.7
G0 X-6.278 Y24.25
; TYPE:WALL-INNER
G1 Z0.4
G1 F6600 E259.34633
G1 F2400 X-6.278 Y24.25 E259.34633
G1 X-26.235 Y24.242 E259.76118
G1 X-26.55 Y24.201 E259.76779
G1 X-26.848 Y24.077 E259.7745
G1 X-27.106 Y23.879 E259.78126
G1 X-27.305 Y23.62 E259.78805
G1 X-27.41 Y23.364 E259.7938
G1 X-27.476 Y19.503 E259.87407
G1 X-27.476 Y-22.947 E260.7565
G1 X-27.426 Y-23.324 E260.76441
G1 X-27.305 Y-23.619 E260.77104
G1 X-27.106 Y-23.878 E260.77783
G1 X-26.848 Y-24.076 E260.78459
G1 X-26.55 Y-24.2 E260.7913
G1 X-26.175 Y-24.249 E260.79916
G1 X-6.278 Y-24.249 E261.21277
G1 X-5.903 Y-24.2 E261.22063
G1 X-5.605 Y-24.076 E261.22734
G1 X-5.347 Y-23.878 E261.2341
G1 X-5.148 Y-23.619 E261.24089
G1 X-5.025 Y-23.321 E261.24759
G1 X-4.976 Y-22.953 E261.25531
G1 X-4.976 Y22.953 E262.20959
G1 X-5.025 Y23.321 E262.2173
G1 X-5.148 Y23.62 E262.22402
G1 X-5.347 Y23.879 E262.23081
G1 X-5.605 Y24.077 E262.23757
G1 X-5.903 Y24.201 E262.24428
G1 X-6.278 Y24.25 E262.25215
G0 F18000 X-6.244 Y24.75
; TYPE:WALL-OUTER
G1 F2100 X-6.244 Y24.75 E262.25215
G1 X-26.269 Y24.742 E262.66842
G1 X-26.679 Y24.688 E262.67701
G1 X-27.103 Y24.513 E262.68655
G1 X-27.463 Y24.236 E262.69599
G1 X-27.74 Y23.875 E262.70545
G1 X-27.909 Y23.466 E262.71465
G1 X-27.976 Y19.503 E262.79704
G1 X-27.976 Y-22.981 E263.68018
G1 X-27.914 Y-23.453 E263.69008
G1 X-27.741 Y-23.874 E263.69954
G1 X-27.463 Y-24.235 E263.70901
G1 X-27.103 Y-24.512 E263.71845
G1 X-26.679 Y-24.687 E263.72799
G1 X-26.209 Y-24.749 E263.73784
G1 X-6.244 Y-24.749 E264.15287
G1 X-5.774 Y-24.687 E264.16272
G1 X-5.35 Y-24.512 E264.17226
G1 X-4.99 Y-24.235 E264.1817
G1 X-4.712 Y-23.874 E264.19117
G1 X-4.539 Y-23.453 E264.20063
G1 X-4.476 Y-22.981 E264.21053
G1 X-4.476 Y22.982 E265.16599
G1 X-4.539 Y23.453 E265.17587
G1 X-4.713 Y23.875 E265.18536
G1 X-4.99 Y24.236 E265.19482
G1 X-5.35 Y24.513 E265.20426
G1 X-5.774 Y24.688 E265.2138
G1 X-6.244 Y24.75 E265.22365
G0 F18000 X-6.27 Y24.4
G0 X-10.099 Y19.255
G0 X-10.099 Y19.255
; TYPE:WALL-INNER
G1 F2400 X-10.099 Y19.255 E265.22365
G1 X-8.689 Y17.456 E265.27116
G1 X-7.792 Y15.353 E265.31869
G1 X-7.471 Y13.09 E265.3662
G1 X-7.745 Y10.821 E265.41371
G1 X-8.598 Y8.7 E265.46124
G1 X-9.972 Y6.872 E265.50877
G1 X-11.77 Y5.462 E265.55627
G1 X-13.873 Y4.565 E265.6038
G1 X-16.136 Y4.244 E265.65131
G1 X-18.405 Y4.518 E265.69882
G1 X-20.526 Y5.372 E265.74635
G1 X-22.354 Y6.745 E265.79388
G1 X-23.764 Y8.544 E265.84139
G1 X-24.661 Y10.647 E265.88892
G1 X-24.982 Y12.909 E265.93641
G1 X-24.708 Y15.179 E265.98394
G1 X-23.855 Y17.3 E266.03146
G1 X-22.481 Y19.127 E266.07898
G1 X-20.683 Y20.537 E266.12648
G1 X-18.58 Y21.434 E266.17401
G1 X-16.317 Y21.755 E266.22152
G1 X-14.048 Y21.481 E266.26903
G1 X-11.927 Y20.628 E266.31655
G1 X-10.099 Y19.255 E266.36408
G0 F18000 X-10.742 Y19.495
G0 X-11.952 Y20.582
G0 X-14.062 Y21.429
G0 X-16.316 Y21.703
G0 X-16.352 Y21.593
G0 X-16.362 Y21.597
G0 X-16.362 Y21.597
G0 X-16.312 Y21.251
; TYPE:WALL-OUTER
G1 F2100 X-16.312 Y21.251 E266.36408
G1 X-14.173 Y20.992 E266.40887
G1 X-12.174 Y20.189 E266.45365
G1 X-10.452 Y18.895 E266.49843
G1 X-9.123 Y17.199 E266.54322
G1 X-8.278 Y15.218 E266.58799
G1 X-7.975 Y13.085 E266.63277
G1 X-8.234 Y10.946 E266.67756
G1 X-9.037 Y8.947 E266.72234
G1 X-10.332 Y7.225 E266.76713
G1 X-12.027 Y5.896 E266.81191
G1 X-14.008 Y5.051 E266.85668
G1 X-16.141 Y4.748 E266.90146
G1 X-18.28 Y5.007 E266.94625
G1 X-20.279 Y5.811 E266.99104
G1 X-22.001 Y7.105 E267.03582
G1 X-23.33 Y8.801 E267.08061
G1 X-24.175 Y10.782 E267.12538
G1 X-24.478 Y12.914 E267.17014
G1 X-24.219 Y15.054 E267.21495
G1 X-23.416 Y17.052 E267.25972
G1 X-22.121 Y18.774 E267.3045
G1 X-20.426 Y20.103 E267.34928
G1 X-18.445 Y20.948 E267.39405
G1 X-16.312 Y21.251 E267.43883
G1 F6600 E260.63883
G1 Z0.7
G0 F18000 X-16.362 Y21.597
G0 X-16.358 Y21.707
G0 X-16.316 Y21.703
G0 X-18.566 Y21.383
G0 X-20.656 Y20.492
G0 X-22.443 Y19.09
G0 X-23.809 Y17.274
G0 X-24.656 Y15.165
G0 X-24.93 Y12.91
G0 X-24.61 Y10.661
G0 X-23.719 Y8.571
G0 X-22.318 Y6.783
G0 X-20.501 Y5.418
G0 X-18.392 Y4.57
G0 X-16.748 Y4.368
G0 X-16.943 Y-4.272
G0 X-16.943 Y-4.272
; TYPE:WALL-INNER
G1 Z0.4
G1 F6600 E267.53883
G1 F2400 X-16.943 Y-4.272 E267.53883
G1 X-14.661 Y-4.384 E267.58633
G1 X-12.484 Y-5.083 E267.63386
G1 X-10.563 Y-6.321 E267.68137
G1 X-9.027 Y-8.015 E267.7289
G1 X-7.983 Y-10.048 E267.77641
G1 X-7.499 Y-12.282 E267.82392
G1 X-7.612 Y-14.565 E267.87144
G1 X-8.31 Y-16.742 E267.91896
G1 X-9.549 Y-18.663 E267.96648
G1 X-11.242 Y-20.199 E268.014
G1 X-13.275 Y-21.243 E268.06151
G1 X-15.51 Y-21.726 E268.10904
G1 X-17.792 Y-21.614 E268.15654
G1 X-19.969 Y-20.916 E268.20406
G1 X-21.89 Y-19.677 E268.25158
G1 X-23.426 Y-17.984 E268.2991
G1 X-24.47 Y-15.95 E268.34662
G1 X-24.954 Y-13.716 E268.39414
G1 X-24.841 Y-11.433 E268.44166
G1 X-24.143 Y-9.257 E268.48916
G1 X-22.904 Y-7.336 E268.53668
G1 X-21.211 Y-5.8 E268.5842
G1 X-19.178 Y-4.755 E268.63172
G1 X-16.943 Y-4.272 E268.67925
G0 F18000 X-16.902 Y-4.775
; TYPE:WALL-OUTER
G1 F2100 X-16.902 Y-4.775 E268.67925
G1 X-14.751 Y-4.88 E268.72402
G1 X-12.699 Y-5.539 E268.76882
G1 X-10.889 Y-6.706 E268.81359
G1 X-9.442 Y-8.302 E268.85837
G1 X-8.458 Y-10.218 E268.90314
G1 X-8.002 Y-12.323 E268.94792
G1 X-8.108 Y-14.475 E268.99271
G1 X-8.766 Y-16.527 E269.0375
G1 X-9.934 Y-18.337 E269.08228
G1 X-11.529 Y-19.784 E269.12705
G1 X-13.445 Y-20.768 E269.17182
G1 X-15.551 Y-21.223 E269.21661
G1 X-17.702 Y-21.118 E269.26138
G1 X-19.754 Y-20.46 E269.30617
G1 X-21.564 Y-19.292 E269.35095
G1 X-23.011 Y-17.697 E269.39572
G1 X-23.995 Y-15.78 E269.44051
G1 X-24.451 Y-13.675 E269.48529
G1 X-24.345 Y-11.523 E269.53008
G1 X-23.687 Y-9.472 E269.57485
G1 X-22.519 Y-7.662 E269.61963
G1 X-20.924 Y-6.215 E269.6644
G1 X-19.008 Y-5.23 E269.70918
G1 X-16.902 Y-4.775 E269.75397
G0 F18000 X-17 Y-3.833
; TYPE:FILL
G1 F2400 X-17 Y3.905 E269.91483
G0 F18000 X-16.5 Y3.845
G1 F2400 X-16.5 Y-3.852 E270.07483
G0 F18000 X-16 Y-3.877
G1 F2400 X-16 Y3.818 E270.23479
G0 F18000 X-15.5 Y3.889
G1 F2400 X-15.5 Y-3.901 E270.39672
G0 F18000 X-15 Y-3.926
G1 F2400 X-15 Y3.96 E270.56065
G0 F18000 X-14.5 Y4.031
G1 F2400 X-14.5 Y-3.973 E270.72704
G0 F18000 X-14 Y-4.133
G1 F2400 X-14 Y4.101 E270.8982
G0 F18000 X-13.5 Y4.245
G1 F2400 X-13.5 Y-4.293 E271.07569
G0 F18000 X-13 Y-4.454
G1 F2400 X-13 Y4.458 E271.26095
G0 F18000 X-12.5 Y4.671
G1 F2400 X-12.5 Y-4.614 E271.45396
G0 F18000 X-12 Y-4.87
G1 F2400 X-12 Y4.884 E271.65672
G0 F18000 X-11.5 Y5.113
G1 F2400 X-11.5 Y-5.192 E271.87094
G0 F18000 X-11 Y-5.514
G1 F2400 X-11 Y5.505 E272.1
G0 F18000 X-10.5 Y5.898
G1 F2400 X-10.5 Y-5.837 E272.34394
G0 F18000 X-10 Y-6.285
G1 F2400 X-10 Y6.29 E272.60534
G0 F18000 X-9.5 Y6.767
G1 F2400 X-9.5 Y-6.836 E272.88812
G0 F18000 X-9 Y-7.386
G1 F2400 X-8.999 Y7.432 E273.19615
G0 F18000 X-8.499 Y8.097
G1 F2400 X-8.5 Y-8.073 E273.53228
G0 F18000 X-8 Y-9.047
G1 F2400 X-7.999 Y9.008 E273.9076
G0 F18000 X-7.499 Y10.252
G1 F2400 X-7.5 Y-10.194 E274.33262
G0 F18000 X-7.5 Y-15.659
G0 X-7.5 Y-15.659
G1 F2400 X-7.5 Y-23.809 E274.50204
G0 F18000 X-7 Y-23.809
G1 F2400 X-6.999 Y23.81 E275.49193
G0 F18000 X-6.499 Y23.81
G1 F2400 X-6.5 Y-23.809 E276.48181
G0 F18000 X-6 Y-23.764
G1 F2400 X-5.999 Y23.764 E277.4698
G0 F18000 X-5.499 Y23.319
G1 F2400 X-5.5 Y-23.319 E278.43929
G0 F18000 X-8 Y-23.809
G0 X-8 Y-23.809
G1 F2400 X-8 Y-17.076 E278.57926
G0 F18000 X-8.5 Y-17.851
G1 F2400 X-8.5 Y-23.809 E278.70311
G0 F18000 X-9 Y-23.809
G1 F2400 X-9 Y-18.626 E278.81085
G0 F18000 X-9.5 Y-19.214
G1 F2400 X-9.5 Y-23.809 E278.90637
G0 F18000 X-10 Y-23.809
G1 F2400 X-10 Y-19.668 E278.99245
G0 F18000 X-10.5 Y-20.122
G1 F2400 X-10.5 Y-23.809 E279.0691
G0 F18000 X-11 Y-23.809
G1 F2400 X-11 Y-20.571 E279.13641
G0 F18000 X-11.5 Y-20.828
G1 F2400 X-11.5 Y-23.809 E279.19837
G0 F18000 X-12 Y-23.809
G1 F2400 X-12 Y-21.085 E279.255
G0 F18000 X-12.5 Y-21.341
G1 F2400 X-12.5 Y-23.809 E279.3063
G0 F18000 X-13 Y-23.809
G1 F2400 X-13 Y-21.598 E279.35226
G0 F18000 X-13.5 Y-21.742
G1 F2400 X-13.5 Y-23.809 E279.39523
G0 F18000 X-14 Y-23.809
G1 F2400 X-14 Y-21.85 E279.43596
G0 F18000 X-14.5 Y-21.958
G1 F2400 X-14.5 Y-23.809 E279.47443
G0 F18000 X-15 Y-23.808
G1 F2400 X-15 Y-22.065 E279.51067
G0 F18000 X-15.5 Y-22.167
G1 F2400 X-15.5 Y-23.808 E279.54478
G0 F18000 X-16 Y-23.808
G1 F2400 X-16 Y-22.142 E279.57941
G0 F18000 X-16.5 Y-22.117
G1 F2400 X-16.5 Y-23.808 E279.61456
G0 F18000 X-17 Y-23.808
G1 F2400 X-17 Y-22.092 E279.65023
G0 F18000 X-17.5 Y-22.067
G1 F2400 X-17.5 Y-23.808 E279.68642
G0 F18000 X-18 Y-23.808
G1 F2400 X-18 Y-22.008 E279.72384
G0 F18000 X-18.5 Y-21.848
G1 F2400 X-18.5 Y-23.808 E279.76459
G0 F18000 X-19 Y-23.808
G1 F2400 X-19 Y-21.688 E279.80866
G0 F18000 X-19.5 Y-21.528
G1 F2400 X-19.5 Y-23.808 E279.85605
G0 F18000 X-20 Y-23.808
G1 F2400 X-20 Y-21.368 E279.90677
G0 F18000 X-20.5 Y-21.096
G1 F2400 X-20.5 Y-23.808 E279.96315
G0 F18000 X-21 Y-23.808
G1 F2400 X-21 Y-20.774 E280.02622
G0 F18000 X-21.5 Y-20.451
G1 F2400 X-21.5 Y-23.808 E280.096
G0 F18000 X-22 Y-23.808
G1 F2400 X-22 Y-20.128 E280.1725
G0 F18000 X-22.5 Y-19.658
G1 F2400 X-22.5 Y-23.808 E280.25877
G0 F18000 X-23 Y-23.808
G1 F2400 X-23 Y-19.107 E280.35649
G0 F18000 X-23.5 Y-18.557
G1 F2400 X-23.5 Y-23.808 E280.46565
G0 F18000 X-24 Y-23.808
G1 F2400 X-24 Y-17.829 E280.58994
G0 F18000 X-24.5 Y-16.854
G1 F2400 X-24.5 Y-23.808 E280.73449
G0 F18000 X-25 Y-23.808
G1 F2400 X-25 Y-15.577 E280.9056
G0 F18000 X-25 Y-10.487
G0 X-25 Y-10.487
G1 F2400 X-25 Y10.319 E281.3381
G0 F18000 X-24.5 Y9.146
G1 F2400 X-24.5 Y-8.996 E281.71523
G0 F18000 X-24 Y-8.222
G1 F2400 X-24 Y8.13 E282.05515
G0 F18000 X-23.5 Y7.492
G1 F2400 X-23.5 Y-7.447 E282.3657
G0 F18000 X-23 Y-6.827
G1 F2400 X-23 Y6.855 E282.65011
G0 F18000 X-22.5 Y6.304
G1 F2400 X-22.5 Y-6.373 E282.91363
G0 F18000 X-22 Y-5.92
G1 F2400 X-22 Y5.928 E283.15993
G0 F18000 X-21.5 Y5.552
G1 F2400 X-21.5 Y-5.466 E283.38896
G0 F18000 X-21 Y-5.195
G1 F2400 X-21 Y5.177 E283.60457
G0 F18000 X-20.5 Y4.886
G1 F2400 X-20.5 Y-4.938 E283.80879
G0 F18000 X-20 Y-4.681
G1 F2400 X-20 Y4.685 E284.00349
G0 F18000 X-19.5 Y4.484
G1 F2400 X-19.5 Y-4.424 E284.18866
G0 F18000 X-19 Y-4.265
G1 F2400 X-19 Y4.283 E284.36635
G0 F18000 X-18.5 Y4.086
G1 F2400 X-18.5 Y-4.157 E284.53771
G0 F18000 X-18 Y-4.049
G1 F2400 X-18 Y4.026 E284.70557
G0 F18000 X-17.5 Y3.965
G1 F2400 X-17.5 Y-3.941 E284.86991
G0 F18000 X-21.383 Y6.195
G0 X-22.318 Y6.783
G0 X-23.719 Y8.571
G0 X-24.61 Y10.661
G0 X-24.93 Y12.91
G0 X-24.614 Y14.629
G0 X-24.999 Y15.63
G0 X-24.999 Y15.63
G1 F2400 X-24.999 Y23.802 E285.03979
G0 F18000 X-24.499 Y23.802
G1 F2400 X-24.499 Y16.874 E285.18381
G0 F18000 X-23.999 Y17.838
G1 F2400 X-23.999 Y23.802 E285.30778
G0 F18000 X-23.499 Y23.802
G1 F2400 X-23.499 Y18.503 E285.41794
G0 F18000 X-22.999 Y19.167
G1 F2400 X-22.999 Y23.802 E285.51429
G0 F18000 X-22.499 Y23.803
G1 F2400 X-22.499 Y19.67 E285.6002
G0 F18000 X-21.999 Y20.063
G1 F2400 X-21.999 Y23.803 E285.67795
G0 F18000 X-21.499 Y23.803
G1 F2400 X-21.499 Y20.455 E285.74754
G0 F18000 X-20.999 Y20.847
G1 F2400 X-20.999 Y23.803 E285.80899
G0 F18000 X-20.499 Y23.804
G1 F2400 X-20.499 Y21.093 E285.86535
G0 F18000 X-19.999 Y21.306
G1 F2400 X-19.999 Y23.804 E285.91727
G0 F18000 X-19.499 Y23.804
G1 F2400 X-19.499 Y21.519 E285.96477
G0 F18000 X-18.999 Y21.732
G1 F2400 X-18.999 Y23.804 E286.00785
G0 F18000 X-18.499 Y23.804
G1 F2400 X-18.499 Y21.889 E286.04765
G0 F18000 X-17.999 Y21.96
G1 F2400 X-17.999 Y23.805 E286.08601
G0 F18000 X-17.499 Y23.805
G1 F2400 X-17.499 Y22.031 E286.12288
G0 F18000 X-16.999 Y22.101
G1 F2400 X-16.999 Y23.805 E286.15831
G0 F18000 X-16.499 Y23.805
G1 F2400 X-16.499 Y22.172 E286.19225
G0 F18000 X-15.999 Y22.158
G1 F2400 X-15.999 Y23.806 E286.22651
G0 F18000 X-15.499 Y23.806
G1 F2400 X-15.499 Y22.098 E286.26202
G0 F18000 X-14.999 Y22.038
G1 F2400 X-14.999 Y23.806 E286.29877
G0 F18000 X-14.499 Y23.806
G1 F2400 X-14.499 Y21.978 E286.33677
G0 F18000 X-13.999 Y21.918
G1 F2400 X-13.999 Y23.807 E286.37604
G0 F18000 X-13.499 Y23.807
G1 F2400 X-13.499 Y21.734 E286.41913
G0 F18000 X-12.999 Y21.533
G1 F2400 X-12.999 Y23.807 E286.4664
G0 F18000 X-12.499 Y23.807
G1 F2400 X-12.499 Y21.332 E286.51785
G0 F18000 X-11.999 Y21.131
G1 F2400 X-11.999 Y23.807 E286.57348
G0 F18000 X-11.499 Y23.808
G1 F2400 X-11.499 Y20.858 E286.6348
G0 F18000 X-10.999 Y20.482
G1 F2400 X-10.999 Y23.808 E286.70394
G0 F18000 X-10.499 Y23.808
G1 F2400 X-10.499 Y20.106 E286.78089
G0 F18000 X-9.999 Y19.73
G1 F2400 X-9.999 Y23.808 E286.86567
G0 F18000 X-9.499 Y23.809
G1 F2400 X-9.499 Y19.204 E286.96139
G0 F18000 X-8.999 Y18.566
G1 F2400 X-8.999 Y23.809 E287.07038
G0 F18000 X-8.499 Y23.809
G1 F2400 X-8.499 Y17.929 E287.19261
G0 F18000 X-7.999 Y16.963
G1 F2400 X-7.999 Y23.809 E287.33493
G0 F18000 X-7.499 Y23.809
G1 F2400 X-7.499 Y15.79 E287.50162
G1 F6600 E280.70162
G1 Z0.7
G0 F18000 X-8.243 Y16.12
G0 X-8.734 Y17.429
G0 X-10.135 Y19.217
G0 X-11.952 Y20.582
G0 X-14.062 Y21.429
G0 X-16.316 Y21.703
G0 X-18.566 Y21.383
G0 X-19.268 Y21.027
G0 X-25.499 Y23.801
G0 X-25.499 Y23.801
G1 Z0.4
G1 F6600 E287.60162
G1 F2400 X-25.5 Y-23.808 E288.5913
G0 F18000 X-26 Y-23.808
G1 F2400 X-25.999 Y23.801 E289.58097
G0 F18000 X-26.499 Y23.744
G1 F2400 X-26.5 Y-23.742 E290.56809
G0 F18000 X-27 Y-23.179
G1 F2400 X-26.999 Y21.623 E291.49942
G1 F6600 E284.69942
G1 Z0.7
G0 F18000 X25.978 Y12.25
G0 X25.478 Y12.75
; TYPE:WALL-INNER
G1 Z0.4
G1 F6600 E291.59942
G1 F2400 X25.478 Y12.75 E291.59942
G1 X27.478 Y12.75 E291.64099
G1 X27.478 Y22.948 E291.85298
G1 X27.429 Y23.323 E291.86085
G1 X27.306 Y23.618 E291.86749
G1 X27.097 Y23.886 E291.87456
G1 X26.838 Y24.081 E291.88129
G1 X26.538 Y24.202 E291.88802
G1 X26.175 Y24.25 E291.89563
G1 X6.282 Y24.25 E292.30916
G1 X5.894 Y24.195 E292.3173
G1 X5.597 Y24.069 E292.32401
G1 X5.349 Y23.879 E292.33051
G1 X5.151 Y23.621 E292.33727
G1 X5.027 Y23.323 E292.34398
G1 X4.978 Y22.948 E292.35184
G1 X4.978 Y-22.947 E293.30588
G1 X5.027 Y-23.322 E293.31374
G1 X5.15 Y-23.617 E293.32039
G1 X5.359 Y-23.885 E293.32745
G1 X5.616 Y-24.079 E293.33415
G1 X5.921 Y-24.201 E293.34098
G1 X6.281 Y-24.249 E293.34853
G1 X26.191 Y-24.247 E293.76241
G1 X26.563 Y-24.194 E293.77022
G1 X26.86 Y-24.068 E293.77692
G1 X27.109 Y-23.877 E293.78345
G1 X27.304 Y-23.622 E293.79012
G1 X27.429 Y-23.322 E293.79688
G1 X27.478 Y-22.947 E293.80474
G1 X27.478 Y-12.726 E294.01721
G1 X25.478 Y-12.664 E294.0588
G1 X25.478 Y-3.718 E294.24477
G1 X23.478 Y-3.718 E294.28634
G1 X23.478 Y3.75 E294.44159
G1 X25.478 Y3.75 E294.48316
G1 X25.478 Y12.75 E294.67025
G0 F18000 X25.978 Y12.25
; TYPE:WALL-OUTER
G1 F2100 X25.978 Y12.25 E294.67025
G1 X27.978 Y12.25 E294.71182
G1 X27.978 Y22.982 E294.93492
G1 X27.916 Y23.452 E294.94477
G1 X27.742 Y23.873 E294.95424
G1 X27.451 Y24.245 E294.96406
G1 X27.088 Y24.519 E294.97351
G1 X26.663 Y24.69 E294.98304
G1 X26.21 Y24.75 E294.99254
G1 X6.249 Y24.75 E295.40748
G1 X5.76 Y24.681 E295.41774
G1 X5.34 Y24.503 E295.42722
G1 X4.992 Y24.236 E295.43634
G1 X4.715 Y23.876 E295.44579
G1 X4.54 Y23.452 E295.45532
G1 X4.478 Y22.982 E295.46518
G1 X4.478 Y-22.981 E296.42064
G1 X4.54 Y-23.452 E296.43051
G1 X4.714 Y-23.872 E296.43996
G1 X5.005 Y-24.244 E296.44978
G1 X5.369 Y-24.519 E296.45926
G1 X5.792 Y-24.689 E296.46874
G1 X6.246 Y-24.749 E296.47826
G1 X26.225 Y-24.747 E296.89357
G1 X26.697 Y-24.68 E296.90348
G1 X27.117 Y-24.502 E296.91297
G1 X27.465 Y-24.235 E296.92208
G1 X27.741 Y-23.875 E296.93151
G1 X27.916 Y-23.452 E296.94103
G1 X27.978 Y-22.981 E296.95091
G1 X27.978 Y-12.241 E297.17416
G1 X25.978 Y-12.179 E297.21576
G1 X25.978 Y-3.218 E297.40204
G1 X23.978 Y-3.218 E297.44361
G1 X23.978 Y3.25 E297.57807
G1 X25.978 Y3.25 E297.61964
G1 X25.978 Y12.25 E297.80673
G0 F18000 X26 Y13.189
; TYPE:FILL
G1 F2400 X26 Y23.809 E298.02749
G0 F18000 X25.5 Y23.809
G1 F2400 X25.5 Y13.189 E298.24826
G0 F18000 X26.5 Y13.189
G1 F2400 X26.5 Y23.741 E298.46761
G0 F18000 X27 Y23.195
G1 F2400 X27 Y13.189 E298.67561
G0 F18000 X26.889 Y12.694
G0 X25.587 Y12.641
G0 X25.684 Y7.271
G0 X25 Y4.189
G0 X25 Y4.189
G1 F2400 X25 Y23.809 E299.08346
G0 F18000 X24.5 Y23.809
G1 F2400 X24.5 Y4.189 E299.49131
G0 F18000 X24 Y4.189
G1 F2400 X24 Y23.809 E299.89917
G0 F18000 X23.5 Y23.809
G1 F2400 X23.5 Y4.189 E300.30702
G0 F18000 X23.5 Y-4.157
G0 X23.5 Y-4.157
G1 F2400 X23.499 Y-23.806 E300.71547
G0 F18000 X22.999 Y-23.806
G1 F2400 X23 Y23.809 E301.70527
G0 F18000 X22.5 Y23.809
G1 F2400 X22.499 Y-23.807 E302.6951
G0 F18000 X21.999 Y-23.807
G1 F2400 X22 Y23.809 E303.68492
G0 F18000 X21.5 Y23.809
G1 F2400 X21.499 Y-23.807 E304.67474
G0 F18000 X20.999 Y-23.807
G1 F2400 X21 Y23.809 E305.66456
G0 F18000 X20.5 Y23.809
G1 F2400 X20.499 Y-23.807 E306.65438
G0 F18000 X19.999 Y-23.807
G1 F2400 X20 Y23.809 E307.6442
G0 F18000 X19.5 Y23.809
G1 F2400 X19.499 Y-23.807 E308.63403
G0 F18000 X18.999 Y-23.807
G1 F2400 X19 Y23.809 E309.62385
G0 F18000 X18.5 Y23.809
G1 F2400 X18.499 Y-23.807 E310.61367
G0 F18000 X17.999 Y-23.807
G1 F2400 X18 Y23.809 E311.60349
G0 F18000 X17.5 Y23.809
G1 F2400 X17.499 Y-23.807 E312.59331
G0 F18000 X16.999 Y-23.807
G1 F2400 X17 Y23.809 E313.58313
G0 F18000 X16.5 Y23.809
G1 F2400 X16.499 Y-23.807 E314.57296
G0 F18000 X15.999 Y-23.808
G1 F2400 X16 Y23.809 E315.5628
G0 F18000 X15.5 Y23.809
G1 F2400 X15.499 Y-23.808 E316.55264
G0 F18000 X14.999 Y-23.808
G1 F2400 X15 Y23.809 E317.54248
G0 F18000 X14.5 Y23.81
G1 F2400 X14.499 Y-23.808 E318.53235
G0 F18000 X13.999 Y-23.808
G1 F2400 X14 Y23.81 E319.52221
G0 F18000 X13.5 Y23.81
G1 F2400 X13.499 Y-23.808 E320.51207
G0 F18000 X12.999 Y-23.808
G1 F2400 X13 Y23.81 E321.50194
G0 F18000 X12.5 Y23.81
G1 F2400 X12.499 Y-23.808 E322.4918
G0 F18000 X11.999 Y-23.808
G1 F2400 X12 Y23.81 E323.48166
G0 F18000 X11.5 Y23.81
G1 F2400 X11.499 Y-23.808 E324.47153
G0 F18000 X10.999 Y-23.808
G1 F2400 X11 Y23.81 E325.46139
G0 F18000 X10.5 Y23.81
G1 F2400 X10.499 Y-23.808 E326.45125
G0 F18000 X9.999 Y-23.808
G1 F2400 X10 Y23.81 E327.44111
G0 F18000 X9.5 Y23.81
G1 F2400 X9.499 Y-23.809 E328.431
G0 F18000 X8.999 Y-23.809
G1 F2400 X9 Y23.81 E329.42088
G0 F18000 X8.5 Y23.81
G1 F2400 X8.499 Y-23.809 E330.41077
G0 F18000 X7.999 Y-23.809
G1 F2400 X8 Y23.81 E331.40065
G0 F18000 X7.5 Y23.81
G1 F2400 X7.499 Y-23.809 E332.39053
G0 F18000 X6.999 Y-23.809
G1 F2400 X7 Y23.81 E333.38042
G0 F18000 X6.5 Y23.81
G1 F2400 X6.499 Y-23.809 E334.3703
G0 F18000 X5.999 Y-23.758
G1 F2400 X6 Y23.762 E335.35813
G0 F18000 X5.5 Y23.315
G1 F2400 X5.499 Y-23.314 E336.32743
G0 F18000 X23.999 Y-23.806
G0 X23.999 Y-23.806
G1 F2400 X24 Y-4.157 E336.73589
G0 F18000 X24.5 Y-4.157
G1 F2400 X24.499 Y-23.806 E337.14434
G0 F18000 X24.999 Y-23.806
G1 F2400 X25 Y-4.157 E337.5528
G0 F18000 X25.5 Y-13.104
G0 X25.5 Y-13.104
G1 F2400 X25.499 Y-23.806 E337.77527
G0 F18000 X25.999 Y-23.806
G1 F2400 X26 Y-13.12 E337.9974
G0 F18000 X26.5 Y-13.135
G1 F2400 X26.499 Y-23.742 E338.2179
G0 F18000 X26.999 Y-23.206
G1 F2400 X27 Y-13.151 E338.42692
; Layer Change GCode
; LAYER:2
G4 P0
M106 S255
G1 F6600 E331.62692
G1 Z0.7
G0 F18000 X-6.244 Y24.75 Z0.8
G0 X-6.278 Y24.25
; TYPE:WALL-INNER
G1 Z0.5
G1 F6600 E338.52692
G1 F2400 X-6.278 Y24.25 E338.52692
G1 X-26.252 Y24.24 E338.94213
G1 X-26.549 Y24.201 E338.94835
G1 X-26.848 Y24.077 E338.95508
G1 X-27.106 Y23.879 E338.96184
G1 X-27.305 Y23.62 E338.96863
G1 X-27.41 Y23.364 E338.97439
G1 X-27.476 Y19.503 E339.05466
G1 X-27.476 Y-22.947 E339.93709
G1 X-27.426 Y-23.324 E339.945
G1 X-27.305 Y-23.619 E339.95162
G1 X-27.106 Y-23.878 E339.95841
G1 X-26.848 Y-24.076 E339.96518
G1 X-26.55 Y-24.2 E339.97188
G1 X-26.175 Y-24.249 E339.97975
G1 X-6.278 Y-24.249 E340.39336
G1 X-5.903 Y-24.2 E340.40122
G1 X-5.605 Y-24.076 E340.40793
G1 X-5.347 Y-23.878 E340.41469
G1 X-5.148 Y-23.619 E340.42148
G1 X-5.025 Y-23.321 E340.42818
G1 X-4.976 Y-22.953 E340.4359
G1 X-4.976 Y22.953 E341.39017
G1 X-5.025 Y23.321 E341.39789
G1 X-5.148 Y23.62 E341.40461
G1 X-5.347 Y23.879 E341.4114
G1 X-5.605 Y24.077 E341.41816
G1 X-5.903 Y24.201 E341.42487
G1 X-6.278 Y24.25 E341.43273
G0 F18000 X-6.244 Y24.75
; TYPE:WALL-OUTER
G1 F2100 X-6.244 Y24.75 E341.43273
G1 X-26.287 Y24.74 E341.84938
G1 X-26.679 Y24.688 E341.8576
G1 X-27.103 Y24.513 E341.86713
G1 X-27.463 Y24.236 E341.87657
G1 X-27.74 Y23.875 E341.88603
G1 X-27.909 Y23.466 E341.89523
G1 X-27.976 Y19.503 E341.97763
G1 X-27.976 Y-22.981 E342.86077
G1 X-27.914 Y-23.453 E342.87066
G1 X-27.741 Y-23.874 E342.88012
G1 X-27.463 Y-24.235 E342.8896
G1 X-27.103 Y-24.512 E342.89904
G1 X-26.679 Y-24.687 E342.90857
G1 X-26.209 Y-24.749 E342.91843
G1 X-6.244 Y-24.749 E343.33345
G1 X-5.774 Y-24.687 E343.34331
G1 X-5.35 Y-24.512 E343.35284
G1 X-4.99 Y-24.235 E343.36228
G1 X-4.712 Y-23.874 E343.37176
G1 X-4.539 Y-23.453 E343.38122
G1 X-4.476 Y-22.981 E343.39112
G1 X-4.476 Y22.982 E344.34658
G1 X-4.539 Y23.453 E344.35645
G1 X-4.713 Y23.875 E344.36594
G1 X-4.99 Y24.236 E344.3754
G1 X-5.35 Y24.513 E344.38484
G1 X-5.774 Y24.688 E344.39438
G1 X-6.244 Y24.75 E344.40423
G0 F18000 X-6.27 Y24.4
G0 X-10.099 Y19.255
G0 X-10.099 Y19.255
; TYPE:WALL-INNER
G1 F2400 X-10.099 Y19.255 E344.40423
G1 X-8.689 Y17.456 E344.45175
G1 X-7.792 Y15.353 E344.49928
G1 X-7.471 Y13.09 E344.54679
G1 X-7.745 Y10.821 E344.5943
G1 X-8.598 Y8.7 E344.64182
G1 X-9.972 Y6.872 E344.68936
G1 X-11.77 Y5.462 E344.73686
G1 X-13.873 Y4.565 E344.78438
G1 X-16.136 Y4.244 E344.8319
G1 X-18.405 Y4.518 E344.87941
G1 X-20.526 Y5.372 E344.92694
G1 X-22.354 Y6.745 E344.97446
G1 X-23.764 Y8.544 E345.02198
G1 X-24.661 Y10.647 E345.0695
G1 X-24.982 Y12.909 E345.11699
G1 X-24.708 Y15.179 E345.16453
G1 X-23.855 Y17.3 E345.21205
G1 X-22.481 Y19.127 E345.25957
G1 X-20.683 Y20.537 E345.30707
G1 X-18.58 Y21.434 E345.35459
G1 X-16.317 Y21.755 E345.40211
G1 X-14.048 Y21.481 E345.44962
G1 X-11.927 Y20.628 E345.49714
G1 X-10.099 Y19.255 E345.54466
G0 F18000 X-10.742 Y19.495
G0 X-11.952 Y20.582
G0 X-14.062 Y21.429
G0 X-16.316 Y21.703
G0 X-16.352 Y21.593
G0 X-16.362 Y21.597
G0 X-16.362 Y21.597
G0 X-16.312 Y21.251
; TYPE:WALL-OUTER
G1 F2100 X-16.312 Y21.251 E345.54466
G1 X-14.173 Y20.992 E345.58945
G1 X-12.174 Y20.189 E345.63423
G1 X-10.452 Y18.895 E345.67901
G1 X-9.123 Y17.199 E345.7238
G1 X-8.278 Y15.218 E345.76857
G1 X-7.975 Y13.085 E345.81336
G1 X-8.234 Y10.946 E345.85815
G1 X-9.037 Y8.947 E345.90293
G1 X-10.332 Y7.225 E345.94772
G1 X-12.027 Y5.896 E345.99249
G1 X-14.008 Y5.051 E346.03726
G1 X-16.141 Y4.748 E346.08205
G1 X-18.28 Y5.007 E346.12684
G1 X-20.279 Y5.811 E346.17162
G1 X-22.001 Y7.105 E346.2164
G1 X-23.33 Y8.801 E346.26119
G1 X-24.175 Y10.782 E346.30596
G1 X-24.478 Y12.914 E346.35073
G1 X-24.219 Y15.054 E346.39554
G1 X-23.416 Y17.052 E346.4403
G1 X-22.121 Y18.774 E346.48509
G1 X-20.426 Y20.103 E346.52986
G1 X-18.445 Y20.948 E346.57463
G1 X-16.312 Y21.251 E346.61942
G1 F6600 E339.81942
G1 Z0.8
G0 F18000 X-16.362 Y21.597
G0 X-16.358 Y21.707
G0 X-16.316 Y21.703
G0 X-18.566 Y21.383
G0 X-20.656 Y20.492
G0 X-22.443 Y19.09
G0 X-23.809 Y17.274
G0 X-24.656 Y15.165
G0 X-24.93 Y12.91
G0 X-24.61 Y10.661
G0 X-23.719 Y8.571
G0 X-22.318 Y6.783
G0 X-20.501 Y5.418
G0 X-18.392 Y4.57
G0 X-16.748 Y4.368
G0 X-16.943 Y-4.272
G0 X-16.943 Y-4.272
; TYPE:WALL-INNER
G1 Z0.5
G1 F6600 E346.71942
G1 F2400 X-16.943 Y-4.272 E346.71942
G1 X-14.661 Y-4.384 E346.76691
G1 X-12.484 Y-5.083 E346.81444
G1 X-10.563 Y-6.321 E346.86195
G1 X-9.027 Y-8.015 E346.90948
G1 X-7.983 Y-10.048 E346.95699
G1 X-7.499 Y-12.282 E347.00451
G1 X-7.612 Y-14.565 E347.05202
G1 X-8.31 Y-16.742 E347.09955
G1 X-9.549 Y-18.663 E347.14707
G1 X-11.242 Y-20.199 E347.19459
G1 X-13.275 Y-21.243 E347.24209
G1 X-15.51 Y-21.726 E347.28963
G1 X-17.792 Y-21.614 E347.33712
G1 X-19.969 Y-20.916 E347.38464
G1 X-21.89 Y-19.677 E347.43216
G1 X-23.426 Y-17.984 E347.47968
G1 X-24.47 Y-15.95 E347.52721
G1 X-24.954 Y-13.716 E347.57473
G1 X-24.841 Y-11.433 E347.62224
G1 X-24.143 Y-9.257 E347.66975
G1 X-22.904 Y-7.336 E347.71726
G1 X-21.211 Y-5.8 E347.76478
G1 X-19.178 Y-4.755 E347.8123
G1 X-16.943 Y-4.272 E347.85983
G0 F18000 X-16.902 Y-4.775
; TYPE:WALL-OUTER
G1 F2100 X-16.902 Y-4.775 E347.85983
G1 X-14.751 Y-4.88 E347.9046
G1 X-12.699 Y-5.539 E347.9494
G1 X-10.889 Y-6.706 E347.99417
G1 X-9.442 Y-8.302 E348.03895
G1 X-8.458 Y-10.218 E348.08373
G1 X-8.002 Y-12.323 E348.1285
G1 X-8.108 Y-14.475 E348.17329
G1 X-8.766 Y-16.527 E348.21809
G1 X-9.934 Y-18.337 E348.26287
G1 X-11.529 Y-19.784 E348.30763
G1 X-13.445 Y-20.768 E348.35241
G1 X-15.551 Y-21.223 E348.3972
G1 X-17.702 Y-21.118 E348.44196
G1 X-19.754 Y-20.46 E348.48676
G1 X-21.564 Y-19.292 E348.53154
G1 X-23.011 Y-17.697 E348.57631
G1 X-23.995 Y-15.78 E348.6211
G1 X-24.451 Y-13.675 E348.66587
G1 X-24.345 Y-11.523 E348.71066
G1 X-23.687 Y-9.472 E348.75544
G1 X-22.519 Y-7.662 E348.80022
G1 X-20.924 Y-6.215 E348.84498
G1 X-19.008 Y-5.23 E348.88977
G1 X-16.902 Y-4.775 E348.93456
G0 F18000 X-17.768 Y-3.999
; TYPE:FILL
G1 F2400 X-27.036 Y-3.999 E349.12721
G0 F18000 X-27.036 Y-4.499
G1 F2400 X-19.646 Y-4.499 E349.28084
G0 F18000 X-20.619 Y-4.999
G1 F2400 X-27.036 Y-4.999 E349.41423
G0 F18000 X-27.036 Y-5.499
G1 F2400 X-21.537 Y-5.499 E349.52854
G0 F18000 X-22.088 Y-5.999
G1 F2400 X-27.036 Y-5.999 E349.6314
G0 F18000 X-27.036 Y-6.499
G1 F2400 X-22.638 Y-6.499 E349.72282
G0 F18000 X-23.189 Y-6.999
G1 F2400 X-27.036 Y-6.999 E349.80279
G0 F18000 X-27.036 Y-7.499
G1 F2400 X-23.534 Y-7.499 E349.87559
G0 F18000 X-23.856 Y-7.999
G1 F2400 X-27.036 Y-7.999 E349.94169
G0 F18000 X-27.036 Y-8.499
G1 F2400 X-24.179 Y-8.499 E350.00108
G0 F18000 X-24.502 Y-8.999
G1 F2400 X-27.036 Y-8.999 E350.05376
G0 F18000 X-27.036 Y-9.499
G1 F2400 X-24.684 Y-9.499 E350.10265
G0 F18000 X-24.844 Y-9.999
G1 F2400 X-27.036 Y-9.999 E350.14822
G0 F18000 X-27.036 Y-10.499
G1 F2400 X-25.004 Y-10.499 E350.19046
G0 F18000 X-25.164 Y-10.999
G1 F2400 X-27.036 Y-10.999 E350.22937
G0 F18000 X-27.036 Y-11.499
G1 F2400 X-25.284 Y-11.499 E350.26579
G0 F18000 X-25.309 Y-11.999
G1 F2400 X-27.036 Y-11.999 E350.30169
G0 F18000 X-27.036 Y-12.499
G1 F2400 X-25.334 Y-12.499 E350.33707
G0 F18000 X-25.359 Y-12.999
G1 F2400 X-27.036 Y-12.999 E350.37193
G0 F18000 X-27.036 Y-13.499
G1 F2400 X-25.384 Y-13.499 E350.40627
G0 F18000 X-25.343 Y-13.999
G1 F2400 X-27.036 Y-13.999 E350.44147
G0 F18000 X-27.036 Y-14.499
G1 F2400 X-25.235 Y-14.499 E350.47891
G0 F18000 X-25.126 Y-14.999
G1 F2400 X-27.036 Y-14.999 E350.51861
G0 F18000 X-27.036 Y-15.499
G1 F2400 X-25.018 Y-15.499 E350.56056
G0 F18000 X-24.909 Y-15.999
G1 F2400 X-27.036 Y-15.999 E350.60478
G0 F18000 X-27.036 Y-16.5
G1 F2400 X-24.683 Y-16.5 E350.65369
G0 F18000 X-24.427 Y-17
G1 F2400 X-27.036 Y-17 E350.70792
G0 F18000 X-27.036 Y-17.5
G1 F2400 X-24.17 Y-17.5 E350.7675
G0 F18000 X-23.914 Y-18
G1 F2400 X-27.036 Y-18 E350.8324
G0 F18000 X-27.036 Y-18.5
G1 F2400 X-23.553 Y-18.5 E350.9048
G0 F18000 X-23.099 Y-19
G1 F2400 X-27.036 Y-19 E350.98664
G0 F18000 X-27.036 Y-19.5
G1 F2400 X-22.645 Y-19.5 E351.07792
G0 F18000 X-22.192 Y-20
G1 F2400 X-27.036 Y-20 E351.17862
G0 F18000 X-27.036 Y-20.5
G1 F2400 X-21.426 Y-20.5 E351.29524
G0 F18000 X-20.652 Y-21
G1 F2400 X-27.036 Y-21 E351.42794
G0 F18000 X-27.036 Y-21.5
G1 F2400 X-19.59 Y-21.5 E351.58273
G0 F18000 X-18.028 Y-22
G0 X-18.028 Y-22
G1 F2400 X-27.036 Y-22 E351.76998
G0 F18000 X-27.036 Y-22.5
G1 F2400 X-5.415 Y-22.5 E352.21943
G0 F18000 X-5.415 Y-22
G1 F2400 X-14.693 Y-22 E352.4123
G0 F18000 X-12.809 Y-21.5
G0 X-12.809 Y-21.5
G1 F2400 X-5.415 Y-21.5 E352.566
G0 F18000 X-5.415 Y-21
G1 F2400 X-11.835 Y-21 E352.69946
G0 F18000 X-10.916 Y-20.5
G1 F2400 X-5.415 Y-20.5 E352.81381
G0 F18000 X-5.415 Y-20
G1 F2400 X-10.366 Y-20 E352.91673
G0 F18000 X-9.815 Y-19.5
G1 F2400 X-5.415 Y-19.5 E353.00819
G0 F18000 X-5.415 Y-19
G1 F2400 X-9.264 Y-19 E353.08821
G0 F18000 X-8.919 Y-18.5
G1 F2400 X-5.415 Y-18.5 E353.16105
G0 F18000 X-5.415 Y-18
G1 F2400 X-8.596 Y-18 E353.22717
G0 F18000 X-8.274 Y-17.5
G1 F2400 X-5.415 Y-17.5 E353.2866
G0 F18000 X-5.415 Y-17
G1 F2400 X-7.951 Y-17 E353.33932
G0 F18000 X-7.769 Y-16.5
G1 F2400 X-5.415 Y-16.5 E353.38825
G0 F18000 X-5.415 Y-16
G1 F2400 X-7.609 Y-16 E353.43386
G0 F18000 X-7.449 Y-15.5
G1 F2400 X-5.415 Y-15.5 E353.47614
G0 F18000 X-5.415 Y-15
G1 F2400 X-7.289 Y-15 E353.5151
G0 F18000 X-7.168 Y-14.5
G1 F2400 X-5.415 Y-14.5 E353.55154
G0 F18000 X-5.415 Y-14
G1 F2400 X-7.143 Y-14 E353.58746
G0 F18000 X-7.118 Y-13.5
G1 F2400 X-5.415 Y-13.5 E353.62286
G0 F18000 X-5.415 Y-13
G1 F2400 X-7.093 Y-13 E353.65774
G0 F18000 X-7.068 Y-12.5
G1 F2400 X-5.415 Y-12.5 E353.69211
G0 F18000 X-5.415 Y-12
G1 F2400 X-7.109 Y-12 E353.72732
G0 F18000 X-7.217 Y-11.5
G1 F2400 X-5.415 Y-11.5 E353.76478
G0 F18000 X-5.415 Y-11
G1 F2400 X-7.325 Y-11 E353.80448
G0 F18000 X-7.434 Y-10.5
G1 F2400 X-5.415 Y-10.5 E353.84645
G0 F18000 X-5.415 Y-10
G1 F2400 X-7.542 Y-10 E353.89067
G0 F18000 X-7.768 Y-9.5
G1 F2400 X-5.415 Y-9.5 E353.93958
G0 F18000 X-5.415 Y-9
G1 F2400 X-8.025 Y-9 E353.99384
G0 F18000 X-8.282 Y-8.5
G1 F2400 X-5.415 Y-8.5 E354.05344
G0 F18000 X-5.415 Y-8
G1 F2400 X-8.539 Y-7.999 E354.11838
G0 F18000 X-8.899 Y-7.499
G1 F2400 X-5.415 Y-7.5 E354.1908
G0 F18000 X-5.415 Y-7
G1 F2400 X-9.352 Y-6.999 E354.27264
G0 F18000 X-9.806 Y-6.499
G1 F2400 X-5.415 Y-6.5 E354.36392
G0 F18000 X-5.415 Y-6
G1 F2400 X-10.26 Y-5.999 E354.46464
G0 F18000 X-11.024 Y-5.499
G1 F2400 X-5.415 Y-5.5 E354.58123
G0 F18000 X-5.415 Y-5
G1 F2400 X-11.799 Y-4.999 E354.71394
G0 F18000 X-12.859 Y-4.499
G1 F2400 X-5.415 Y-4.5 E354.86868
G0 F18000 X-5.415 Y-3.999
G1 F2400 X-14.419 Y-3.999 E355.05585
G0 F18000 X-14.716 Y4
G0 X-14.716 Y4
G1 F2400 X-5.416 Y4 E355.24918
G0 F18000 X-5.416 Y4.5
G1 F2400 X-12.901 Y4.5 E355.40477
G0 F18000 X-11.728 Y5
G1 F2400 X-5.416 Y5 E355.53599
G0 F18000 X-5.416 Y5.5
G1 F2400 X-11.007 Y5.5 E355.65221
G0 F18000 X-10.37 Y6
G1 F2400 X-5.416 Y6 E355.75519
G0 F18000 X-5.416 Y6.5
G1 F2400 X-9.732 Y6.5 E355.84491
G0 F18000 X-9.325 Y7
G1 F2400 X-5.416 Y7 E355.92617
G0 F18000 X-5.415 Y7.5
G1 F2400 X-8.949 Y7.5 E355.99963
G0 F18000 X-8.574 Y8
G1 F2400 X-5.415 Y8 E356.0653
G0 F18000 X-5.415 Y8.5
G1 F2400 X-8.204 Y8.5 E356.12328
G0 F18000 X-8.002 Y9
G1 F2400 X-5.415 Y9 E356.17705
G0 F18000 X-5.415 Y9.5
G1 F2400 X-7.801 Y9.5 E356.22665
G0 F18000 X-7.6 Y10
G1 F2400 X-5.415 Y10 E356.27207
G0 F18000 X-5.415 Y10.5
G1 F2400 X-7.399 Y10.5 E356.31332
G0 F18000 X-7.28 Y11
G1 F2400 X-5.415 Y11 E356.35209
G0 F18000 X-5.415 Y11.5
G1 F2400 X-7.22 Y11.5 E356.38961
G0 F18000 X-7.159 Y12
G1 F2400 X-5.415 Y12 E356.42586
G0 F18000 X-5.415 Y12.5
G1 F2400 X-7.099 Y12.5 E356.46087
G0 F18000 X-7.039 Y13
G1 F2400 X-5.415 Y13 E356.49463
G0 F18000 X-5.415 Y13.5
G1 F2400 X-7.084 Y13.5 E356.52932
G0 F18000 X-7.155 Y14
G1 F2400 X-5.415 Y14 E356.56549
G0 F18000 X-5.415 Y14.5
G1 F2400 X-7.226 Y14.5 E356.60314
G0 F18000 X-7.296 Y15
G1 F2400 X-5.415 Y15 E356.64224
G0 F18000 X-5.415 Y15.5
G1 F2400 X-7.375 Y15.5 E356.68298
G0 F18000 X-7.589 Y16
G1 F2400 X-5.415 Y16 E356.72817
G0 F18000 X-5.415 Y16.5
G1 F2400 X-7.802 Y16.5 E356.77779
G0 F18000 X-8.015 Y17
G1 F2400 X-5.415 Y17 E356.83184
G0 F18000 X-5.415 Y17.5
G1 F2400 X-8.228 Y17.5 E356.89032
G0 F18000 X-8.555 Y18
G1 F2400 X-5.415 Y18 E356.95559
G0 F18000 X-5.415 Y18.5
G1 F2400 X-8.947 Y18.5 E357.02901
G0 F18000 X-9.339 Y19
G1 F2400 X-5.415 Y19 E357.11058
G0 F18000 X-5.415 Y19.5
G1 F2400 X-9.731 Y19.5 E357.2003
G0 F18000 X-10.358 Y20
G1 F2400 X-5.415 Y20 E357.30305
G0 F18000 X-5.415 Y20.5
G1 F2400 X-11.023 Y20.5 E357.41963
G0 F18000 X-11.688 Y21
G1 F2400 X-5.415 Y21 E357.55003
G0 F18000 X-5.415 Y21.5
G1 F2400 X-12.916 Y21.5 E357.70596
G0 F18000 X-14.682 Y22
G0 X-14.682 Y22
G1 F2400 X-5.415 Y22 E357.8986
G0 F18000 X-5.415 Y22.5
G1 F2400 X-26.985 Y22.5 E358.34699
G0 F18000 X-26.977 Y23
G1 F2400 X-5.426 Y23 E358.79498
G0 F18000 X-5.609 Y23.5
G1 F2400 X-26.842 Y23.5 E359.23636
G0 F18000 X-26.994 Y22
G0 X-26.994 Y22
G1 F2400 X-17.723 Y22 E359.42908
G0 F18000 X-19.547 Y21.5
G0 X-19.547 Y21.5
G1 F2400 X-27.002 Y21.5 E359.58406
G0 F18000 X-27.011 Y21
G1 F2400 X-20.72 Y21 E359.71483
G0 F18000 X-21.444 Y20.5
G1 F2400 X-27.019 Y20.5 E359.83072
G0 F18000 X-27.028 Y20
G1 F2400 X-22.081 Y20 E359.93356
G0 F18000 X-22.718 Y19.5
G1 F2400 X-27.036 Y19.5 E360.02332
G0 F18000 X-27.036 Y19
G1 F2400 X-23.127 Y19 E360.10458
G0 F18000 X-23.503 Y18.5
G1 F2400 X-27.036 Y18.5 E360.17802
G0 F18000 X-27.036 Y18
G1 F2400 X-23.879 Y18 E360.24365
G0 F18000 X-24.249 Y17.5
G1 F2400 X-27.036 Y17.5 E360.30158
G0 F18000 X-27.036 Y17
G1 F2400 X-24.45 Y17 E360.35534
G0 F18000 X-24.65 Y16.5
G1 F2400 X-27.036 Y16.5 E360.40494
G0 F18000 X-27.036 Y16
G1 F2400 X-24.851 Y16 E360.45036
G0 F18000 X-25.052 Y15.5
G1 F2400 X-27.036 Y15.5 E360.4916
G0 F18000 X-27.036 Y15
G1 F2400 X-25.172 Y15 E360.53035
G0 F18000 X-25.232 Y14.5
G1 F2400 X-27.036 Y14.5 E360.56785
G0 F18000 X-27.036 Y14
G1 F2400 X-25.292 Y14 E360.6041
G0 F18000 X-25.353 Y13.5
G1 F2400 X-27.036 Y13.5 E360.63909
G0 F18000 X-27.036 Y13
G1 F2400 X-25.413 Y13 E360.67283
G0 F18000 X-25.368 Y12.5
G1 F2400 X-27.036 Y12.5 E360.7075
G0 F18000 X-27.036 Y12
G1 F2400 X-25.298 Y12 E360.74363
G0 F18000 X-25.227 Y11.5
G1 F2400 X-27.036 Y11.5 E360.78123
G0 F18000 X-27.036 Y11
G1 F2400 X-25.156 Y11 E360.82031
G0 F18000 X-25.077 Y10.5
G1 F2400 X-27.036 Y10.5 E360.86104
G0 F18000 X-27.036 Y10
G1 F2400 X-24.864 Y10 E360.90619
G0 F18000 X-24.651 Y9.5
G1 F2400 X-27.036 Y9.5 E360.95577
G0 F18000 X-27.036 Y9
G1 F2400 X-24.438 Y9 E361.00977
G0 F18000 X-24.224 Y8.5
G1 F2400 X-27.036 Y8.5 E361.06823
G0 F18000 X-27.036 Y8
G1 F2400 X-23.898 Y8 E361.13346
G0 F18000 X-23.506 Y7.5
G1 F2400 X-27.036 Y7.5 E361.20684
G0 F18000 X-27.036 Y7
G1 F2400 X-23.114 Y7 E361.28837
G0 F18000 X-22.721 Y6.5
G1 F2400 X-27.036 Y6.5 E361.37807
G0 F18000 X-27.036 Y6
G1 F2400 X-22.096 Y6 E361.48076
G0 F18000 X-21.43 Y5.5
G1 F2400 X-27.036 Y5.5 E361.59729
G0 F18000 X-27.036 Y5
G1 F2400 X-20.765 Y5 E361.72765
G0 F18000 X-19.54 Y4.5
G1 F2400 X-27.036 Y4.5 E361.88347
G0 F18000 X-27.036 Y4
G1 F2400 X-17.786 Y4 E362.07576
G0 F18000 X-27.036 Y3.5
G0 X-27.036 Y3.5
G1 F2400 X-5.416 Y3.5 E362.52519
G0 F18000 X-5.416 Y3
G1 F2400 X-27.036 Y3 E362.97461
G0 F18000 X-27.036 Y2.5
G1 F2400 X-5.416 Y2.5 E363.42404
G0 F18000 X-5.416 Y2
G1 F2400 X-27.036 Y2 E363.87347
G0 F18000 X-27.036 Y1.5
G1 F2400 X-5.416 Y1.5 E364.3229
G0 F18000 X-5.416 Y1
G1 F2400 X-27.036 Y1 E364.77233
G0 F18000 X-27.036 Y0.5
G1 F2400 X-5.416 Y0.5 E365.22175
G0 F18000 X-5.416 Y0
G1 F2400 X-27.036 Y0 E365.67118
G0 F18000 X-27.036 Y-0.499
G1 F2400 X-5.415 Y-0.499 E366.12063
G0 F18000 X-5.415 Y-0.999
G1 F2400 X-27.036 Y-0.999 E366.57008
G0 F18000 X-27.036 Y-1.499
G1 F2400 X-5.415 Y-1.499 E367.01953
G0 F18000 X-5.415 Y-1.999
G1 F2400 X-27.036 Y-1.999 E367.46897
G0 F18000 X-27.036 Y-2.499
G1 F2400 X-5.415 Y-2.499 E367.91842
G0 F18000 X-5.415 Y-2.999
G1 F2400 X-27.036 Y-2.999 E368.36787
G0 F18000 X-27.036 Y-3.499
G1 F2400 X-5.415 Y-3.499 E368.81732
G0 F18000 X-5.426 Y-23
G0 X-5.426 Y-23
G1 F2400 X-27.025 Y-23 E369.26631
G0 F18000 X-26.841 Y-23.5
G1 F2400 X-5.61 Y-23.5 E369.70765
G1 F6600 E362.90765
G1 Z0.8
G0 F18000 X25.978 Y12.25
G0 X25.478 Y12.75
; TYPE:WALL-INNER
G1 Z0.5
G1 F6600 E369.80765
G1 F2400 X25.478 Y12.75 E369.80765
G1 X27.478 Y12.75 E369.84923
G1 X27.478 Y22.948 E370.06122
G1 X27.429 Y23.323 E370.06908
G1 X27.306 Y23.618 E370.07572
G1 X27.095 Y23.887 E370.08283
G1 X26.836 Y24.081 E370.08956
G1 X26.532 Y24.203 E370.09637
G1 X26.176 Y24.25 E370.10383
G1 X6.278 Y24.25 E370.51746
G1 X5.896 Y24.195 E370.52549
G1 X5.588 Y24.064 E370.53244
G1 X5.351 Y23.882 E370.53865
G1 X5.151 Y23.621 E370.54549
G1 X5.027 Y23.323 E370.5522
G1 X4.978 Y22.948 E370.56006
G1 X4.978 Y-22.947 E371.51411
G1 X5.027 Y-23.322 E371.52197
G1 X5.15 Y-23.617 E371.52861
G1 X5.361 Y-23.886 E371.53572
G1 X5.621 Y-24.081 E371.54248
G1 X5.923 Y-24.202 E371.54924
G1 X6.28 Y-24.249 E371.55672
G1 X26.201 Y-24.246 E371.97083
G1 X26.561 Y-24.195 E371.97839
G1 X26.866 Y-24.064 E371.98529
G1 X27.109 Y-23.877 E371.99167
G1 X27.304 Y-23.622 E371.99834
G1 X27.429 Y-23.322 E372.0051
G1 X27.478 Y-22.947 E372.01296
G1 X27.478 Y-12.726 E372.22543
G1 X25.478 Y-12.664 E372.26702
G1 X25.478 Y-3.718 E372.45299
G1 X23.478 Y-3.718 E372.49456
G1 X23.478 Y3.75 E372.6498
G1 X25.478 Y3.75 E372.69138
G1 X25.478 Y12.75 E372.87847
G0 F18000 X25.978 Y12.25
; TYPE:WALL-OUTER
G1 F2100 X25.978 Y12.25 E372.87847
G1 X27.978 Y12.25 E372.92004
G1 X27.978 Y22.982 E373.14314
G1 X27.916 Y23.452 E373.15299
G1 X27.742 Y23.873 E373.16246
G1 X27.448 Y24.248 E373.17237
G1 X27.082 Y24.521 E373.18186
G1 X26.66 Y24.691 E373.19131
G1 X26.21 Y24.75 E373.20075
G1 X6.242 Y24.75 E373.61584
G1 X5.759 Y24.681 E373.62598
G1 X5.335 Y24.5 E373.63556
G1 X4.992 Y24.236 E373.64456
G1 X4.715 Y23.876 E373.654
G1 X4.54 Y23.452 E373.66354
G1 X4.478 Y22.982 E373.67339
G1 X4.478 Y-22.981 E374.62885
G1 X4.54 Y-23.452 E374.63873
G1 X4.714 Y-23.872 E374.64818
G1 X5.009 Y-24.246 E374.65808
G1 X5.374 Y-24.52 E374.66757
G1 X5.797 Y-24.69 E374.67704
G1 X6.246 Y-24.749 E374.68646
G1 X26.237 Y-24.746 E375.10202
G1 X26.698 Y-24.68 E375.1117
G1 X27.121 Y-24.499 E375.12127
G1 X27.465 Y-24.235 E375.13028
G1 X27.741 Y-23.875 E375.13971
G1 X27.916 Y-23.452 E375.14923
G1 X27.978 Y-22.981 E375.1591
G1 X27.978 Y-12.241 E375.38236
G1 X25.978 Y-12.179 E375.42396
G1 X25.978 Y-3.218 E375.61023
G1 X23.978 Y-3.218 E375.65181
G1 X23.978 Y3.25 E375.78626
G1 X25.978 Y3.25 E375.82784
G1 X25.978 Y12.25 E376.01493
G0 F18000 X25.038 Y12.499
; TYPE:FILL
G1 F2400 X5.417 Y12.5 E376.4228
G0 F18000 X5.417 Y13
G1 F2400 X25.038 Y12.999 E376.83067
G0 F18000 X25.038 Y11.999
G1 F2400 X5.417 Y12 E377.23854
G0 F18000 X5.417 Y11.5
G1 F2400 X25.038 Y11.499 E377.64642
G0 F18000 X25.038 Y10.999
G1 F2400 X5.417 Y11 E378.05429
G0 F18000 X5.417 Y10.5
G1 F2400 X25.038 Y10.499 E378.46216
G0 F18000 X25.038 Y9.999
G1 F2400 X5.417 Y10 E378.87004
G0 F18000 X5.417 Y9.5
G1 F2400 X25.038 Y9.499 E379.27791
G0 F18000 X25.038 Y8.999
G1 F2400 X5.417 Y9 E379.68578
G0 F18000 X5.417 Y8.5
G1 F2400 X25.038 Y8.499 E380.09366
G0 F18000 X25.038 Y7.999
G1 F2400 X5.417 Y8 E380.50153
G0 F18000 X5.417 Y7.5
G1 F2400 X25.038 Y7.499 E380.9094
G0 F18000 X25.038 Y6.999
G1 F2400 X5.417 Y7 E381.31728
G0 F18000 X5.417 Y6.5
G1 F2400 X25.038 Y6.499 E381.72515
G0 F18000 X25.038 Y5.999
G1 F2400 X5.417 Y6 E382.13302
G0 F18000 X5.417 Y5.5
G1 F2400 X25.038 Y5.499 E382.5409
G0 F18000 X25.038 Y4.999
G1 F2400 X5.417 Y5 E382.94877
G0 F18000 X5.417 Y4.5
G1 F2400 X25.038 Y4.499 E383.35664
G0 F18000 X23.038 Y3.999
G1 F2400 X5.417 Y3.999 E383.72294
G0 F18000 X5.417 Y3.499
G1 F2400 X23.038 Y3.499 E384.08924
G0 F18000 X23.038 Y2.999
G1 F2400 X5.417 Y2.999 E384.45554
G0 F18000 X5.417 Y2.499
G1 F2400 X23.038 Y2.499 E384.82183
G0 F18000 X23.038 Y1.999
G1 F2400 X5.417 Y1.999 E385.18813
G0 F18000 X5.417 Y1.499
G1 F2400 X23.038 Y1.499 E385.55443
G0 F18000 X23.038 Y0.999
G1 F2400 X5.417 Y0.999 E385.92073
G0 F18000 X5.417 Y0.499
G1 F2400 X23.038 Y0.499 E386.28703
G0 F18000 X23.038 Y0
G1 F2400 X5.418 Y0 E386.6533
G0 F18000 X5.418 Y-0.5
G1 F2400 X23.038 Y-0.5 E387.01958
G0 F18000 X23.038 Y-1
G1 F2400 X5.418 Y-1 E387.38586
G0 F18000 X5.418 Y-1.5
G1 F2400 X23.038 Y-1.5 E387.75214
G0 F18000 X23.038 Y-2
G1 F2400 X5.418 Y-2 E388.11841
G0 F18000 X5.418 Y-2.5
G1 F2400 X23.038 Y-2.5 E388.48469
G0 F18000 X23.038 Y-3
G1 F2400 X5.418 Y-3 E388.85097
G0 F18000 X5.418 Y-3.5
G1 F2400 X23.038 Y-3.5 E389.21724
G0 F18000 X23.038 Y-4
G1 F2400 X5.418 Y-4 E389.58352
G0 F18000 X5.418 Y-4.5
G1 F2400 X25.038 Y-4.5 E389.99137
G0 F18000 X25.038 Y-5
G1 F2400 X5.418 Y-5 E390.39923
G0 F18000 X5.418 Y-5.5
G1 F2400 X25.038 Y-5.5 E390.80708
G0 F18000 X25.038 Y-6
G1 F2400 X5.418 Y-6 E391.21493
G0 F18000 X5.418 Y-6.5
G1 F2400 X25.038 Y-6.5 E391.62278
G0 F18000 X25.038 Y-7
G1 F2400 X5.418 Y-7 E392.03064
G0 F18000 X5.417 Y-7.5
G1 F2400 X25.038 Y-7.5 E392.43851
G0 F18000 X25.038 Y-8
G1 F2400 X5.417 Y-8 E392.84638
G0 F18000 X5.417 Y-8.5
G1 F2400 X25.038 Y-8.5 E393.25426
G0 F18000 X25.038 Y-9
G1 F2400 X5.417 Y-9 E393.66213
G0 F18000 X5.417 Y-9.5
G1 F2400 X25.038 Y-9.5 E394.07
G0 F18000 X25.038 Y-10
G1 F2400 X5.417 Y-10 E394.47788
G0 F18000 X5.417 Y-10.5
G1 F2400 X25.038 Y-10.5 E394.88575
G0 F18000 X25.038 Y-11
G1 F2400 X5.417 Y-11 E395.29362
G0 F18000 X5.417 Y-11.5
G1 F2400 X25.038 Y-11.5 E395.7015
G0 F18000 X25.038 Y-12
G1 F2400 X5.417 Y-12 E396.10937
G0 F18000 X5.417 Y-12.5
G1 F2400 X25.038 Y-12.5 E396.51724
G0 F18000 X25.038 Y-13
G1 F2400 X5.417 Y-13 E396.92511
G0 F18000 X5.417 Y-13.5
G1 F2400 X27.038 Y-13.5 E397.37456
G0 F18000 X27.038 Y-14
G1 F2400 X5.417 Y-14 E397.82401
G0 F18000 X5.417 Y-14.5
G1 F2400 X27.038 Y-14.5 E398.27346
G0 F18000 X27.038 Y-15
G1 F2400 X5.417 Y-15 E398.72291
G0 F18000 X5.417 Y-15.5
G1 F2400 X27.038 Y-15.5 E399.17236
G0 F18000 X27.038 Y-16
G1 F2400 X5.417 Y-16 E399.62181
G0 F18000 X5.417 Y-16.5
G1 F2400 X27.038 Y-16.5 E400.07125
G0 F18000 X27.038 Y-17
G1 F2400 X5.417 Y-17 E400.5207
G0 F18000 X5.417 Y-17.5
G1 F2400 X27.038 Y-17.5 E400.97015
G0 F18000 X27.038 Y-18
G1 F2400 X5.417 Y-18 E401.4196
G0 F18000 X5.417 Y-18.5
G1 F2400 X27.038 Y-18.5 E401.86905
G0 F18000 X27.038 Y-19
G1 F2400 X5.417 Y-19 E402.3185
G0 F18000 X5.417 Y-19.5
G1 F2400 X27.038 Y-19.5 E402.76794
G0 F18000 X27.038 Y-20
G1 F2400 X5.417 Y-20 E403.21739
G0 F18000 X5.417 Y-20.5
G1 F2400 X27.038 Y-20.5 E403.66684
G0 F18000 X27.038 Y-21
G1 F2400 X5.417 Y-21 E404.11629
G0 F18000 X5.417 Y-21.5
G1 F2400 X27.038 Y-21.5 E404.56574
G0 F18000 X27.038 Y-22
G1 F2400 X5.417 Y-22 E405.01519
G0 F18000 X5.417 Y-22.5
G1 F2400 X27.038 Y-22.5 E405.46463
G0 F18000 X27.027 Y-23
G1 F2400 X5.428 Y-23 E405.91362
G0 F18000 X5.617 Y-23.5
G1 F2400 X26.843 Y-23.5 E406.35486
G1 F6600 E399.55486
G1 Z0.8
G0 F18000 X26.899 Y-12.657
G0 X25.585 Y-12.561
G0 X25.587 Y-3.609
G0 X23.587 Y-3.609
G0 X23.587 Y3.641
G0 X25.587 Y3.641
G0 X25.587 Y12.641
G0 X27.033 Y12.698
G0 X27.038 Y13.499
G0 X27.038 Y13.499
G1 Z0.5
G1 F6600 E406.45486
G1 F2400 X5.417 Y13.5 E406.90431
G0 F18000 X5.417 Y14
G1 F2400 X27.038 Y13.999 E407.35376
G0 F18000 X27.038 Y14.499
G1 F2400 X5.417 Y14.5 E407.80321
G0 F18000 X5.417 Y15
G1 F2400 X27.038 Y14.999 E408.25266
G0 F18000 X27.038 Y15.499
G1 F2400 X5.417 Y15.5 E408.7021
G0 F18000 X5.417 Y16
G1 F2400 X27.038 Y15.999 E409.15155
G0 F18000 X27.038 Y16.5
G1 F2400 X5.417 Y16.5 E409.601
G0 F18000 X5.417 Y17
G1 F2400 X27.038 Y17 E410.05045
G0 F18000 X27.038 Y17.5
G1 F2400 X5.417 Y17.5 E410.4999
G0 F18000 X5.417 Y18
G1 F2400 X27.038 Y18 E410.94935
G0 F18000 X27.038 Y18.5
G1 F2400 X5.417 Y18.5 E411.39879
G0 F18000 X5.417 Y19
G1 F2400 X27.038 Y19 E411.84824
G0 F18000 X27.038 Y19.5
G1 F2400 X5.417 Y19.5 E412.29769
G0 F18000 X5.417 Y20
G1 F2400 X27.038 Y20 E412.74714
G0 F18000 X27.038 Y20.5
G1 F2400 X5.417 Y20.5 E413.19659
G0 F18000 X5.417 Y21
G1 F2400 X27.038 Y21 E413.64604
G0 F18000 X27.038 Y21.5
G1 F2400 X5.417 Y21.5 E414.09548
G0 F18000 X5.417 Y22
G1 F2400 X27.038 Y22 E414.54493
G0 F18000 X27.038 Y22.5
G1 F2400 X5.417 Y22.5 E414.99438
G0 F18000 X5.428 Y23
G1 F2400 X27.027 Y23 E415.44337
G0 F18000 X26.839 Y23.5
G1 F2400 X5.611 Y23.5 E415.88465
; Layer Change GCode
; LAYER:3
G1 F6600 E409.08465
G1 Z0.8
G0 F18000 X-26.209 Y24.75 Z0.9
G0 X-26.175 Y24.25
; TYPE:WALL-INNER
G1 Z0.6
G1 F6600 E415.98465
G1 F2400 X-26.175 Y24.25 E415.98465
G1 X-26.55 Y24.201 E415.99251
G1 X-26.848 Y24.077 E415.99922
G1 X-27.106 Y23.879 E416.00598
G1 X-27.305 Y23.62 E416.01277
G1 X-27.41 Y23.364 E416.01852
G1 X-27.476 Y19.503 E416.0988
G1 X-27.476 Y-22.947 E416.98123
G1 X-27.426 Y-23.324 E416.98914
G1 X-27.305 Y-23.619 E416.99576
G1 X-27.106 Y-23.878 E417.00255
G1 X-26.848 Y-24.076 E417.00931
G1 X-26.55 Y-24.2 E417.01602
G1 X-26.175 Y-24.249 E417.02388
G1 X-6.278 Y-24.249 E417.4375
G1 X-5.903 Y-24.2 E417.44536
G1 X-5.605 Y-24.076 E417.45207
G1 X-5.347 Y-23.878 E417.45883
G1 X-5.148 Y-23.619 E417.46562
G1 X-5.025 Y-23.321 E417.47232
G1 X-4.976 Y-22.953 E417.48004
G1 X-4.976 Y22.953 E418.43431
G1 X-5.025 Y23.321 E418.44203
G1 X-5.148 Y23.62 E418.44875
G1 X-5.347 Y23.879 E418.45554
G1 X-5.605 Y24.077 E418.4623
G1 X-5.903 Y24.201 E418.46901
G1 X-6.278 Y24.25 E418.47687
G1 X-26.175 Y24.25 E418.89048
G0 F18000 X-26.209 Y24.75
; TYPE:WALL-OUTER
G1 F2100 X-26.209 Y24.75 E418.89048
G1 X-26.679 Y24.688 E418.90034
G1 X-27.103 Y24.513 E418.90987
G1 X-27.463 Y24.236 E418.91931
G1 X-27.74 Y23.875 E418.92877
G1 X-27.909 Y23.466 E418.93797
G1 X-27.976 Y19.503 E419.02036
G1 X-27.976 Y-22.981 E419.9035
G1 X-27.914 Y-23.453 E419.9134
G1 X-27.741 Y-23.874 E419.92286
G1 X-27.463 Y-24.235 E419.93233
G1 X-27.103 Y-24.512 E419.94178
G1 X-26.679 Y-24.687 E419.95131
G1 X-26.209 Y-24.749 E419.96117
G1 X-6.244 Y-24.749 E420.37619
G1 X-5.774 Y-24.687 E420.38604
G1 X-5.35 Y-24.512 E420.39558
G1 X-4.99 Y-24.235 E420.40502
G1 X-4.712 Y-23.874 E420.41449
G1 X-4.539 Y-23.453 E420.42396
G1 X-4.476 Y-22.981 E420.43385
G1 X-4.476 Y22.982 E421.38931
G1 X-4.539 Y23.453 E421.39919
G1 X-4.713 Y23.875 E421.40868
G1 X-4.99 Y24.236 E421.41814
G1 X-5.35 Y24.513 E421.42758
G1 X-5.774 Y24.688 E421.43712
G1 X-6.244 Y24.75 E421.44697
G1 X-26.209 Y24.75 E421.862
G0 F18000 X-26.188 Y24.4
G0 X-22.481 Y19.127
G0 X-22.481 Y19.127
; TYPE:WALL-INNER
G1 F2400 X-22.481 Y19.127 E421.862
G1 X-20.683 Y20.537 E421.90949
G1 X-18.58 Y21.434 E421.95702
G1 X-16.317 Y21.755 E422.00453
G1 X-14.048 Y21.481 E422.05204
G1 X-11.927 Y20.628 E422.09957
G1 X-10.099 Y19.255 E422.14709
G1 X-8.689 Y17.456 E422.19461
G1 X-7.792 Y15.353 E422.24213
G1 X-7.471 Y13.09 E422.28965
G1 X-7.745 Y10.821 E422.33716
G1 X-8.598 Y8.7 E422.38468
G1 X-9.972 Y6.872 E422.43222
G1 X-11.77 Y5.462 E422.47971
G1 X-13.873 Y4.565 E422.52724
G1 X-16.136 Y4.244 E422.57475
G1 X-18.405 Y4.518 E422.62226
G1 X-20.526 Y5.372 E422.66979
G1 X-22.354 Y6.745 E422.71732
G1 X-23.764 Y8.544 E422.76483
G1 X-24.661 Y10.647 E422.81236
G1 X-24.982 Y12.909 E422.85985
G1 X-24.708 Y15.179 E422.90738
G1 X-23.855 Y17.3 E422.95491
G1 X-22.481 Y19.127 E423.00243
G0 F18000 X-21.831 Y19.388
G0 X-20.656 Y20.492
G0 X-18.566 Y21.383
G0 X-16.56 Y21.516
G0 X-16.362 Y21.597
G0 X-16.362 Y21.597
G0 X-16.312 Y21.251
; TYPE:WALL-OUTER
G1 F2100 X-16.312 Y21.251 E423.00243
G1 X-14.173 Y20.992 E423.04721
G1 X-12.174 Y20.189 E423.092
G1 X-10.452 Y18.895 E423.13677
G1 X-9.123 Y17.199 E423.18156
G1 X-8.278 Y15.218 E423.22633
G1 X-7.975 Y13.085 E423.27112
G1 X-8.234 Y10.946 E423.31591
G1 X-9.037 Y8.947 E423.36069
G1 X-10.332 Y7.225 E423.40548
G1 X-12.027 Y5.896 E423.45025
G1 X-14.008 Y5.051 E423.49502
G1 X-16.141 Y4.748 E423.53981
G1 X-18.28 Y5.007 E423.5846
G1 X-20.279 Y5.811 E423.62939
G1 X-22.001 Y7.105 E423.67416
G1 X-23.33 Y8.801 E423.71895
G1 X-24.175 Y10.782 E423.76372
G1 X-24.478 Y12.914 E423.80849
G1 X-24.219 Y15.054 E423.8533
G1 X-23.416 Y17.052 E423.89806
G1 X-22.121 Y18.774 E423.94285
G1 X-20.426 Y20.103 E423.98762
G1 X-18.445 Y20.948 E424.03239
G1 X-16.312 Y21.251 E424.07718
G1 F6600 E417.27718
G1 Z0.9
G0 F18000 X-16.362 Y21.597
G0 X-16.358 Y21.707
G0 X-16.316 Y21.703
G0 X-18.566 Y21.383
G0 X-20.656 Y20.492
G0 X-22.443 Y19.09
G0 X-23.809 Y17.274
G0 X-24.656 Y15.165
G0 X-24.93 Y12.91
G0 X-24.61 Y10.661
G0 X-23.719 Y8.571
G0 X-22.318 Y6.783
G0 X-20.501 Y5.418
G0 X-18.392 Y4.57
G0 X-16.748 Y4.368
G0 X-16.943 Y-4.272
G0 X-16.943 Y-4.272
; TYPE:WALL-INNER
G1 Z0.6
G1 F6600 E424.17718
G1 F2400 X-16.943 Y-4.272 E424.17718
G1 X-14.661 Y-4.384 E424.22467
G1 X-12.484 Y-5.083 E424.2722
G1 X-10.563 Y-6.321 E424.31971
G1 X-9.027 Y-8.015 E424.36725
G1 X-7.983 Y-10.048 E424.41475
G1 X-7.499 Y-12.282 E424.46227
G1 X-7.612 Y-14.565 E424.50979
G1 X-8.31 Y-16.742 E424.55731
G1 X-9.549 Y-18.663 E424.60483
G1 X-11.242 Y-20.199 E424.65235
G1 X-13.275 Y-21.243 E424.69986
G1 X-15.51 Y-21.726 E424.74739
G1 X-17.792 Y-21.614 E424.79488
G1 X-19.969 Y-20.916 E424.84241
G1 X-21.89 Y-19.677 E424.88993
G1 X-23.426 Y-17.984 E424.93744
G1 X-24.47 Y-15.95 E424.98497
G1 X-24.954 Y-13.716 E425.03249
G1 X-24.841 Y-11.433 E425.08
G1 X-24.143 Y-9.257 E425.12751
G1 X-22.904 Y-7.336 E425.17503
G1 X-21.211 Y-5.8 E425.22255
G1 X-19.178 Y-4.755 E425.27006
G1 X-16.943 Y-4.272 E425.3176
G0 F18000 X-16.902 Y-4.775
; TYPE:WALL-OUTER
G1 F2100 X-16.902 Y-4.775 E425.3176
G1 X-14.751 Y-4.88 E425.36236
G1 X-12.699 Y-5.539 E425.40717
G1 X-10.889 Y-6.706 E425.45193
G1 X-9.442 Y-8.302 E425.49672
G1 X-8.458 Y-10.218 E425.54149
G1 X-8.002 Y-12.323 E425.58626
G1 X-8.108 Y-14.475 E425.63105
G1 X-8.766 Y-16.527 E425.67585
G1 X-9.934 Y-18.337 E425.72063
G1 X-11.529 Y-19.784 E425.76539
G1 X-13.445 Y-20.768 E425.81017
G1 X-15.551 Y-21.223 E425.85496
G1 X-17.702 Y-21.118 E425.89973
G1 X-19.754 Y-20.46 E425.94452
G1 X-21.564 Y-19.292 E425.9893
G1 X-23.011 Y-17.697 E426.03407
G1 X-23.995 Y-15.78 E426.07886
G1 X-24.451 Y-13.675 E426.12363
G1 X-24.345 Y-11.523 E426.16842
G1 X-23.687 Y-9.472 E426.2132
G1 X-22.519 Y-7.662 E426.25798
G1 X-20.924 Y-6.215 E426.30275
G1 X-19.008 Y-5.23 E426.34753
G1 X-16.902 Y-4.775 E426.39232
G0 F18000 X-17 Y-3.833
; TYPE:FILL
G1 F2400 X-17 Y3.905 E426.55317
G0 F18000 X-16.5 Y3.845
G1 F2400 X-16.5 Y-3.852 E426.71317
G0 F18000 X-16 Y-3.877
G1 F2400 X-16 Y3.818 E426.87313
G0 F18000 X-15.5 Y3.889
G1 F2400 X-15.5 Y-3.901 E427.03507
G0 F18000 X-15 Y-3.926
G1 F2400 X-15 Y3.96 E427.199
G0 F18000 X-14.5 Y4.031
G1 F2400 X-14.5 Y-3.973 E427.36538
G0 F18000 X-14 Y-4.133
G1 F2400 X-14 Y4.101 E427.53655
G0 F18000 X-13.5 Y4.245
G1 F2400 X-13.5 Y-4.293 E427.71403
G0 F18000 X-13 Y-4.454
G1 F2400 X-13 Y4.458 E427.89929
G0 F18000 X-12.5 Y4.671
G1 F2400 X-12.5 Y-4.614 E428.09231
G0 F18000 X-12 Y-4.87
G1 F2400 X-12 Y4.884 E428.29507
G0 F18000 X-11.5 Y5.113
G1 F2400 X-11.5 Y-5.192 E428.50928
G0 F18000 X-11 Y-5.514
G1 F2400 X-11 Y5.505 E428.73834
G0 F18000 X-10.5 Y5.898
G1 F2400 X-10.5 Y-5.837 E428.98228
G0 F18000 X-10 Y-6.285
G1 F2400 X-10 Y6.29 E429.24369
G0 F18000 X-9.5 Y6.767
G1 F2400 X-9.5 Y-6.836 E429.52646
G0 F18000 X-9 Y-7.386
G1 F2400 X-8.999 Y7.432 E429.83449
G0 F18000 X-8.499 Y8.097
G1 F2400 X-8.5 Y-8.073 E430.17063
G0 F18000 X-8 Y-9.047
G1 F2400 X-7.999 Y9.008 E430.54595
G0 F18000 X-7.499 Y10.252
G1 F2400 X-7.5 Y-10.194 E430.97097
G0 F18000 X-7.5 Y-15.659
G0 X-7.5 Y-15.659
G1 F2400 X-7.5 Y-23.809 E431.14039
G0 F18000 X-7 Y-23.809
G1 F2400 X-6.999 Y23.81 E432.13027
G0 F18000 X-7.499 Y23.81
G1 F2400 X-7.499 Y15.79 E432.29699
G0 F18000 X-7.999 Y16.963
G1 F2400 X-7.999 Y23.81 E432.43932
G0 F18000 X-8.499 Y23.81
G1 F2400 X-8.499 Y17.929 E432.56157
G0 F18000 X-8.999 Y18.566
G1 F2400 X-8.999 Y23.81 E432.67058
G0 F18000 X-9.499 Y23.81
G1 F2400 X-9.499 Y19.204 E432.76633
G0 F18000 X-9.999 Y19.73
G1 F2400 X-9.999 Y23.81 E432.85115
G0 F18000 X-10.499 Y23.81
G1 F2400 X-10.499 Y20.106 E432.92814
G0 F18000 X-10.999 Y20.482
G1 F2400 X-10.999 Y23.81 E432.99732
G0 F18000 X-11.499 Y23.81
G1 F2400 X-11.499 Y20.858 E433.05869
G0 F18000 X-11.999 Y21.131
G1 F2400 X-11.999 Y23.81 E433.11438
G0 F18000 X-12.499 Y23.81
G1 F2400 X-12.499 Y21.332 E433.16589
G0 F18000 X-12.999 Y21.533
G1 F2400 X-12.999 Y23.81 E433.21322
G0 F18000 X-13.499 Y23.81
G1 F2400 X-13.499 Y21.734 E433.25638
G0 F18000 X-13.999 Y21.918
G1 F2400 X-13.999 Y23.81 E433.29571
G0 F18000 X-14.499 Y23.81
G1 F2400 X-14.499 Y21.978 E433.33379
G0 F18000 X-14.999 Y22.038
G1 F2400 X-14.999 Y23.81 E433.37063
G0 F18000 X-15.499 Y23.81
G1 F2400 X-15.499 Y22.098 E433.40622
G0 F18000 X-15.999 Y22.158
G1 F2400 X-15.999 Y23.81 E433.44056
G0 F18000 X-16.499 Y23.809
G1 F2400 X-16.499 Y22.172 E433.47459
G0 F18000 X-16.999 Y22.101
G1 F2400 X-16.999 Y23.809 E433.51009
G0 F18000 X-17.499 Y23.809
G1 F2400 X-17.499 Y22.031 E433.54705
G0 F18000 X-17.999 Y21.96
G1 F2400 X-17.999 Y23.809 E433.58549
G0 F18000 X-18.499 Y23.809
G1 F2400 X-18.499 Y21.889 E433.6254
G0 F18000 X-18.999 Y21.732
G1 F2400 X-18.999 Y23.809 E433.66858
G0 F18000 X-19.499 Y23.809
G1 F2400 X-19.499 Y21.519 E433.71618
G0 F18000 X-19.999 Y21.306
G1 F2400 X-19.999 Y23.809 E433.76821
G0 F18000 X-20.499 Y23.809
G1 F2400 X-20.499 Y21.093 E433.82467
G0 F18000 X-20.999 Y20.847
G1 F2400 X-20.999 Y23.809 E433.88624
G0 F18000 X-21.499 Y23.809
G1 F2400 X-21.499 Y20.455 E433.95596
G0 F18000 X-21.999 Y20.063
G1 F2400 X-21.999 Y23.809 E434.03383
G0 F18000 X-22.499 Y23.809
G1 F2400 X-22.499 Y19.67 E434.11987
G0 F18000 X-22.999 Y19.167
G1 F2400 X-22.999 Y23.809 E434.21637
G0 F18000 X-23.499 Y23.809
G1 F2400 X-23.499 Y18.503 E434.32667
G0 F18000 X-23.999 Y17.838
G1 F2400 X-23.999 Y23.809 E434.45079
G0 F18000 X-24.499 Y23.809
G1 F2400 X-24.499 Y16.874 E434.59495
G0 F18000 X-24.999 Y15.63
G1 F2400 X-24.999 Y23.809 E434.76497
G0 F18000 X-25.499 Y23.809
G1 F2400 X-25.5 Y-23.808 E435.75482
G0 F18000 X-25 Y-23.808
G1 F2400 X-25 Y-15.577 E435.92592
G0 F18000 X-24.5 Y-16.854
G1 F2400 X-24.5 Y-23.808 E436.07048
G0 F18000 X-24 Y-23.808
G1 F2400 X-24 Y-17.829 E436.19477
G0 F18000 X-23.5 Y-18.557
G1 F2400 X-23.5 Y-23.808 E436.30392
G0 F18000 X-23 Y-23.808
G1 F2400 X-23 Y-19.107 E436.40164
G0 F18000 X-22.5 Y-19.658
G1 F2400 X-22.5 Y-23.808 E436.48791
G0 F18000 X-22 Y-23.808
G1 F2400 X-22 Y-20.128 E436.56441
G0 F18000 X-21.5 Y-20.451
G1 F2400 X-21.5 Y-23.808 E436.63419
G0 F18000 X-21 Y-23.808
G1 F2400 X-21 Y-20.774 E436.69726
G0 F18000 X-20.5 Y-21.096
G1 F2400 X-20.5 Y-23.808 E436.75364
G0 F18000 X-20 Y-23.808
G1 F2400 X-20 Y-21.368 E436.80436
G0 F18000 X-19.5 Y-21.528
G1 F2400 X-19.5 Y-23.808 E436.85176
G0 F18000 X-19 Y-23.808
G1 F2400 X-19 Y-21.688 E436.89583
G0 F18000 X-18.5 Y-21.848
G1 F2400 X-18.5 Y-23.808 E436.93657
G0 F18000 X-18 Y-23.808
G1 F2400 X-18 Y-22.008 E436.97399
G0 F18000 X-17.5 Y-22.067
G1 F2400 X-17.5 Y-23.808 E437.01018
G0 F18000 X-17 Y-23.808
G1 F2400 X-17 Y-22.092 E437.04585
G0 F18000 X-16.5 Y-22.117
G1 F2400 X-16.5 Y-23.808 E437.081
G0 F18000 X-16 Y-23.808
G1 F2400 X-16 Y-22.142 E437.11563
G0 F18000 X-15.5 Y-22.167
G1 F2400 X-15.5 Y-23.808 E437.14975
G0 F18000 X-15 Y-23.808
G1 F2400 X-15 Y-22.065 E437.18598
G0 F18000 X-14.5 Y-21.958
G1 F2400 X-14.5 Y-23.809 E437.22446
G0 F18000 X-14 Y-23.809
G1 F2400 X-14 Y-21.85 E437.26518
G0 F18000 X-13.5 Y-21.742
G1 F2400 X-13.5 Y-23.809 E437.30815
G0 F18000 X-13 Y-23.809
G1 F2400 X-13 Y-21.598 E437.35411
G0 F18000 X-12.5 Y-21.341
G1 F2400 X-12.5 Y-23.809 E437.40541
G0 F18000 X-12 Y-23.809
G1 F2400 X-12 Y-21.085 E437.46204
G0 F18000 X-11.5 Y-20.828
G1 F2400 X-11.5 Y-23.809 E437.52401
G0 F18000 X-11 Y-23.809
G1 F2400 X-11 Y-20.571 E437.59132
G0 F18000 X-10.5 Y-20.122
G1 F2400 X-10.5 Y-23.809 E437.66796
G0 F18000 X-10 Y-23.809
G1 F2400 X-10 Y-19.668 E437.75404
G0 F18000 X-9.5 Y-19.214
G1 F2400 X-9.5 Y-23.809 E437.84956
G0 F18000 X-9 Y-23.809
G1 F2400 X-9 Y-18.626 E437.9573
G0 F18000 X-8.5 Y-17.851
G1 F2400 X-8.5 Y-23.809 E438.08116
G0 F18000 X-8 Y-23.809
G1 F2400 X-8 Y-17.076 E438.22112
G0 F18000 X-5.5 Y-23.319
G0 X-5.5 Y-23.319
G1 F2400 X-5.499 Y23.319 E439.19061
G0 F18000 X-5.999 Y23.764
G1 F2400 X-6 Y-23.764 E440.1786
G0 F18000 X-6.5 Y-23.809
G1 F2400 X-6.499 Y23.81 E441.16849
G0 F18000 X-25.999 Y23.809
G0 X-25.999 Y23.809
G1 F2400 X-26 Y-23.808 E442.15833
G0 F18000 X-26.5 Y-23.742
G1 F2400 X-26.499 Y23.744 E443.14545
G0 F18000 X-26.999 Y21.623
G0 X-26.999 Y21.623
G1 F2400 X-27 Y-23.179 E444.07677
G0 F18000 X-25 Y-10.487
G0 X-25 Y-10.487
G1 F2400 X-25 Y10.319 E444.50928
G0 F18000 X-24.5 Y9.146
G1 F2400 X-24.5 Y-8.996 E444.88641
G0 F18000 X-24 Y-8.222
G1 F2400 X-24 Y8.13 E445.22633
G0 F18000 X-23.5 Y7.492
G1 F2400 X-23.5 Y-7.447 E445.53687
G0 F18000 X-23 Y-6.827
G1 F2400 X-23 Y6.855 E445.82129
G0 F18000 X-22.5 Y6.304
G1 F2400 X-22.5 Y-6.373 E446.08481
G0 F18000 X-22 Y-5.92
G1 F2400 X-22 Y5.928 E446.3311
G0 F18000 X-21.5 Y5.552
G1 F2400 X-21.5 Y-5.466 E446.56014
G0 F18000 X-21 Y-5.195
G1 F2400 X-21 Y5.177 E446.77575
G0 F18000 X-20.5 Y4.886
G1 F2400 X-20.5 Y-4.938 E446.97997
G0 F18000 X-20 Y-4.681
G1 F2400 X-20 Y4.685 E447.17466
G0 F18000 X-19.5 Y4.484
G1 F2400 X-19.5 Y-4.424 E447.35984
G0 F18000 X-19 Y-4.265
G1 F2400 X-19 Y4.283 E447.53753
G0 F18000 X-18.5 Y4.086
G1 F2400 X-18.5 Y-4.157 E447.70888
G0 F18000 X-18 Y-4.049
G1 F2400 X-18 Y4.026 E447.87674
G0 F18000 X-17.5 Y3.965
G1 F2400 X-17.5 Y-3.941 E448.04109
G1 F6600 E441.24109
G1 Z0.9
G0 F18000 X25.978 Y12.25
G0 X25.478 Y12.75
; TYPE:WALL-INNER
G1 Z0.6
G1 F6600 E448.14109
G1 F2400 X25.478 Y12.75 E448.14109
G1 X27.478 Y12.75 E448.18267
G1 X27.478 Y22.948 E448.39466
G1 X27.429 Y23.323 E448.40252
G1 X27.307 Y23.616 E448.40912
G1 X27.092 Y23.888 E448.41632
G1 X26.829 Y24.085 E448.42315
G1 X26.531 Y24.204 E448.42983
G1 X26.177 Y24.25 E448.43725
G1 X6.281 Y24.25 E448.85084
G1 X5.89 Y24.193 E448.85905
G1 X5.588 Y24.064 E448.86588
G1 X5.35 Y23.88 E448.87213
G1 X5.151 Y23.621 E448.87892
G1 X5.027 Y23.323 E448.88563
G1 X4.978 Y22.948 E448.89349
G1 X4.978 Y-22.947 E449.84754
G1 X5.027 Y-23.322 E449.8554
G1 X5.149 Y-23.617 E449.86203
G1 X5.363 Y-23.886 E449.86918
G1 X5.624 Y-24.081 E449.87595
G1 X5.93 Y-24.203 E449.8828
G1 X6.279 Y-24.249 E449.89012
G1 X26.203 Y-24.245 E450.30429
G1 X26.565 Y-24.192 E450.3119
G1 X26.868 Y-24.062 E450.31875
G1 X27.109 Y-23.877 E450.32506
G1 X27.304 Y-23.622 E450.33174
G1 X27.429 Y-23.322 E450.33849
G1 X27.478 Y-22.947 E450.34636
G1 X27.478 Y-12.726 E450.55883
G1 X25.478 Y-12.664 E450.60042
G1 X25.478 Y-3.718 E450.78639
G1 X23.478 Y-3.718 E450.82796
G1 X23.478 Y3.75 E450.9832
G1 X25.478 Y3.75 E451.02478
G1 X25.478 Y12.75 E451.21187
G0 F18000 X25.978 Y12.25
; TYPE:WALL-OUTER
G1 F2100 X25.978 Y12.25 E451.21187
G1 X27.978 Y12.25 E451.25344
G1 X27.978 Y22.982 E451.47653
G1 X27.916 Y23.452 E451.48639
G1 X27.742 Y23.873 E451.49586
G1 X27.445 Y24.249 E451.50582
G1 X27.077 Y24.523 E451.51536
G1 X26.655 Y24.692 E451.52481
G1 X26.211 Y24.75 E451.53411
G1 X6.243 Y24.75 E451.9492
G1 X5.755 Y24.679 E451.95945
G1 X5.332 Y24.497 E451.96902
G1 X4.991 Y24.234 E451.97798
G1 X4.715 Y23.876 E451.98737
G1 X4.54 Y23.452 E451.99691
G1 X4.478 Y22.982 E452.00676
G1 X4.478 Y-22.981 E452.96222
G1 X4.54 Y-23.452 E452.9721
G1 X4.714 Y-23.872 E452.98155
G1 X5.012 Y-24.249 E452.99154
G1 X5.378 Y-24.522 E453.00103
G1 X5.802 Y-24.691 E453.01052
G1 X6.245 Y-24.749 E453.01981
G1 X26.241 Y-24.745 E453.43547
G1 X26.701 Y-24.678 E453.44514
G1 X27.126 Y-24.495 E453.45476
G1 X27.465 Y-24.235 E453.46364
G1 X27.741 Y-23.875 E453.47307
G1 X27.916 Y-23.452 E453.48258
G1 X27.978 Y-22.981 E453.49246
G1 X27.978 Y-12.241 E453.71572
G1 X25.978 Y-12.179 E453.75731
G1 X25.978 Y-3.218 E453.94359
G1 X23.978 Y-3.218 E453.98516
G1 X23.978 Y3.25 E454.11962
G1 X25.978 Y3.25 E454.16119
G1 X25.978 Y12.25 E454.34828
G0 F18000 X26 Y13.189
; TYPE:FILL
G1 F2400 X26 Y23.809 E454.56905
G0 F18000 X25.5 Y23.809
G1 F2400 X25.5 Y13.189 E454.78981
G0 F18000 X26.5 Y13.189
G1 F2400 X26.5 Y23.742 E455.00918
G0 F18000 X27 Y23.199
G1 F2400 X27 Y13.189 E455.21727
G0 F18000 X26.889 Y12.694
G0 X25.587 Y12.641
G0 X25.684 Y7.271
G0 X25 Y4.189
G0 X25 Y4.189
G1 F2400 X25 Y23.809 E455.62512
G0 F18000 X24.5 Y23.809
G1 F2400 X24.5 Y4.189 E456.03297
G0 F18000 X24 Y4.189
G1 F2400 X24 Y23.809 E456.44082
G0 F18000 X23.5 Y23.809
G1 F2400 X23.5 Y4.189 E456.84868
G0 F18000 X23.5 Y-4.157
G0 X23.5 Y-4.157
G1 F2400 X23.499 Y-23.805 E457.25711
G0 F18000 X22.999 Y-23.805
G1 F2400 X23 Y23.809 E458.24689
G0 F18000 X22.5 Y23.809
G1 F2400 X22.499 Y-23.805 E459.23667
G0 F18000 X21.999 Y-23.805
G1 F2400 X22 Y23.809 E460.22645
G0 F18000 X21.5 Y23.809
G1 F2400 X21.499 Y-23.805 E461.21623
G0 F18000 X20.999 Y-23.805
G1 F2400 X21 Y23.809 E462.20601
G0 F18000 X20.5 Y23.809
G1 F2400 X20.499 Y-23.805 E463.19579
G0 F18000 X19.999 Y-23.806
G1 F2400 X20 Y23.809 E464.18559
G0 F18000 X19.5 Y23.809
G1 F2400 X19.499 Y-23.806 E465.17539
G0 F18000 X18.999 Y-23.806
G1 F2400 X19 Y23.809 E466.16519
G0 F18000 X18.5 Y23.809
G1 F2400 X18.499 Y-23.806 E467.15499
G0 F18000 X17.999 Y-23.806
G1 F2400 X18 Y23.809 E468.14479
G0 F18000 X17.5 Y23.809
G1 F2400 X17.499 Y-23.806 E469.13459
G0 F18000 X16.999 Y-23.806
G1 F2400 X17 Y23.809 E470.1244
G0 F18000 X16.5 Y23.809
G1 F2400 X16.499 Y-23.806 E471.1142
G0 F18000 X15.999 Y-23.807
G1 F2400 X16 Y23.809 E472.10402
G0 F18000 X15.5 Y23.809
G1 F2400 X15.499 Y-23.807 E473.09384
G0 F18000 X14.999 Y-23.807
G1 F2400 X15 Y23.809 E474.08366
G0 F18000 X14.5 Y23.81
G1 F2400 X14.499 Y-23.807 E475.0735
G0 F18000 X13.999 Y-23.807
G1 F2400 X14 Y23.81 E476.06335
G0 F18000 X13.5 Y23.81
G1 F2400 X13.499 Y-23.807 E477.05319
G0 F18000 X12.999 Y-23.807
G1 F2400 X13 Y23.81 E478.04303
G0 F18000 X12.5 Y23.81
G1 F2400 X12.499 Y-23.807 E479.03287
G0 F18000 X11.999 Y-23.808
G1 F2400 X12 Y23.81 E480.02274
G0 F18000 X11.5 Y23.81
G1 F2400 X11.499 Y-23.808 E481.0126
G0 F18000 X10.999 Y-23.808
G1 F2400 X11 Y23.81 E482.00246
G0 F18000 X10.5 Y23.81
G1 F2400 X10.499 Y-23.808 E482.99233
G0 F18000 X9.999 Y-23.808
G1 F2400 X10 Y23.81 E483.98219
G0 F18000 X9.5 Y23.81
G1 F2400 X9.499 Y-23.808 E484.97205
G0 F18000 X8.999 Y-23.808
G1 F2400 X9 Y23.81 E485.96192
G0 F18000 X8.5 Y23.81
G1 F2400 X8.499 Y-23.808 E486.95178
G0 F18000 X7.999 Y-23.809
G1 F2400 X8 Y23.81 E487.94166
G0 F18000 X7.5 Y23.81
G1 F2400 X7.499 Y-23.809 E488.93155
G0 F18000 X6.999 Y-23.809
G1 F2400 X7 Y23.81 E489.92143
G0 F18000 X6.5 Y23.81
G1 F2400 X6.499 Y-23.809 E490.91131
G0 F18000 X5.999 Y-23.758
G1 F2400 X6 Y23.761 E491.89912
G0 F18000 X5.5 Y23.316
G1 F2400 X5.499 Y-23.313 E492.86842
G0 F18000 X23.999 Y-23.805
G0 X23.999 Y-23.805
G1 F2400 X24 Y-4.157 E493.27686
G0 F18000 X24.5 Y-4.157
G1 F2400 X24.499 Y-23.804 E493.68527
G0 F18000 X24.999 Y-23.804
G1 F2400 X25 Y-4.157 E494.09369
G0 F18000 X25.5 Y-13.104
G0 X25.5 Y-13.104
G1 F2400 X25.499 Y-23.804 E494.31611
G0 F18000 X25.999 Y-23.804
G1 F2400 X26 Y-13.12 E494.53821
G0 F18000 X26.5 Y-13.135
G1 F2400 X26.499 Y-23.741 E494.75868
G0 F18000 X26.999 Y-23.206
G1 F2400 X27 Y-13.151 E494.9677
; Layer Change GCode
; LAYER:4
G1 F6600 E488.1677
G1 Z0.9
G0 F18000 X-26.209 Y24.75 Z1
G0 X-26.175 Y24.25
; TYPE:WALL-INNER
G1 Z0.7
G1 F6600 E495.0677
G1 F2400 X-26.175 Y24.25 E495.0677
G1 X-26.55 Y24.201 E495.07556
G1 X-26.848 Y24.077 E495.08227
G1 X-27.106 Y23.879 E495.08903
G1 X-27.305 Y23.62 E495.09582
G1 X-27.41 Y23.364 E495.10157
G1 X-27.476 Y19.503 E495.18185
G1 X-27.476 Y-22.947 E496.06428
G1 X-27.426 Y-23.324 E496.07218
G1 X-27.305 Y-23.619 E496.07881
G1 X-27.106 Y-23.878 E496.0856
G1 X-26.848 Y-24.076 E496.09236
G1 X-26.55 Y-24.2 E496.09907
G1 X-26.175 Y-24.249 E496.10693
G1 X-6.278 Y-24.249 E496.52054
G1 X-5.903 Y-24.2 E496.52841
G1 X-5.605 Y-24.076 E496.53512
G1 X-5.347 Y-23.878 E496.54188
G1 X-5.148 Y-23.619 E496.54867
G1 X-5.025 Y-23.321 E496.55537
G1 X-4.976 Y-22.953 E496.56308
G1 X-4.976 Y22.953 E497.51736
G1 X-5.025 Y23.321 E497.52508
G1 X-5.148 Y23.62 E497.5318
G1 X-5.347 Y23.879 E497.53859
G1 X-5.605 Y24.077 E497.54535
G1 X-5.903 Y24.201 E497.55206
G1 X-6.278 Y24.25 E497.55992
G1 X-26.175 Y24.25 E497.97353
G0 F18000 X-26.209 Y24.75
; TYPE:WALL-OUTER
G1 F2100 X-26.209 Y24.75 E497.97353
G1 X-26.679 Y24.688 E497.98338
G1 X-27.103 Y24.513 E497.99292
G1 X-27.463 Y24.236 E498.00236
G1 X-27.74 Y23.875 E498.01182
G1 X-27.909 Y23.466 E498.02102
G1 X-27.976 Y19.503 E498.10341
G1 X-27.976 Y-22.981 E498.98655
G1 X-27.914 Y-23.453 E498.99645
G1 X-27.741 Y-23.874 E499.00591
G1 X-27.463 Y-24.235 E499.01538
G1 X-27.103 Y-24.512 E499.02483
G1 X-26.679 Y-24.687 E499.03436
G1 X-26.209 Y-24.749 E499.04422
G1 X-6.244 Y-24.749 E499.45924
G1 X-5.774 Y-24.687 E499.46909
G1 X-5.35 Y-24.512 E499.47863
G1 X-4.99 Y-24.235 E499.48807
G1 X-4.712 Y-23.874 E499.49754
G1 X-4.539 Y-23.453 E499.507
G1 X-4.476 Y-22.981 E499.5169
G1 X-4.476 Y22.982 E500.47236
G1 X-4.539 Y23.453 E500.48224
G1 X-4.713 Y23.875 E500.49173
G1 X-4.99 Y24.236 E500.50119
G1 X-5.35 Y24.513 E500.51063
G1 X-5.774 Y24.688 E500.52017
G1 X-6.244 Y24.75 E500.53002
G1 X-26.209 Y24.75 E500.94505
G0 F18000 X-26.188 Y24.4
G0 X-22.481 Y19.127
G0 X-22.481 Y19.127
; TYPE:WALL-INNER
G1 F2400 X-22.481 Y19.127 E500.94505
G1 X-20.683 Y20.537 E500.99254
G1 X-18.58 Y21.434 E501.04007
G1 X-16.317 Y21.755 E501.08758
G1 X-14.048 Y21.481 E501.13509
G1 X-11.927 Y20.628 E501.18262
G1 X-10.099 Y19.255 E501.23014
G1 X-8.689 Y17.456 E501.27766
G1 X-7.792 Y15.353 E501.32518
G1 X-7.471 Y13.09 E501.3727
G1 X-7.745 Y10.821 E501.42021
G1 X-8.598 Y8.7 E501.46773
G1 X-9.972 Y6.872 E501.51526
G1 X-11.77 Y5.462 E501.56276
G1 X-13.873 Y4.565 E501.61029
G1 X-16.136 Y4.244 E501.6578
G1 X-18.405 Y4.518 E501.70531
G1 X-20.526 Y5.372 E501.75284
G1 X-22.354 Y6.745 E501.80037
G1 X-23.764 Y8.544 E501.84788
G1 X-24.661 Y10.647 E501.89541
G1 X-24.982 Y12.909 E501.9429
G1 X-24.708 Y15.179 E501.99043
G1 X-23.855 Y17.3 E502.03795
G1 X-22.481 Y19.127 E502.08547
G0 F18000 X-21.831 Y19.388
G0 X-20.656 Y20.492
G0 X-18.566 Y21.383
G0 X-16.56 Y21.516
G0 X-16.362 Y21.597
G0 X-16.362 Y21.597
G0 X-16.312 Y21.251
; TYPE:WALL-OUTER
G1 F2100 X-16.312 Y21.251 E502.08547
G1 X-14.173 Y20.992 E502.13026
G1 X-12.174 Y20.189 E502.17505
G1 X-10.452 Y18.895 E502.21982
G1 X-9.123 Y17.199 E502.26461
G1 X-8.278 Y15.218 E502.30938
G1 X-7.975 Y13.085 E502.35417
G1 X-8.234 Y10.946 E502.39896
G1 X-9.037 Y8.947 E502.44374
G1 X-10.332 Y7.225 E502.48853
G1 X-12.027 Y5.896 E502.5333
G1 X-14.008 Y5.051 E502.57807
G1 X-16.141 Y4.748 E502.62286
G1 X-18.28 Y5.007 E502.66765
G1 X-20.279 Y5.811 E502.71244
G1 X-22.001 Y7.105 E502.75721
G1 X-23.33 Y8.801 E502.802
G1 X-24.175 Y10.782 E502.84677
G1 X-24.478 Y12.914 E502.89154
G1 X-24.219 Y15.054 E502.93635
G1 X-23.416 Y17.052 E502.98111
G1 X-22.121 Y18.774 E503.0259
G1 X-20.426 Y20.103 E503.07067
G1 X-18.445 Y20.948 E503.11544
G1 X-16.312 Y21.251 E503.16023
G1 F6600 E496.36023
G1 Z1
G0 F18000 X-16.362 Y21.597
G0 X-16.358 Y21.707
G0 X-16.316 Y21.703
G0 X-18.566 Y21.383
G0 X-20.656 Y20.492
G0 X-22.443 Y19.09
G0 X-23.809 Y17.274
G0 X-24.656 Y15.165
G0 X-24.93 Y12.91
G0 X-24.61 Y10.661
G0 X-23.719 Y8.571
G0 X-22.318 Y6.783
G0 X-20.501 Y5.418
G0 X-18.392 Y4.57
G0 X-16.748 Y4.368
G0 X-16.943 Y-4.272
G0 X-16.943 Y-4.272
; TYPE:WALL-INNER
G1 Z0.7
G1 F6600 E503.26023
G1 F2400 X-16.943 Y-4.272 E503.26023
G1 X-14.661 Y-4.384 E503.30772
G1 X-12.484 Y-5.083 E503.35525
G1 X-10.563 Y-6.321 E503.40276
G1 X-9.027 Y-8.015 E503.4503
G1 X-7.983 Y-10.048 E503.4978
G1 X-7.499 Y-12.282 E503.54532
G1 X-7.612 Y-14.565 E503.59284
G1 X-8.31 Y-16.742 E503.64036
G1 X-9.549 Y-18.663 E503.68788
G1 X-11.242 Y-20.199 E503.7354
G1 X-13.275 Y-21.243 E503.78291
G1 X-15.51 Y-21.726 E503.83044
G1 X-17.792 Y-21.614 E503.87793
G1 X-19.969 Y-20.916 E503.92546
G1 X-21.89 Y-19.677 E503.97297
G1 X-23.426 Y-17.984 E504.02049
G1 X-24.47 Y-15.95 E504.06802
G1 X-24.954 Y-13.716 E504.11554
G1 X-24.841 Y-11.433 E504.16305
G1 X-24.143 Y-9.257 E504.21056
G1 X-22.904 Y-7.336 E504.25808
G1 X-21.211 Y-5.8 E504.3056
G1 X-19.178 Y-4.755 E504.35311
G1 X-16.943 Y-4.272 E504.40065
G0 F18000 X-16.902 Y-4.775
; TYPE:WALL-OUTER
G1 F2100 X-16.902 Y-4.775 E504.40065
G1 X-14.751 Y-4.88 E504.44541
G1 X-12.699 Y-5.539 E504.49021
G1 X-10.889 Y-6.706 E504.53498
G1 X-9.442 Y-8.302 E504.57977
G1 X-8.458 Y-10.218 E504.62454
G1 X-8.002 Y-12.323 E504.66931
G1 X-8.108 Y-14.475 E504.7141
G1 X-8.766 Y-16.527 E504.7589
G1 X-9.934 Y-18.337 E504.80368
G1 X-11.529 Y-19.784 E504.84844
G1 X-13.445 Y-20.768 E504.89322
G1 X-15.551 Y-21.223 E504.93801
G1 X-17.702 Y-21.118 E504.98277
G1 X-19.754 Y-20.46 E505.02757
G1 X-21.564 Y-19.292 E505.07235
G1 X-23.011 Y-17.697 E505.11712
G1 X-23.995 Y-15.78 E505.16191
G1 X-24.451 Y-13.675 E505.20668
G1 X-24.345 Y-11.523 E505.25147
G1 X-23.687 Y-9.472 E505.29625
G1 X-22.519 Y-7.662 E505.34103
G1 X-20.924 Y-6.215 E505.38579
G1 X-19.008 Y-5.23 E505.43058
G1 X-16.902 Y-4.775 E505.47537
G0 F18000 X-17.768 Y-3.999
; TYPE:FILL
G1 F2400 X-27.036 Y-3.999 E505.66803
G0 F18000 X-27.036 Y-4.499
G1 F2400 X-19.646 Y-4.499 E505.82165
G0 F18000 X-20.619 Y-4.999
G1 F2400 X-27.036 Y-4.999 E505.95504
G0 F18000 X-27.036 Y-5.499
G1 F2400 X-21.537 Y-5.499 E506.06935
G0 F18000 X-22.088 Y-5.999
G1 F2400 X-27.036 Y-5.999 E506.17221
G0 F18000 X-27.036 Y-6.499
G1 F2400 X-22.638 Y-6.499 E506.26363
G0 F18000 X-23.189 Y-6.999
G1 F2400 X-27.036 Y-6.999 E506.3436
G0 F18000 X-27.036 Y-7.499
G1 F2400 X-23.534 Y-7.499 E506.4164
G0 F18000 X-23.856 Y-7.999
G1 F2400 X-27.036 Y-7.999 E506.4825
G0 F18000 X-27.036 Y-8.499
G1 F2400 X-24.179 Y-8.499 E506.54189
G0 F18000 X-24.502 Y-8.999
G1 F2400 X-27.036 Y-8.999 E506.59457
G0 F18000 X-27.036 Y-9.499
G1 F2400 X-24.684 Y-9.499 E506.64346
G0 F18000 X-24.844 Y-9.999
G1 F2400 X-27.036 Y-9.999 E506.68903
G0 F18000 X-27.036 Y-10.499
G1 F2400 X-25.004 Y-10.499 E506.73127
G0 F18000 X-25.164 Y-10.999
G1 F2400 X-27.036 Y-10.999 E506.77018
G0 F18000 X-27.036 Y-11.499
G1 F2400 X-25.284 Y-11.499 E506.8066
G0 F18000 X-25.309 Y-11.999
G1 F2400 X-27.036 Y-11.999 E506.8425
G0 F18000 X-27.036 Y-12.499
G1 F2400 X-25.334 Y-12.499 E506.87788
G0 F18000 X-25.359 Y-12.999
G1 F2400 X-27.036 Y-12.999 E506.91275
G0 F18000 X-27.036 Y-13.499
G1 F2400 X-25.384 Y-13.499 E506.94709
G0 F18000 X-25.343 Y-13.999
G1 F2400 X-27.036 Y-13.999 E506.98228
G0 F18000 X-27.036 Y-14.499
G1 F2400 X-25.235 Y-14.499 E507.01972
G0 F18000 X-25.126 Y-14.999
G1 F2400 X-27.036 Y-14.999 E507.05942
G0 F18000 X-27.036 Y-15.499
G1 F2400 X-25.018 Y-15.499 E507.10137
G0 F18000 X-24.909 Y-15.999
G1 F2400 X-27.036 Y-15.999 E507.14559
G0 F18000 X-27.036 Y-16.5
G1 F2400 X-24.683 Y-16.5 E507.1945
G0 F18000 X-24.427 Y-17
G1 F2400 X-27.036 Y-17 E507.24874
G0 F18000 X-27.036 Y-17.5
G1 F2400 X-24.17 Y-17.5 E507.30831
G0 F18000 X-23.914 Y-18
G1 F2400 X-27.036 Y-18 E507.37321
G0 F18000 X-27.036 Y-18.5
G1 F2400 X-23.553 Y-18.5 E507.44561
G0 F18000 X-23.099 Y-19
G1 F2400 X-27.036 Y-19 E507.52746
G0 F18000 X-27.036 Y-19.5
G1 F2400 X-22.645 Y-19.5 E507.61873
G0 F18000 X-22.192 Y-20
G1 F2400 X-27.036 Y-20 E507.71943
G0 F18000 X-27.036 Y-20.5
G1 F2400 X-21.426 Y-20.5 E507.83605
G0 F18000 X-20.652 Y-21
G1 F2400 X-27.036 Y-21 E507.96875
G0 F18000 X-27.036 Y-21.5
G1 F2400 X-19.59 Y-21.5 E508.12354
G0 F18000 X-18.028 Y-22
G0 X-18.028 Y-22
G1 F2400 X-27.036 Y-22 E508.31079
G0 F18000 X-27.036 Y-22.5
G1 F2400 X-5.415 Y-22.5 E508.76024
G0 F18000 X-5.415 Y-22
G1 F2400 X-14.693 Y-22 E508.95311
G0 F18000 X-12.809 Y-21.5
G0 X-12.809 Y-21.5
G1 F2400 X-5.415 Y-21.5 E509.10681
G0 F18000 X-5.415 Y-21
G1 F2400 X-11.835 Y-21 E509.24027
G0 F18000 X-10.916 Y-20.5
G1 F2400 X-5.415 Y-20.5 E509.35462
G0 F18000 X-5.415 Y-20
G1 F2400 X-10.366 Y-20 E509.45754
G0 F18000 X-9.815 Y-19.5
G1 F2400 X-5.415 Y-19.5 E509.54901
G0 F18000 X-5.415 Y-19
G1 F2400 X-9.264 Y-19 E509.62902
G0 F18000 X-8.919 Y-18.5
G1 F2400 X-5.415 Y-18.5 E509.70186
G0 F18000 X-5.415 Y-18
G1 F2400 X-8.596 Y-18 E509.76798
G0 F18000 X-8.274 Y-17.5
G1 F2400 X-5.415 Y-17.5 E509.82741
G0 F18000 X-5.415 Y-17
G1 F2400 X-7.951 Y-17 E509.88013
G0 F18000 X-7.769 Y-16.5
G1 F2400 X-5.415 Y-16.5 E509.92907
G0 F18000 X-5.415 Y-16
G1 F2400 X-7.609 Y-16 E509.97467
G0 F18000 X-7.449 Y-15.5
G1 F2400 X-5.415 Y-15.5 E510.01696
G0 F18000 X-5.415 Y-15
G1 F2400 X-7.289 Y-15 E510.05591
G0 F18000 X-7.168 Y-14.5
G1 F2400 X-5.415 Y-14.5 E510.09235
G0 F18000 X-5.415 Y-14
G1 F2400 X-7.143 Y-14 E510.12827
G0 F18000 X-7.118 Y-13.5
G1 F2400 X-5.415 Y-13.5 E510.16367
G0 F18000 X-5.415 Y-13
G1 F2400 X-7.093 Y-13 E510.19856
G0 F18000 X-7.068 Y-12.5
G1 F2400 X-5.415 Y-12.5 E510.23292
G0 F18000 X-5.415 Y-12
G1 F2400 X-7.109 Y-12 E510.26813
G0 F18000 X-7.217 Y-11.5
G1 F2400 X-5.415 Y-11.5 E510.30559
G0 F18000 X-5.415 Y-11
G1 F2400 X-7.325 Y-11 E510.3453
G0 F18000 X-7.434 Y-10.5
G1 F2400 X-5.415 Y-10.5 E510.38727
G0 F18000 X-5.415 Y-10
G1 F2400 X-7.542 Y-10 E510.43148
G0 F18000 X-7.768 Y-9.5
G1 F2400 X-5.415 Y-9.5 E510.48039
G0 F18000 X-5.415 Y-9
G1 F2400 X-8.025 Y-9 E510.53465
G0 F18000 X-8.282 Y-8.5
G1 F2400 X-5.415 Y-8.5 E510.59425
G0 F18000 X-5.415 Y-8
G1 F2400 X-8.539 Y-7.999 E510.65919
G0 F18000 X-8.899 Y-7.499
G1 F2400 X-5.415 Y-7.5 E510.73161
