; Generated with MatterSlice 1.0
; filamentDiameter = 1.75
; extrusionWidth = 0.5
; firstLayerExtrusionWidth = 0.4
; layerThickness = 0.2
; firstLayerThickness = 0.3
; automatic settings before start_gcode
G21 ; set units to millimeters
M107 ; fan off
T0 ; set the active extruder to 0
; settings from start_gcode
M104 S190
M190 S60
M109 S190
G28
; automatic settings after start_gcode
T0 ; set the active extruder to 0
G90 ; use absolute coordinates
G92 E0 ; reset the expected extruder position
M82 ; use absolute distance for extrusion
; Layer count: 39
; RAFT BASE
; Layer Change GCode
; LAYER:-3
G0 F18000 X-22.998 Y-35.998 Z0.675
; TYPE:SUPPORT
G1 Z0.375
G1 F6600 E0
G1 F720 X23 Y-35.998 E10.75711
G1 X23 Y36 E27.59458
G1 X-22.998 Y36 E38.35169
G1 X-22.998 Y-35.998 E55.18917
G0 F18000 X-24.998 Y-37.998
G1 F720 X25 Y-37.998 E66.88171
G1 X25 Y38 E84.65463
G1 X-24.998 Y38 E96.34718
G1 X-24.998 Y-37.998 E114.1201
G0 F18000 X-16.998 Y-29.998
G1 F720 X17 Y-29.998 E122.07088
G1 X17 Y30 E136.10203
G1 X-16.998 Y30 E144.05281
G1 X-16.998 Y-29.998 E158.08397
G0 F18000 X-2.443 Y-15.445
G1 F720 X-2.993 Y-14.728 E158.2953
G1 X-3.339 Y-13.894 E158.50645
G1 X-3.457 Y-13 E158.71734
G1 X-3.339 Y-12.108 E158.92776
G1 X-2.992 Y-11.269 E159.14009
G1 X-2.445 Y-10.556 E159.35025
G1 X-1.728 Y-10.006 E159.56157
G1 X-0.894 Y-9.66 E159.77273
G1 X0 Y-9.542 E159.98362
G1 X0.894 Y-9.66 E160.1945
G1 X1.728 Y-10.006 E160.40566
G1 X2.444 Y-10.555 E160.61666
G1 X2.993 Y-11.271 E160.82766
G1 X3.339 Y-12.106 E161.03904
G1 X3.457 Y-13 E161.24992
G1 X3.339 Y-13.892 E161.46034
G1 X2.992 Y-14.73 E161.67245
G1 X2.445 Y-15.443 E161.88261
G1 X1.728 Y-15.993 E162.09394
G1 X0.894 Y-16.339 E162.3051
G1 X0 Y-16.457 E162.51598
G1 X-0.892 Y-16.339 E162.7264
G1 X-1.73 Y-15.992 E162.93852
G1 X-2.443 Y-15.445 E163.14867
G0 F18000 X-1.73 Y10.007
G1 F720 X-2.444 Y10.555 E163.35916
G1 X-2.992 Y11.269 E163.56965
G1 X-3.339 Y12.108 E163.78198
G1 X-3.456 Y12.999 E163.99214
G1 X-3.339 Y13.892 E164.20276
G1 X-2.992 Y14.73 E164.41487
G1 X-2.445 Y15.443 E164.62503
G1 X-1.728 Y15.993 E164.83636
G1 X-0.894 Y16.339 E165.04752
G1 X0 Y16.457 E165.2584
G1 X0.892 Y16.339 E165.46882
G1 X1.73 Y15.992 E165.68093
G1 X2.443 Y15.445 E165.89109
G1 X2.993 Y14.728 E166.10242
G1 X3.339 Y13.894 E166.31358
G1 X3.456 Y12.999 E166.52466
G1 X3.339 Y12.108 E166.73482
G1 X2.992 Y11.269 E166.94715
G1 X2.445 Y10.556 E167.15731
G1 X1.728 Y10.006 E167.36864
G1 X0.894 Y9.66 E167.5798
G1 X0 Y9.543 E167.79065
G1 X-0.892 Y9.66 E168.00104
G1 X-1.73 Y10.007 E168.21315
G0 F18000 X-1.555 Y10
G1 F720 X-17.058 Y10 E171.83869
G0 F18000 X-17.058 Y12
G1 F720 X-3.229 Y12 E175.07274
G0 F18000 X-3.229 Y14
G1 F720 X-17.058 Y14 E178.3068
G0 F18000 X-17.058 Y16
G1 F720 X-1.553 Y16 E181.9328
G0 F18000 X1.553 Y16
G1 F720 X17.059 Y15.999 E185.55904
G0 F18000 X17.059 Y13.999
G1 F720 X3.229 Y14 E188.79333
G0 F18000 X3.229 Y12
G1 F720 X17.059 Y11.999 E192.02762
G0 F18000 X17.059 Y9.999
G1 F720 X1.556 Y10 E195.65315
G0 F18000 X17.059 Y7.999
G1 F720 X-17.058 Y8 E203.63177
G0 F18000 X-17.058 Y6
G1 F720 X17.059 Y5.999 E211.61038
G0 F18000 X17.059 Y3.999
G1 F720 X-17.058 Y4 E219.58899
G0 F18000 X-17.058 Y2
G1 F720 X17.059 Y1.999 E227.56761
G0 F18000 X17.06 Y0
G1 F720 X-17.057 Y0 E235.54622
G0 F18000 X-17.057 Y-1.999
G1 F720 X17.06 Y-2 E243.52483
G0 F18000 X17.06 Y-4
G1 F720 X-17.057 Y-3.999 E251.50344
G0 F18000 X-17.057 Y-5.999
G1 F720 X17.06 Y-6 E259.48206
G0 F18000 X17.06 Y-8
G1 F720 X-17.057 Y-7.999 E267.46067
G0 F18000 X-17.057 Y-9.999
G1 F720 X-1.556 Y-10 E271.08574
G0 F18000 X-3.229 Y-12
G1 F720 X-17.057 Y-11.999 E274.31956
G0 F18000 X-17.057 Y-13.999
G1 F720 X-3.229 Y-14 E277.55338
G0 F18000 X-1.553 Y-16
G1 F720 X-17.057 Y-15.999 E281.17915
G0 F18000 X-17.057 Y-18
G1 F720 X17.06 Y-18 E289.15776
G0 F18000 X17.06 Y-16
G1 F720 X1.553 Y-16 E292.78423
G0 F18000 X3.229 Y-14
G1 F720 X17.06 Y-14 E296.01876
G0 F18000 X17.06 Y-12
G1 F720 X3.229 Y-12 E299.25328
G0 F18000 X1.556 Y-10
G1 F720 X17.06 Y-10 E302.87905
G0 F18000 X17.06 Y-20
G1 F720 X-17.057 Y-20 E310.85766
G0 F18000 X-17.057 Y-22
G1 F720 X17.06 Y-22 E318.83627
G0 F18000 X17.06 Y-24
G1 F720 X-17.057 Y-24 E326.81489
G0 F18000 X-17.057 Y-26
G1 F720 X17.06 Y-26 E334.7935
G0 F18000 X17.06 Y-28
G1 F720 X-17.057 Y-28 E342.77211
G0 F18000 X-17.057 Y-30
G1 F720 X17.059 Y-30 E350.75049
G0 F18000 X17.059 Y18
G1 F720 X-17.058 Y18 E358.7291
G0 F18000 X-17.058 Y20
G1 F720 X17.059 Y20 E366.70772
G0 F18000 X17.059 Y22
G1 F720 X-17.058 Y22 E374.68633
G0 F18000 X-17.058 Y24
G1 F720 X17.059 Y24 E382.66494
G0 F18000 X17.059 Y26
G1 F720 X-17.058 Y26 E390.64355
G0 F18000 X-17.058 Y28
G1 F720 X17.059 Y28 E398.62217
G0 F18000 X17.059 Y30
G1 F720 X-17.057 Y30 E406.60055
G4 P0
M106 S255
; RAFT MIDDLE
; Layer Change GCode
; LAYER:-2
G0 F18000 X-17.058 Y28.903 Z0.687
; TYPE:SUPPORT
G1 F2400 X-15.902 Y30.059 E406.69322
G0 F18000 X-14.135 Y30.059
G1 F2400 X-17.058 Y27.135 E406.92758
G0 F18000 X-17.058 Y25.368
G1 F2400 X-12.367 Y30.059 E407.30363
G0 F18000 X-10.599 Y30.059
G1 F2400 X-17.058 Y23.6 E407.82142
G0 F18000 X-17.058 Y21.832
G1 F2400 X-8.831 Y30.059 E408.48094
G0 F18000 X-7.063 Y30.059
G1 F2400 X-17.058 Y20.064 E409.28219
G0 F18000 X-17.058 Y18.297
G1 F2400 X-5.296 Y30.059 E410.22509
G0 F18000 X-3.528 Y30.059
G1 F2400 X-17.058 Y16.529 E411.30972
G0 F18000 X-17.058 Y14.761
G1 F2400 X-1.76 Y30.059 E412.53609
G0 F18000 X0.007 Y30.059
G1 F2400 X-17.058 Y12.993 E413.90414
G0 F18000 X-17.058 Y11.226
G1 F2400 X1.774 Y30.059 E415.41385
G0 F18000 X3.542 Y30.059
G1 F2400 X-17.058 Y9.458 E417.06529
G0 F18000 X-17.058 Y7.69
G1 F2400 X5.31 Y30.059 E418.85846
G0 F18000 X7.078 Y30.059
G1 F2400 X-17.058 Y5.922 E420.79337
G0 F18000 X-17.058 Y4.154
G1 F2400 X8.845 Y30.059 E422.86996
G0 F18000 X10.613 Y30.059
G1 F2400 X-17.058 Y2.387 E425.08825
G0 F18000 X-17.058 Y0.619
G1 F2400 X-2.805 Y14.871 E426.2308
G0 F18000 X-1.875 Y15.801
G1 F2400 X12.381 Y30.059 E427.37371
G0 F18000 X14.149 Y30.059
G1 F2400 X0.429 Y16.339 E428.47358
G0 F18000 X1.754 Y15.896
G1 F2400 X15.916 Y30.059 E429.60892
G0 F18000 X17.059 Y29.434
G1 F2400 X2.671 Y15.045 E430.76237
G0 F18000 X3.278 Y13.884
G1 F2400 X17.059 Y27.666 E431.86717
G0 F18000 X17.059 Y25.898
G1 F2400 X3.278 Y12.117 E432.97192
G0 F18000 X0.878 Y9.717
G1 F2400 X-17.058 Y-8.219 E434.40976
G0 F18000 X-17.058 Y-9.987
G1 F2400 X17.059 Y24.13 E437.14475
G0 F18000 X17.059 Y22.362
G1 F2400 X-17.058 Y-11.754 E439.8797
G0 F18000 X-17.058 Y-13.522
G1 F2400 X17.059 Y20.595 E442.61469
G0 F18000 X17.059 Y18.827
G1 F2400 X-17.058 Y-15.29 E445.34968
G0 F18000 X-17.058 Y-17.058
G1 F2400 X17.059 Y17.059 E448.08468
G0 F18000 X17.059 Y15.291
G1 F2400 X-17.058 Y-18.826 E450.81967
G0 F18000 X-17.058 Y-20.593
G1 F2400 X17.059 Y13.524 E453.55466
G0 F18000 X17.059 Y11.756
G1 F2400 X-17.058 Y-22.361 E456.28965
G0 F18000 X-17.058 Y-24.129
G1 F2400 X17.059 Y9.988 E459.02464
G0 F18000 X17.059 Y8.22
G1 F2400 X-0.878 Y-9.717 E460.46256
G0 F18000 X0.886 Y-9.72
G1 F2400 X17.059 Y6.453 E461.75907
G0 F18000 X17.059 Y4.685
G1 F2400 X2.047 Y-10.327 E462.96251
G0 F18000 X2.897 Y-11.245
G1 F2400 X17.059 Y2.917 E464.0978
G0 F18000 X17.059 Y1.149
G1 F2400 X3.34 Y-12.569 E465.19755
G0 F18000 X2.805 Y-14.871
G1 F2400 X17.06 Y-0.617 E466.34026
G0 F18000 X17.06 Y-2.385
G1 F2400 X-10.612 Y-30.057 E468.55859
G0 F18000 X-12.38 Y-30.057
G1 F2400 X1.875 Y-15.801 E469.70138
G0 F18000 X-0.429 Y-16.339
G1 F2400 X-14.147 Y-30.057 E470.80108
G0 F18000 X-15.915 Y-30.057
G1 F2400 X-1.754 Y-15.896 E471.9363
G0 F18000 X-2.671 Y-15.045
G1 F2400 X-17.058 Y-29.432 E473.08964
G0 F18000 X-17.058 Y-27.664
G1 F2400 X-3.278 Y-13.884 E474.19431
G0 F18000 X-3.278 Y-12.117
G1 F2400 X-17.058 Y-25.897 E475.29898
G0 F18000 X-8.844 Y-30.057
G1 F2400 X17.06 Y-4.152 E477.37562
G0 F18000 X17.06 Y-5.92
G1 F2400 X-7.076 Y-30.057 E479.31052
G0 F18000 X-5.308 Y-30.057
G1 F2400 X17.06 Y-7.688 E481.1037
G0 F18000 X17.06 Y-9.456
G1 F2400 X-3.541 Y-30.057 E482.75518
G0 F18000 X-1.773 Y-30.057
G1 F2400 X17.06 Y-11.223 E484.26496
G0 F18000 X17.06 Y-12.991
G1 F2400 X-0.005 Y-30.057 E485.63302
G0 F18000 X1.762 Y-30.056
G1 F2400 X17.06 Y-14.759 E486.85935
G0 F18000 X17.06 Y-16.527
G1 F2400 X3.53 Y-30.056 E487.94394
G0 F18000 X5.298 Y-30.056
G1 F2400 X17.06 Y-18.294 E488.88684
G0 F18000 X17.06 Y-20.062
G1 F2400 X7.066 Y-30.056 E489.68801
G0 F18000 X8.833 Y-30.056
G1 F2400 X17.06 Y-21.83 E490.34749
G0 F18000 X17.06 Y-23.598
G1 F2400 X10.601 Y-30.056 E490.86523
G0 F18000 X12.369 Y-30.056
G1 F2400 X17.06 Y-25.366 E491.24125
G0 F18000 X17.06 Y-27.133
G1 F2400 X14.137 Y-30.056 E491.47557
G0 F18000 X15.904 Y-30.056
G1 F2400 X17.06 Y-28.901 E491.5682
G0 F18000 X-17.058 Y-6.451
G1 F2400 X-0.885 Y9.721 E492.86467
G0 F18000 X-2.047 Y10.326
G1 F2400 X-17.058 Y-4.683 E494.06795
G0 F18000 X-17.058 Y-2.916
G1 F2400 X-2.897 Y11.245 E495.20316
G0 F18000 X-3.339 Y12.57
G1 F2400 X-17.058 Y-1.148 E496.30291
; RAFT SURFACE
; Layer Change GCode
; LAYER:-1
G0 F18000 X-2.5 Y-10.728 Z0.999
; TYPE:SUPPORT
G1 F2400 X-2.499 Y10.727 E497.69442
G0 F18000 X-1.999 Y10.291
G1 F2400 X-2 Y-10.292 E499.02938
G0 F18000 X-1.5 Y-9.977
G1 F2400 X-1.499 Y9.977 E500.32354
G0 F18000 X-0.999 Y9.769
G1 F2400 X-1 Y-9.769 E501.59072
G0 F18000 X-0.5 Y-9.668
G1 F2400 X-0.499 Y9.669 E502.84487
G0 F18000 X0 Y9.603
G1 F2400 X0 Y-9.602 E504.09045
G0 F18000 X0.499 Y-9.668
G1 F2400 X0.5 Y9.669 E505.34459
G0 F18000 X1 Y9.769
G1 F2400 X0.999 Y-9.769 E506.61178
G0 F18000 X1.499 Y-9.976
G1 F2400 X1.5 Y9.977 E507.90587
G0 F18000 X2 Y10.292
G1 F2400 X1.999 Y-10.291 E509.24083
G0 F18000 X2.499 Y-10.727
G1 F2400 X2.5 Y10.728 E510.63234
G0 F18000 X3 Y11.448
G1 F2400 X2.999 Y-11.444 E512.11706
G0 F18000 X2.999 Y-14.554
G1 F2400 X2.999 Y-30.057 E513.12254
G0 F18000 X2.499 Y-30.057
G1 F2400 X2.499 Y-15.272 E514.08145
G0 F18000 X1.999 Y-15.708
G1 F2400 X1.999 Y-30.057 E515.01209
G0 F18000 X1.499 Y-30.057
G1 F2400 X1.499 Y-16.023 E515.9223
G0 F18000 X0.999 Y-16.23
G1 F2400 X0.999 Y-30.057 E516.81908
G0 F18000 X0.499 Y-30.057
G1 F2400 X0.499 Y-16.331 E517.70931
G0 F18000 X0 Y-16.397
G1 F2400 X0 Y-30.058 E518.59532
G0 F18000 X-0.5 Y-30.058
G1 F2400 X-0.5 Y-16.331 E519.48562
G0 F18000 X-1 Y-16.229
G1 F2400 X-1 Y-30.058 E520.38253
G0 F18000 X-1.5 Y-30.058
G1 F2400 X-1.5 Y-16.022 E521.29287
G0 F18000 X-2 Y-15.707
G1 F2400 X-2 Y-30.058 E522.22363
G0 F18000 X-2.5 Y-30.058
G1 F2400 X-2.5 Y-15.27 E523.18274
G0 F18000 X-3 Y-14.552
G1 F2400 X-3 Y-30.058 E524.18842
G0 F18000 X-3.5 Y-30.058
G1 F2400 X-3.499 Y30.059 E528.08744
G0 F18000 X-2.999 Y30.059
G1 F2400 X-2.999 Y14.554 E529.09305
G0 F18000 X-2.499 Y15.272
G1 F2400 X-2.499 Y30.059 E530.0521
G0 F18000 X-1.999 Y30.059
G1 F2400 X-1.999 Y15.708 E530.98287
G0 F18000 X-1.499 Y16.023
G1 F2400 X-1.499 Y30.059 E531.8932
G0 F18000 X-0.999 Y30.059
G1 F2400 X-0.999 Y16.23 E532.79011
G0 F18000 X-0.499 Y16.331
G1 F2400 X-0.499 Y30.059 E533.68047
G0 F18000 X0 Y30.059
G1 F2400 X0 Y16.397 E534.56655
G0 F18000 X0.5 Y16.331
G1 F2400 X0.5 Y30.06 E535.45698
G0 F18000 X1 Y30.06
G1 F2400 X1 Y16.229 E536.35402
G0 F18000 X1.5 Y16.022
G1 F2400 X1.5 Y30.06 E537.26449
G0 F18000 X2 Y30.06
G1 F2400 X2 Y15.707 E538.19538
G0 F18000 X2.5 Y15.27
G1 F2400 X2.5 Y30.06 E539.15462
G0 F18000 X3 Y30.06
G1 F2400 X3 Y14.553 E540.16036
G0 F18000 X-2.999 Y11.445
G1 F2400 X-3 Y-11.448 E541.64514
G0 F18000 X-4 Y-30.058
G1 F2400 X-3.999 Y30.059 E545.54416
G0 F18000 X-4.499 Y30.059
G1 F2400 X-4.5 Y-30.058 E549.44319
G0 F18000 X-5 Y-30.058
G1 F2400 X-4.999 Y30.059 E553.34221
G0 F18000 X-5.499 Y30.059
G1 F2400 X-5.5 Y-30.058 E557.24124
G0 F18000 X-6 Y-30.058
G1 F2400 X-5.999 Y30.059 E561.14026
G0 F18000 X-6.499 Y30.059
G1 F2400 X-6.5 Y-30.058 E565.03928
G0 F18000 X-7 Y-30.058
G1 F2400 X-6.999 Y30.059 E568.93831
G0 F18000 X-7.499 Y30.059
G1 F2400 X-7.5 Y-30.058 E572.83733
G0 F18000 X-8 Y-30.058
G1 F2400 X-7.999 Y30.059 E576.73636
G0 F18000 X-8.499 Y30.059
G1 F2400 X-8.5 Y-30.058 E580.63538
G0 F18000 X-9 Y-30.058
G1 F2400 X-8.999 Y30.059 E584.53441
G0 F18000 X-9.499 Y30.059
G1 F2400 X-9.5 Y-30.058 E588.43343
G0 F18000 X-10 Y-30.058
G1 F2400 X-9.999 Y30.059 E592.33245
G0 F18000 X-10.499 Y30.059
G1 F2400 X-10.5 Y-30.058 E596.23148
G0 F18000 X-11 Y-30.058
G1 F2400 X-10.999 Y30.059 E600.1305
G0 F18000 X-11.499 Y30.059
G1 F2400 X-11.5 Y-30.058 E604.02953
G0 F18000 X-12 Y-30.058
G1 F2400 X-11.999 Y30.059 E607.92855
G0 F18000 X-12.499 Y30.059
G1 F2400 X-12.5 Y-30.058 E611.82757
G0 F18000 X-13 Y-30.058
G1 F2400 X-12.999 Y30.059 E615.7266
G0 F18000 X-13.499 Y30.059
G1 F2400 X-13.5 Y-30.058 E619.62562
G0 F18000 X-14 Y-30.058
G1 F2400 X-13.999 Y30.059 E623.52465
G0 F18000 X-14.499 Y30.059
G1 F2400 X-14.5 Y-30.058 E627.42367
G0 F18000 X-15 Y-30.057
G1 F2400 X-14.999 Y30.059 E631.32263
G0 F18000 X-15.499 Y30.059
G1 F2400 X-15.5 Y-30.057 E635.22159
G0 F18000 X-16 Y-30.057
G1 F2400 X-15.999 Y30.059 E639.12055
G0 F18000 X-16.499 Y30.059
G1 F2400 X-16.5 Y-30.057 E643.01951
G0 F18000 X-17 Y-30.057
G1 F2400 X-16.999 Y30.059 E646.91847
G0 F18000 X3.5 Y30.06
G1 F2400 X3.499 Y-30.057 E650.81749
G0 F18000 X3.999 Y-30.057
G1 F2400 X4 Y30.06 E654.71651
G0 F18000 X4.5 Y30.06
G1 F2400 X4.499 Y-30.057 E658.61554
G0 F18000 X4.999 Y-30.057
G1 F2400 X5 Y30.06 E662.51456
G0 F18000 X5.5 Y30.06
G1 F2400 X5.499 Y-30.057 E666.41359
G0 F18000 X5.999 Y-30.057
G1 F2400 X6 Y30.06 E670.31261
G0 F18000 X6.5 Y30.06
G1 F2400 X6.499 Y-30.057 E674.21164
G0 F18000 X6.999 Y-30.057
G1 F2400 X7 Y30.06 E678.11066
G0 F18000 X7.5 Y30.06
G1 F2400 X7.499 Y-30.057 E682.00968
G0 F18000 X7.999 Y-30.057
G1 F2400 X8 Y30.06 E685.90871
G0 F18000 X8.5 Y30.06
G1 F2400 X8.499 Y-30.057 E689.80773
G0 F18000 X8.999 Y-30.057
G1 F2400 X9 Y30.06 E693.70676
G0 F18000 X9.5 Y30.06
G1 F2400 X9.499 Y-30.057 E697.60578
G0 F18000 X9.999 Y-30.057
G1 F2400 X10 Y30.06 E701.5048
G0 F18000 X10.5 Y30.06
G1 F2400 X10.499 Y-30.057 E705.40383
G0 F18000 X10.999 Y-30.057
G1 F2400 X11 Y30.06 E709.30285
G0 F18000 X11.5 Y30.06
G1 F2400 X11.499 Y-30.057 E713.20188
G0 F18000 X11.999 Y-30.057
G1 F2400 X12 Y30.06 E717.1009
G0 F18000 X12.5 Y30.06
G1 F2400 X12.499 Y-30.057 E720.99992
G0 F18000 X12.999 Y-30.057
G1 F2400 X13 Y30.06 E724.89895
G0 F18000 X13.5 Y30.06
G1 F2400 X13.499 Y-30.057 E728.79797
G0 F18000 X13.999 Y-30.057
G1 F2400 X14 Y30.06 E732.697
G0 F18000 X14.5 Y30.06
G1 F2400 X14.499 Y-30.057 E736.59602
G0 F18000 X14.999 Y-30.057
G1 F2400 X15 Y30.059 E740.49498
G0 F18000 X15.5 Y30.059
G1 F2400 X15.499 Y-30.057 E744.39394
G0 F18000 X15.999 Y-30.057
G1 F2400 X16 Y30.059 E748.2929
G0 F18000 X16.5 Y30.059
G1 F2400 X16.499 Y-30.057 E752.19186
G0 F18000 X16.999 Y-30.057
G1 F2400 X17 Y30.059 E756.09082
; RAFT SURFACE
; Layer Change GCode
; LAYER:-1
; TYPE:SUPPORT
G1 X16.999 Y-30.057 Z1.311 E759.98983
G0 F18000 X16.499 Y-30.057
G1 F2400 X16.5 Y30.059 E763.88879
G0 F18000 X16 Y30.059
G1 F2400 X15.999 Y-30.057 E767.78775
G0 F18000 X15.499 Y-30.057
G1 F2400 X15.5 Y30.059 E771.68671
G0 F18000 X15 Y30.059
G1 F2400 X14.999 Y-30.057 E775.58567
G0 F18000 X14.499 Y-30.057
G1 F2400 X14.5 Y30.06 E779.48469
G0 F18000 X14 Y30.06
G1 F2400 X13.999 Y-30.057 E783.38371
G0 F18000 X13.499 Y-30.057
G1 F2400 X13.5 Y30.06 E787.28274
G0 F18000 X13 Y30.06
G1 F2400 X12.999 Y-30.057 E791.18176
G0 F18000 X12.499 Y-30.057
G1 F2400 X12.5 Y30.06 E795.08079
G0 F18000 X12 Y30.06
G1 F2400 X11.999 Y-30.057 E798.97981
G0 F18000 X11.499 Y-30.057
G1 F2400 X11.5 Y30.06 E802.87883
G0 F18000 X11 Y30.06
G1 F2400 X10.999 Y-30.057 E806.77786
G0 F18000 X10.499 Y-30.057
G1 F2400 X10.5 Y30.06 E810.67688
G0 F18000 X10 Y30.06
G1 F2400 X9.999 Y-30.057 E814.57591
G0 F18000 X9.499 Y-30.057
G1 F2400 X9.5 Y30.06 E818.47493
G0 F18000 X9 Y30.06
G1 F2400 X8.999 Y-30.057 E822.37396
G0 F18000 X8.499 Y-30.057
G1 F2400 X8.5 Y30.06 E826.27298
G0 F18000 X8 Y30.06
G1 F2400 X7.999 Y-30.057 E830.172
G0 F18000 X7.499 Y-30.057
G1 F2400 X7.5 Y30.06 E834.07103
G0 F18000 X7 Y30.06
G1 F2400 X6.999 Y-30.057 E837.97005
G0 F18000 X6.499 Y-30.057
G1 F2400 X6.5 Y30.06 E841.86908
G0 F18000 X6 Y30.06
G1 F2400 X5.999 Y-30.057 E845.7681
G0 F18000 X5.499 Y-30.057
G1 F2400 X5.5 Y30.06 E849.66712
G0 F18000 X5 Y30.06
G1 F2400 X4.999 Y-30.057 E853.56615
G0 F18000 X4.499 Y-30.057
G1 F2400 X4.5 Y30.06 E857.46517
G0 F18000 X4 Y30.06
G1 F2400 X3.999 Y-30.057 E861.3642
G0 F18000 X3.499 Y-30.057
G1 F2400 X3.5 Y30.06 E865.26322
G0 F18000 X3 Y30.06
G1 F2400 X3 Y14.553 E866.26896
G0 F18000 X2.5 Y15.27
G1 F2400 X2.5 Y30.06 E867.2282
G0 F18000 X2 Y30.06
G1 F2400 X2 Y15.707 E868.1591
G0 F18000 X1.5 Y16.022
G1 F2400 X1.5 Y30.06 E869.06956
G0 F18000 X1 Y30.06
G1 F2400 X1 Y16.229 E869.9666
G0 F18000 X0.5 Y16.331
G1 F2400 X0.5 Y30.06 E870.85703
G0 F18000 X0 Y30.059
G1 F2400 X0 Y16.397 E871.74311
G0 F18000 X-0.499 Y16.331
G1 F2400 X-0.499 Y30.059 E872.63347
G0 F18000 X-0.999 Y30.059
G1 F2400 X-0.999 Y16.23 E873.53038
G0 F18000 X-1.499 Y16.023
G1 F2400 X-1.499 Y30.059 E874.44072
G0 F18000 X-1.999 Y30.059
G1 F2400 X-1.999 Y15.708 E875.37148
G0 F18000 X-2.499 Y15.272
G1 F2400 X-2.499 Y30.059 E876.33053
G0 F18000 X-2.999 Y30.059
G1 F2400 X-2.999 Y14.554 E877.33614
G0 F18000 X-2.999 Y11.445
G1 F2400 X-3 Y-11.448 E878.82092
G0 F18000 X-2.5 Y-10.728
G1 F2400 X-2.499 Y10.727 E880.21243
G0 F18000 X-1.999 Y10.291
G1 F2400 X-2 Y-10.292 E881.54739
G0 F18000 X-1.5 Y-9.977
G1 F2400 X-1.499 Y9.977 E882.84155
G0 F18000 X-0.999 Y9.769
G1 F2400 X-1 Y-9.769 E884.10873
G0 F18000 X-0.5 Y-9.668
G1 F2400 X-0.499 Y9.669 E885.36288
G0 F18000 X0 Y9.603
G1 F2400 X0 Y-9.602 E886.60846
G0 F18000 X0.499 Y-9.668
G1 F2400 X0.5 Y9.669 E887.8626
G0 F18000 X1 Y9.769
G1 F2400 X0.999 Y-9.769 E889.12979
G0 F18000 X1.499 Y-9.976
G1 F2400 X1.5 Y9.977 E890.42388
G0 F18000 X2 Y10.292
G1 F2400 X1.999 Y-10.291 E891.75884
G0 F18000 X2.499 Y-10.727
G1 F2400 X2.5 Y10.728 E893.15035
G0 F18000 X3 Y11.448
G1 F2400 X2.999 Y-11.444 E894.63506
G0 F18000 X2.999 Y-14.554
G1 F2400 X2.999 Y-30.057 E895.64055
G0 F18000 X2.499 Y-30.057
G1 F2400 X2.499 Y-15.272 E896.59946
G0 F18000 X1.999 Y-15.708
G1 F2400 X1.999 Y-30.057 E897.5301
G0 F18000 X1.499 Y-30.057
G1 F2400 X1.499 Y-16.023 E898.4403
G0 F18000 X0.999 Y-16.23
G1 F2400 X0.999 Y-30.057 E899.33709
G0 F18000 X0.499 Y-30.057
G1 F2400 X0.499 Y-16.331 E900.22732
G0 F18000 X0 Y-16.397
G1 F2400 X0 Y-30.058 E901.11333
G0 F18000 X-0.5 Y-30.058
G1 F2400 X-0.5 Y-16.331 E902.00363
G0 F18000 X-1 Y-16.229
G1 F2400 X-1 Y-30.058 E902.90054
G0 F18000 X-1.5 Y-30.058
G1 F2400 X-1.5 Y-16.022 E903.81088
G0 F18000 X-2 Y-15.707
G1 F2400 X-2 Y-30.058 E904.74164
G0 F18000 X-2.5 Y-30.058
G1 F2400 X-2.5 Y-15.27 E905.70075
G0 F18000 X-3 Y-14.552
G1 F2400 X-3 Y-30.058 E906.70643
G0 F18000 X-3.5 Y-30.058
G1 F2400 X-3.499 Y30.059 E910.60545
G0 F18000 X-3.999 Y30.059
G1 F2400 X-4 Y-30.058 E914.50448
G0 F18000 X-4.5 Y-30.058
G1 F2400 X-4.499 Y30.059 E918.4035
G0 F18000 X-4.999 Y30.059
G1 F2400 X-5 Y-30.058 E922.30252
G0 F18000 X-5.5 Y-30.058
G1 F2400 X-5.499 Y30.059 E926.20155
G0 F18000 X-5.999 Y30.059
G1 F2400 X-6 Y-30.058 E930.10057
G0 F18000 X-6.5 Y-30.058
G1 F2400 X-6.499 Y30.059 E933.9996
G0 F18000 X-6.999 Y30.059
G1 F2400 X-7 Y-30.058 E937.89862
G0 F18000 X-7.5 Y-30.058
G1 F2400 X-7.499 Y30.059 E941.79764
G0 F18000 X-7.999 Y30.059
G1 F2400 X-8 Y-30.058 E945.69667
G0 F18000 X-8.5 Y-30.058
G1 F2400 X-8.499 Y30.059 E949.59569
G0 F18000 X-8.999 Y30.059
G1 F2400 X-9 Y-30.058 E953.49472
G0 F18000 X-9.5 Y-30.058
G1 F2400 X-9.499 Y30.059 E957.39374
G0 F18000 X-9.999 Y30.059
G1 F2400 X-10 Y-30.058 E961.29277
G0 F18000 X-10.5 Y-30.058
G1 F2400 X-10.499 Y30.059 E965.19179
G0 F18000 X-10.999 Y30.059
G1 F2400 X-11 Y-30.058 E969.09081
G0 F18000 X-11.5 Y-30.058
G1 F2400 X-11.499 Y30.059 E972.98984
G0 F18000 X-11.999 Y30.059
G1 F2400 X-12 Y-30.058 E976.88886
G0 F18000 X-12.5 Y-30.058
G1 F2400 X-12.499 Y30.059 E980.78789
G0 F18000 X-12.999 Y30.059
G1 F2400 X-13 Y-30.058 E984.68691
G0 F18000 X-13.5 Y-30.058
G1 F2400 X-13.499 Y30.059 E988.58593
G0 F18000 X-13.999 Y30.059
G1 F2400 X-14 Y-30.058 E992.48496
G0 F18000 X-14.5 Y-30.058
G1 F2400 X-14.499 Y30.059 E996.38398
G0 F18000 X-14.999 Y30.059
G1 F2400 X-15 Y-30.057 E1000.28294
G0 F18000 X-15.5 Y-30.057
G1 F2400 X-15.499 Y30.059 E1004.1819
G0 F18000 X-15.999 Y30.059
G1 F2400 X-16 Y-30.057 E1008.08086
G0 F18000 X-16.5 Y-30.057
G1 F2400 X-16.499 Y30.059 E1011.97982
G0 F18000 X-16.999 Y30.059
G1 F2400 X-17 Y-30.057 E1015.87878
; Layer Change GCode
; LAYER:0
G4 P0
M107
G1 F6600 E1009.07878
G1 Z1.611
G0 F18000 X-11.798 Y24.8 Z2.111
; TYPE:WALL-OUTER
G1 Z1.811
G1 F6600 E1015.97878
G1 F720 X-11.798 Y24.8 E1015.97878
G1 X-11.798 Y-24.798 E1018.45323
G1 X11.8 Y-24.798 E1019.63054
G1 X11.8 Y24.8 E1022.105
G1 X-11.798 Y24.8 E1023.2823
G0 F18000 X-11.398 Y24.4
; TYPE:WALL-INNER
G1 F720 X-11.398 Y24.4 E1023.2823
G1 X-11.398 Y-24.398 E1025.71685
G1 X11.4 Y-24.398 E1026.85424
G1 X11.4 Y24.4 E1029.28879
G1 X-11.398 Y24.4 E1030.42618
G0 F18000 X-0.038 Y21.998
G0 X-0.038 Y21.998
G0 X0 Y21.702
; TYPE:WALL-OUTER
G1 F720 X0 Y21.702 E1030.42618
G1 X2.251 Y21.405 E1030.53946
G1 X4.35 Y20.536 E1030.6528
G1 X6.153 Y19.153 E1030.76617
G1 X7.536 Y17.351 E1030.87949
G1 X8.405 Y15.251 E1030.99288
G1 X8.701 Y13 E1031.10615
G1 X8.405 Y10.748 E1031.21947
G1 X7.536 Y8.649 E1031.33281
G1 X6.153 Y6.846 E1031.44617
G1 X4.351 Y5.463 E1031.5595
G1 X2.251 Y4.594 E1031.67289
G1 X0 Y4.298 E1031.78616
G1 X-2.251 Y4.594 E1031.89943
G1 X-4.35 Y5.463 E1032.01277
G1 X-6.153 Y6.846 E1032.12613
G1 X-7.536 Y8.649 E1032.2395
G1 X-8.405 Y10.748 E1032.35284
G1 X-8.701 Y13 E1032.46616
G1 X-8.405 Y15.251 E1032.57943
G1 X-7.536 Y17.35 E1032.69277
G1 X-6.153 Y19.153 E1032.80613
G1 X-4.351 Y20.536 E1032.91946
G1 X-2.251 Y21.405 E1033.03285
G1 X0 Y21.702 E1033.14612
G0 F18000 X0 Y22.105
; TYPE:WALL-INNER
G1 F720 X0 Y22.105 E1033.14612
G1 X2.356 Y21.795 E1033.26468
G1 X4.552 Y20.885 E1033.38327
G1 X6.438 Y19.438 E1033.50187
G1 X7.885 Y17.553 E1033.62042
G1 X8.795 Y15.355 E1033.73911
G1 X9.104 Y13 E1033.85761
G1 X8.795 Y10.643 E1033.9762
G1 X7.885 Y8.447 E1034.0948
G1 X6.438 Y6.561 E1034.21339
G1 X4.553 Y5.114 E1034.33195
G1 X2.355 Y4.204 E1034.45064
G1 X0 Y3.895 E1034.56913
G1 X-2.356 Y4.204 E1034.68768
G1 X-4.552 Y5.114 E1034.80628
G1 X-6.438 Y6.561 E1034.92487
G1 X-7.885 Y8.447 E1035.04347
G1 X-8.795 Y10.643 E1035.16206
G1 X-9.104 Y13 E1035.28066
G1 X-8.795 Y15.356 E1035.39921
G1 X-7.885 Y17.552 E1035.5178
G1 X-6.438 Y19.438 E1035.63639
G1 X-4.553 Y20.885 E1035.75495
G1 X-2.356 Y21.795 E1035.87359
G1 X0 Y22.105 E1035.99214
G1 F6600 E1029.19214
G1 Z2.111
G0 F18000 X0 Y22.102
G0 X2.354 Y21.793
G0 X4.55 Y20.883
G0 X6.436 Y19.436
G0 X7.883 Y17.552
G0 X8.793 Y15.354
G0 X9.102 Y13
G0 X8.793 Y10.645
G0 X7.883 Y8.449
G0 X6.436 Y6.563
G0 X4.552 Y5.116
G0 X2.354 Y4.206
G0 X-0.026 Y3.893
G0 X-0.037 Y-3.89
G0 X-0.038 Y-4.29
G0 X-0.038 Y-4.001
G0 X-0.038 Y-4.001
G0 X0 Y-4.297
; TYPE:WALL-OUTER
G1 Z1.811
G1 F6600 E1036.09214
G1 F720 X0 Y-4.297 E1036.09214
G1 X2.251 Y-4.594 E1036.20542
G1 X4.351 Y-5.463 E1036.31881
G1 X6.153 Y-6.846 E1036.43213
G1 X7.536 Y-8.648 E1036.54546
G1 X8.405 Y-10.748 E1036.65885
G1 X8.702 Y-13 E1036.77217
G1 X8.405 Y-15.251 E1036.88545
G1 X7.536 Y-17.35 E1036.99879
G1 X6.153 Y-19.153 E1037.11216
G1 X4.351 Y-20.536 E1037.22548
G1 X2.251 Y-21.405 E1037.33887
G1 X0 Y-21.702 E1037.45214
G1 X-2.251 Y-21.405 E1037.56542
G1 X-4.35 Y-20.536 E1037.67876
G1 X-6.153 Y-19.153 E1037.79213
G1 X-7.536 Y-17.351 E1037.90545
G1 X-8.405 Y-15.251 E1038.01884
G1 X-8.702 Y-13 E1038.13212
G1 X-8.405 Y-10.748 E1038.24544
G1 X-7.536 Y-8.649 E1038.35878
G1 X-6.153 Y-6.846 E1038.47215
G1 X-4.351 Y-5.463 E1038.58548
G1 X-2.251 Y-4.594 E1038.69886
G1 X0 Y-4.297 E1038.81214
G0 F18000 X0 Y-3.894
; TYPE:WALL-INNER
G1 F720 X0 Y-3.894 E1038.81214
G1 X2.356 Y-4.204 E1038.93069
G1 X4.553 Y-5.114 E1039.04933
G1 X6.438 Y-6.561 E1039.16789
G1 X7.885 Y-8.446 E1039.28644
G1 X8.795 Y-10.643 E1039.40508
G1 X9.105 Y-13 E1039.52369
G1 X8.795 Y-15.356 E1039.64224
G1 X7.885 Y-17.552 E1039.76083
G1 X6.438 Y-19.438 E1039.87943
G1 X4.553 Y-20.885 E1039.99799
G1 X2.356 Y-21.795 E1040.11663
G1 X0 Y-22.105 E1040.23518
G1 X-2.356 Y-21.795 E1040.35374
G1 X-4.552 Y-20.885 E1040.47233
G1 X-6.438 Y-19.438 E1040.59092
G1 X-7.885 Y-17.553 E1040.70948
G1 X-8.795 Y-15.356 E1040.82812
G1 X-9.105 Y-13 E1040.94667
G1 X-8.795 Y-10.643 E1041.06528
G1 X-7.885 Y-8.447 E1041.18387
G1 X-6.438 Y-6.561 E1041.30247
G1 X-4.553 Y-5.114 E1041.42102
G1 X-2.356 Y-4.204 E1041.53966
G1 X0 Y-3.894 E1041.65822
G0 F18000 X0.372 Y-3.6
; TYPE:BOTTOM-FILL
G1 F720 X11.06 Y-3.6 E1042.19144
G0 F18000 X11.06 Y-4
G1 F720 X2.752 Y-4 E1042.60593
G0 F18000 X3.717 Y-4.4
G1 F720 X11.06 Y-4.4 E1042.97228
G0 F18000 X11.06 Y-4.8
G1 F720 X4.682 Y-4.8 E1043.29048
G0 F18000 X5.222 Y-5.2
G1 F720 X11.06 Y-5.2 E1043.58173
G0 F18000 X11.06 Y-5.6
G1 F720 X5.743 Y-5.6 E1043.847
G0 F18000 X6.264 Y-6
G1 F720 X11.06 Y-6 E1044.08627
G0 F18000 X11.06 Y-6.4
G1 F720 X6.742 Y-6.4 E1044.3017
G0 F18000 X7.049 Y-6.8
G1 F720 X11.06 Y-6.8 E1044.50181
G0 F18000 X11.06 Y-7.2
G1 F720 X7.356 Y-7.2 E1044.6866
G0 F18000 X7.662 Y-7.6
G1 F720 X11.06 Y-7.6 E1044.85613
G0 F18000 X11.06 Y-8
G1 F720 X7.969 Y-8 E1045.01034
G0 F18000 X8.234 Y-8.4
G1 F720 X11.06 Y-8.4 E1045.15133
G0 F18000 X11.06 Y-8.8
G1 F720 X8.399 Y-8.8 E1045.28409
G0 F18000 X8.565 Y-9.2
G1 F720 X11.06 Y-9.2 E1045.40856
G0 F18000 X11.06 Y-9.6
G1 F720 X8.731 Y-9.6 E1045.52476
G0 F18000 X8.897 Y-10
G1 F720 X11.06 Y-10 E1045.63267
G0 F18000 X11.06 Y-10.4
G1 F720 X9.063 Y-10.4 E1045.7323
G0 F18000 X9.159 Y-10.8
G1 F720 X11.06 Y-10.8 E1045.82714
G0 F18000 X11.06 Y-11.2
G1 F720 X9.212 Y-11.2 E1045.91934
G0 F18000 X9.264 Y-11.6
G1 F720 X11.06 Y-11.6 E1046.00894
G0 F18000 X11.06 Y-12
G1 F720 X9.317 Y-12 E1046.0959
G0 F18000 X9.369 Y-12.4
G1 F720 X11.06 Y-12.4 E1046.18027
G0 F18000 X11.06 Y-12.8
G1 F720 X9.422 Y-12.8 E1046.26199
G0 F18000 X9.422 Y-13.2
G1 F720 X11.06 Y-13.2 E1046.34371
G0 F18000 X11.06 Y-13.6
G1 F720 X9.369 Y-13.6 E1046.42807
G0 F18000 X9.317 Y-14
G1 F720 X11.06 Y-14 E1046.51503
G0 F18000 X11.06 Y-14.4
G1 F720 X9.264 Y-14.4 E1046.60463
G0 F18000 X9.212 Y-14.8
G1 F720 X11.06 Y-14.8 E1046.69683
G0 F18000 X11.059 Y-15.2
G1 F720 X9.158 Y-15.2 E1046.79167
G0 F18000 X9.061 Y-15.6
G1 F720 X11.059 Y-15.6 E1046.89135
G0 F18000 X11.059 Y-16
G1 F720 X8.895 Y-16 E1046.99931
G0 F18000 X8.729 Y-16.4
G1 F720 X11.059 Y-16.4 E1047.11556
G0 F18000 X11.059 Y-16.8
G1 F720 X8.564 Y-16.8 E1047.24003
G0 F18000 X8.398 Y-17.2
G1 F720 X11.059 Y-17.2 E1047.37279
G0 F18000 X11.059 Y-17.6
G1 F720 X8.232 Y-17.6 E1047.51383
G0 F18000 X7.967 Y-18
G1 F720 X11.059 Y-18 E1047.66809
G0 F18000 X11.059 Y-18.4
G1 F720 X7.661 Y-18.4 E1047.83762
G0 F18000 X7.354 Y-18.8
G1 F720 X11.059 Y-18.8 E1048.02246
G0 F18000 X11.059 Y-19.2
G1 F720 X7.047 Y-19.2 E1048.22262
G0 F18000 X6.74 Y-19.6
G1 F720 X11.059 Y-19.6 E1048.4381
G0 F18000 X11.059 Y-20
G1 F720 X6.262 Y-20 E1048.67742
G0 F18000 X5.741 Y-20.4
G1 F720 X11.059 Y-20.4 E1048.94274
G0 F18000 X11.059 Y-20.8
G1 F720 X5.219 Y-20.8 E1049.2341
G0 F18000 X4.679 Y-21.2
G1 F720 X11.059 Y-21.2 E1049.55239
G0 F18000 X11.059 Y-21.6
G1 F720 X3.714 Y-21.6 E1049.91884
G0 F18000 X2.749 Y-22
G1 F720 X11.059 Y-22 E1050.33343
G0 F18000 X11.059 Y-22.4
G1 F720 X0.364 Y-22.4 E1050.867
G0 F18000 X-0.365 Y-22.4
G1 F720 X-11.057 Y-22.4 E1051.40043
G0 F18000 X-11.057 Y-22
G1 F720 X-2.749 Y-22 E1051.81492
G0 F18000 X-3.714 Y-21.6
G1 F720 X-11.057 Y-21.6 E1052.18126
G0 F18000 X-11.057 Y-21.2
G1 F720 X-4.678 Y-21.2 E1052.49951
G0 F18000 X-5.218 Y-20.8
G1 F720 X-11.057 Y-20.8 E1052.79082
G0 F18000 X-11.057 Y-20.4
G1 F720 X-5.74 Y-20.4 E1053.05608
G0 F18000 X-6.262 Y-20
G1 F720 X-11.057 Y-20 E1053.29531
G0 F18000 X-11.057 Y-19.6
G1 F720 X-6.74 Y-19.6 E1053.51068
G0 F18000 X-7.047 Y-19.2
G1 F720 X-11.057 Y-19.2 E1053.71074
G0 F18000 X-11.057 Y-18.8
G1 F720 X-7.354 Y-18.8 E1053.89549
G0 F18000 X-7.661 Y-18.4
G1 F720 X-11.057 Y-18.4 E1054.06491
G0 F18000 X-11.057 Y-18
G1 F720 X-7.968 Y-18 E1054.21902
G0 F18000 X-8.232 Y-17.6
G1 F720 X-11.057 Y-17.6 E1054.35996
G0 F18000 X-11.057 Y-17.2
G1 F720 X-8.398 Y-17.2 E1054.49262
G0 F18000 X-8.564 Y-16.8
G1 F720 X-11.057 Y-16.8 E1054.617
G0 F18000 X-11.057 Y-16.4
G1 F720 X-8.73 Y-16.4 E1054.73309
G0 F18000 X-8.895 Y-16
G1 F720 X-11.057 Y-16 E1054.84096
G0 F18000 X-11.057 Y-15.6
G1 F720 X-9.061 Y-15.6 E1054.94054
G0 F18000 X-9.158 Y-15.2
G1 F720 X-11.057 Y-15.2 E1055.03528
G0 F18000 X-11.057 Y-14.8
G1 F720 X-9.211 Y-14.8 E1055.12738
G0 F18000 X-9.264 Y-14.4
G1 F720 X-11.057 Y-14.4 E1055.21683
G0 F18000 X-11.057 Y-14
G1 F720 X-9.316 Y-14 E1055.30369
G0 F18000 X-9.369 Y-13.6
G1 F720 X-11.057 Y-13.6 E1055.3879
G0 F18000 X-11.057 Y-13.2
G1 F720 X-9.422 Y-13.2 E1055.46947
G0 F18000 X-9.422 Y-12.8
G1 F720 X-11.057 Y-12.8 E1055.55104
G0 F18000 X-11.057 Y-12.4
G1 F720 X-9.369 Y-12.4 E1055.63526
G0 F18000 X-9.317 Y-12
G1 F720 X-11.057 Y-12 E1055.72207
G0 F18000 X-11.057 Y-11.6
G1 F720 X-9.264 Y-11.6 E1055.81152
G0 F18000 X-9.212 Y-11.2
G1 F720 X-11.057 Y-11.2 E1055.90357
G0 F18000 X-11.057 Y-10.8
G1 F720 X-9.159 Y-10.8 E1055.99826
G0 F18000 X-9.063 Y-10.4
G1 F720 X-11.057 Y-10.4 E1056.09774
G0 F18000 X-11.057 Y-10
G1 F720 X-8.897 Y-10 E1056.2055
G0 F18000 X-8.73 Y-9.6
G1 F720 X-11.057 Y-9.6 E1056.3216
G0 F18000 X-11.057 Y-9.2
G1 F720 X-8.564 Y-9.2 E1056.44597
G0 F18000 X-8.398 Y-8.8
G1 F720 X-11.057 Y-8.8 E1056.57863
G0 F18000 X-11.057 Y-8.4
G1 F720 X-8.232 Y-8.4 E1056.71957
G0 F18000 X-7.968 Y-7.999
G1 F720 X-11.057 Y-7.999 E1056.87368
G0 F18000 X-11.057 Y-7.599
G1 F720 X-7.662 Y-7.599 E1057.04306
G0 F18000 X-7.355 Y-7.2
G1 F720 X-11.057 Y-7.199 E1057.22775
G0 F18000 X-11.057 Y-6.799
G1 F720 X-7.049 Y-6.8 E1057.42771
G0 F18000 X-6.742 Y-6.4
G1 F720 X-11.057 Y-6.399 E1057.64299
G0 F18000 X-11.057 Y-5.999
G1 F720 X-6.264 Y-6 E1057.88211
G0 F18000 X-5.743 Y-5.6
G1 F720 X-11.057 Y-5.599 E1058.14723
G0 F18000 X-11.057 Y-5.199
G1 F720 X-5.222 Y-5.2 E1058.43834
G0 F18000 X-4.682 Y-4.8
G1 F720 X-11.057 Y-4.799 E1058.75639
G0 F18000 X-11.057 Y-4.399
G1 F720 X-3.717 Y-4.4 E1059.12258
G0 F18000 X-2.752 Y-4
G1 F720 X-11.057 Y-3.999 E1059.53692
G0 F18000 X-11.057 Y-3.599
G1 F720 X-0.373 Y-3.6 E1060.06995
G0 F18000 X-0.366 Y3.6
G0 X-0.366 Y3.6
G1 F720 X-11.058 Y3.6 E1060.60337
G0 F18000 X-11.058 Y4
G1 F720 X-2.752 Y4 E1061.01776
G0 F18000 X-3.716 Y4.4
G1 F720 X-11.058 Y4.4 E1061.38406
G0 F18000 X-11.058 Y4.8
G1 F720 X-4.681 Y4.8 E1061.70221
G0 F18000 X-5.221 Y5.2
G1 F720 X-11.058 Y5.2 E1061.99341
G0 F18000 X-11.058 Y5.6
G1 F720 X-5.742 Y5.6 E1062.25863
G0 F18000 X-6.264 Y6
G1 F720 X-11.058 Y6 E1062.4978
G0 F18000 X-11.058 Y6.4
G1 F720 X-6.742 Y6.4 E1062.71313
G0 F18000 X-7.049 Y6.8
G1 F720 X-11.058 Y6.8 E1062.91314
G0 F18000 X-11.058 Y7.2
G1 F720 X-7.356 Y7.2 E1063.09783
G0 F18000 X-7.661 Y7.6
G1 F720 X-11.058 Y7.6 E1063.26731
G0 F18000 X-11.058 Y8
G1 F720 X-7.968 Y8 E1063.42147
G0 F18000 X-8.233 Y8.4
G1 F720 X-11.058 Y8.4 E1063.56241
G0 F18000 X-11.058 Y8.8
G1 F720 X-8.399 Y8.8 E1063.69507
G0 F18000 X-8.565 Y9.2
G1 F720 X-11.058 Y9.2 E1063.81945
G0 F18000 X-11.058 Y9.6
G1 F720 X-8.731 Y9.6 E1063.93554
G0 F18000 X-8.897 Y10
G1 F720 X-11.058 Y10 E1064.04335
G0 F18000 X-11.058 Y10.4
G1 F720 X-9.063 Y10.4 E1064.14288
G0 F18000 X-9.159 Y10.8
G1 F720 X-11.058 Y10.8 E1064.23763
G0 F18000 X-11.058 Y11.2
G1 F720 X-9.211 Y11.2 E1064.32977
G0 F18000 X-9.264 Y11.6
G1 F720 X-11.058 Y11.6 E1064.41928
G0 F18000 X-11.058 Y12
G1 F720 X-9.316 Y12 E1064.50618
G0 F18000 X-9.368 Y12.4
G1 F720 X-11.058 Y12.4 E1064.5905
G0 F18000 X-11.058 Y12.8
G1 F720 X-9.421 Y12.8 E1064.67217
G0 F18000 X-9.421 Y13.2
G1 F720 X-11.058 Y13.2 E1064.75384
G0 F18000 X-11.058 Y13.6
G1 F720 X-9.368 Y13.6 E1064.83815
G0 F18000 X-9.316 Y14
G1 F720 X-11.058 Y14 E1064.92506
G0 F18000 X-11.058 Y14.4
G1 F720 X-9.264 Y14.4 E1065.01457
G0 F18000 X-9.211 Y14.8
G1 F720 X-11.058 Y14.8 E1065.10671
G0 F18000 X-11.057 Y15.2
G1 F720 X-9.158 Y15.2 E1065.20145
G0 F18000 X-9.061 Y15.6
G1 F720 X-11.057 Y15.6 E1065.30104
G0 F18000 X-11.057 Y16
G1 F720 X-8.895 Y16 E1065.4089
G0 F18000 X-8.729 Y16.4
G1 F720 X-11.057 Y16.4 E1065.52504
G0 F18000 X-11.057 Y16.8
G1 F720 X-8.564 Y16.8 E1065.64942
G0 F18000 X-8.398 Y17.2
G1 F720 X-11.057 Y17.2 E1065.78208
G0 F18000 X-11.057 Y17.6
G1 F720 X-8.232 Y17.6 E1065.92302
G0 F18000 X-7.967 Y18
G1 F720 X-11.057 Y18 E1066.07718
G0 F18000 X-11.057 Y18.4
G1 F720 X-7.661 Y18.4 E1066.2466
G0 F18000 X-7.354 Y18.8
G1 F720 X-11.057 Y18.8 E1066.43135
G0 F18000 X-11.057 Y19.2
G1 F720 X-7.047 Y19.2 E1066.63141
G0 F18000 X-6.74 Y19.6
G1 F720 X-11.057 Y19.6 E1066.84678
G0 F18000 X-11.057 Y20
G1 F720 X-6.262 Y20 E1067.08601
G0 F18000 X-5.741 Y20.4
G1 F720 X-11.057 Y20.4 E1067.35122
G0 F18000 X-11.057 Y20.8
G1 F720 X-5.219 Y20.8 E1067.64248
G0 F18000 X-4.679 Y21.2
G1 F720 X-11.057 Y21.2 E1067.96068
G0 F18000 X-11.057 Y21.6
G1 F720 X-3.714 Y21.6 E1068.32703
G0 F18000 X-2.749 Y22
G1 F720 X-11.057 Y22 E1068.74151
G0 F18000 X-11.057 Y22.4
G1 F720 X-0.364 Y22.4 E1069.27499
G0 F18000 X0.365 Y22.4
G1 F720 X11.059 Y22.4 E1069.80852
G0 F18000 X11.059 Y22
G1 F720 X2.749 Y22 E1070.2231
G0 F18000 X3.714 Y21.6
G1 F720 X11.059 Y21.6 E1070.58955
G0 F18000 X11.059 Y21.2
G1 F720 X4.678 Y21.2 E1070.9079
G0 F18000 X5.218 Y20.8
G1 F720 X11.059 Y20.8 E1071.1993
G0 F18000 X11.059 Y20.4
G1 F720 X5.74 Y20.4 E1071.46467
G0 F18000 X6.262 Y20
G1 F720 X11.059 Y20 E1071.70399
G0 F18000 X11.059 Y19.6
G1 F720 X6.74 Y19.6 E1071.91947
G0 F18000 X7.047 Y19.2
G1 F720 X11.059 Y19.2 E1072.11963
G0 F18000 X11.059 Y18.8
G1 F720 X7.354 Y18.8 E1072.30447
G0 F18000 X7.661 Y18.4
G1 F720 X11.059 Y18.4 E1072.474
G0 F18000 X11.059 Y18
G1 F720 X7.968 Y18 E1072.62821
G0 F18000 X8.232 Y17.6
G1 F720 X11.059 Y17.6 E1072.76925
G0 F18000 X11.059 Y17.2
G1 F720 X8.398 Y17.2 E1072.90201
G0 F18000 X8.564 Y16.8
G1 F720 X11.059 Y16.8 E1073.02648
G0 F18000 X11.059 Y16.4
G1 F720 X8.729 Y16.4 E1073.14273
G0 F18000 X8.895 Y16
G1 F720 X11.059 Y16 E1073.25069
G0 F18000 X11.059 Y15.6
G1 F720 X9.061 Y15.6 E1073.35037
G0 F18000 X9.158 Y15.2
G1 F720 X11.059 Y15.2 E1073.44521
G0 F18000 X11.059 Y14.8
G1 F720 X9.21 Y14.8 E1073.53746
G0 F18000 X9.263 Y14.4
G1 F720 X11.059 Y14.4 E1073.62706
G0 F18000 X11.059 Y14
G1 F720 X9.316 Y14 E1073.71402
G0 F18000 X9.368 Y13.6
G1 F720 X11.059 Y13.6 E1073.79838
G0 F18000 X11.059 Y13.2
G1 F720 X9.421 Y13.2 E1073.8801
G0 F18000 X9.421 Y12.8
G1 F720 X11.059 Y12.8 E1073.96182
G0 F18000 X11.059 Y12.4
G1 F720 X9.368 Y12.4 E1074.04619
G0 F18000 X9.316 Y12
G1 F720 X11.059 Y12 E1074.13315
G0 F18000 X11.059 Y11.6
G1 F720 X9.264 Y11.6 E1074.2227
G0 F18000 X9.211 Y11.2
G1 F720 X11.059 Y11.2 E1074.3149
G0 F18000 X11.059 Y10.8
G1 F720 X9.159 Y10.8 E1074.40969
G0 F18000 X9.063 Y10.4
G1 F720 X11.059 Y10.4 E1074.50927
G0 F18000 X11.059 Y10
G1 F720 X8.897 Y10 E1074.61713
G0 F18000 X8.73 Y9.6
G1 F720 X11.059 Y9.6 E1074.73333
G0 F18000 X11.059 Y9.2
G1 F720 X8.564 Y9.2 E1074.8578
G0 F18000 X8.398 Y8.8
G1 F720 X11.059 Y8.8 E1074.99056
G0 F18000 X11.059 Y8.4
G1 F720 X8.232 Y8.4 E1075.1316
G0 F18000 X7.968 Y7.999
G1 F720 X11.059 Y7.999 E1075.28581
G0 F18000 X11.059 Y7.599
G1 F720 X7.662 Y7.599 E1075.45529
G0 F18000 X7.355 Y7.2
G1 F720 X11.059 Y7.199 E1075.64008
G0 F18000 X11.059 Y6.799
G1 F720 X7.049 Y6.8 E1075.84014
G0 F18000 X6.742 Y6.4
G1 F720 X11.059 Y6.399 E1076.05552
G0 F18000 X11.059 Y5.999
G1 F720 X6.264 Y6 E1076.29474
G0 F18000 X5.743 Y5.6
G1 F720 X11.059 Y5.599 E1076.55996
G0 F18000 X11.059 Y5.199
G1 F720 X5.222 Y5.2 E1076.85117
G0 F18000 X4.682 Y4.8
G1 F720 X11.059 Y4.799 E1077.16932
G0 F18000 X11.059 Y4.399
G1 F720 X3.717 Y4.4 E1077.53561
G0 F18000 X2.751 Y4
G1 F720 X11.059 Y3.999 E1077.9501
G0 F18000 X11.059 Y3.599
G1 F720 X0.366 Y3.6 E1078.48357
G0 F18000 X11.059 Y3.199
G0 X11.059 Y3.199
G1 F720 X-11.058 Y3.2 E1079.587
G0 F18000 X-11.058 Y2.8
G1 F720 X11.059 Y2.799 E1080.69042
G0 F18000 X11.059 Y2.399
G1 F720 X-11.058 Y2.4 E1081.79384
G0 F18000 X-11.058 Y2
G1 F720 X11.059 Y1.999 E1082.89726
G0 F18000 X11.059 Y1.599
G1 F720 X-11.058 Y1.6 E1084.00068
G0 F18000 X-11.058 Y1.2
G1 F720 X11.059 Y1.199 E1085.1041
G0 F18000 X11.059 Y0.799
G1 F720 X-11.058 Y0.8 E1086.20752
G0 F18000 X-11.058 Y0.4
G1 F720 X11.059 Y0.399 E1087.31095
G0 F18000 X11.06 Y0
G1 F720 X-11.057 Y0 E1088.41437
G0 F18000 X-11.057 Y-0.399
G1 F720 X11.06 Y-0.4 E1089.51779
G0 F18000 X11.06 Y-0.8
G1 F720 X-11.057 Y-0.799 E1090.62121
G0 F18000 X-11.057 Y-1.199
G1 F720 X11.06 Y-1.2 E1091.72463
G0 F18000 X11.06 Y-1.6
G1 F720 X-11.057 Y-1.599 E1092.82805
G0 F18000 X-11.057 Y-1.999
G1 F720 X11.06 Y-2 E1093.93148
G0 F18000 X11.06 Y-2.4
G1 F720 X-11.057 Y-2.399 E1095.0349
G0 F18000 X-11.057 Y-2.799
G1 F720 X11.06 Y-2.8 E1096.13832
G0 F18000 X11.06 Y-3.2
G1 F720 X-11.057 Y-3.199 E1097.24174
G0 F18000 X-11.057 Y-22.8
G0 X-11.057 Y-22.8
G1 F720 X11.059 Y-22.8 E1098.34511
G0 F18000 X11.059 Y-23.2
G1 F720 X-11.057 Y-23.2 E1099.44848
G0 F18000 X-11.057 Y-23.6
G1 F720 X11.059 Y-23.6 E1100.55186
G0 F18000 X11.059 Y-24
G1 F720 X-11.057 Y-24 E1101.65523
G0 F18000 X-11.057 Y22.8
G0 X-11.057 Y22.8
G1 F720 X11.059 Y22.8 E1102.7586
G0 F18000 X11.059 Y23.2
G1 F720 X-11.057 Y23.2 E1103.86197
G0 F18000 X-11.057 Y23.6
G1 F720 X11.059 Y23.6 E1104.96534
G0 F18000 X11.059 Y24
G1 F720 X-11.057 Y24 E1106.06871
; Layer Change GCode
; LAYER:1
G0 F18000 X-11.748 Y24.75
G0 X-11.748 Y24.75
G0 X-11.248 Y24.25
; TYPE:WALL-INNER
G1 F2160 X-11.248 Y24.25 E1106.06871
G1 X-11.248 Y-24.248 E1108.08503
G1 X11.25 Y-24.248 E1109.02039
G1 X11.25 Y24.25 E1111.0367
G1 X-11.248 Y24.25 E1111.97206
G0 F18000 X-11.748 Y24.75
; TYPE:WALL-OUTER
G1 F1890 X-11.748 Y24.75 E1111.97206
G1 X-11.748 Y-24.748 E1114.02994
G1 X11.75 Y-24.748 E1115.00688
G1 X11.75 Y24.75 E1117.06476
G1 X-11.748 Y24.75 E1118.0417
G0 F18000 X-11.488 Y24.4
G0 X-6.545 Y19.545
G0 X-6.545 Y19.545
; TYPE:WALL-INNER
G1 F2160 X-6.545 Y19.545 E1118.0417
G1 X-4.628 Y21.016 E1118.14216
G1 X-2.395 Y21.941 E1118.24265
G1 X0 Y22.256 E1118.34308
G1 X2.395 Y21.941 E1118.44351
G1 X4.627 Y21.016 E1118.54395
G1 X6.545 Y19.545 E1118.64445
G1 X8.016 Y17.628 E1118.74491
G1 X8.941 Y15.395 E1118.8454
G1 X9.255 Y13 E1118.94582
G1 X8.941 Y10.604 E1119.04629
G1 X8.016 Y8.372 E1119.14673
G1 X6.545 Y6.454 E1119.24723
G1 X4.628 Y4.983 E1119.34769
G1 X2.395 Y4.058 E1119.44817
G1 X0 Y3.744 E1119.5486
G1 X-2.395 Y4.058 E1119.64902
G1 X-4.627 Y4.983 E1119.74947
G1 X-6.545 Y6.454 E1119.84997
G1 X-8.016 Y8.372 E1119.95046
G1 X-8.941 Y10.604 E1120.05091
G1 X-9.255 Y13 E1120.15137
G1 X-8.941 Y15.395 E1120.2518
G1 X-8.016 Y17.627 E1120.35225
G1 X-6.545 Y19.545 E1120.45274
G0 F18000 X-5.893 Y19.8
G0 X-4.601 Y20.971
G0 X-2.381 Y21.89
G0 X-0.242 Y22.019
G0 X-0.046 Y22.098
G0 X-0.046 Y22.098
G0 X0 Y21.752
; TYPE:WALL-OUTER
G1 F1890 X0 Y21.752 E1120.45274
G1 X2.264 Y21.454 E1120.54768
G1 X4.375 Y20.579 E1120.64268
G1 X6.188 Y19.188 E1120.73769
G1 X7.579 Y17.376 E1120.83266
G1 X8.454 Y15.264 E1120.92771
G1 X8.751 Y13 E1121.02264
G1 X8.454 Y10.735 E1121.11761
G1 X7.579 Y8.624 E1121.21262
G1 X6.188 Y6.811 E1121.30762
G1 X4.376 Y5.42 E1121.40259
G1 X2.264 Y4.545 E1121.49764
G1 X0 Y4.248 E1121.59257
G1 X-2.264 Y4.545 E1121.6875
G1 X-4.375 Y5.42 E1121.78251
G1 X-6.188 Y6.811 E1121.87752
G1 X-7.579 Y8.624 E1121.97252
G1 X-8.454 Y10.735 E1122.06753
G1 X-8.751 Y13 E1122.1625
G1 X-8.454 Y15.264 E1122.25743
G1 X-7.579 Y17.375 E1122.35244
G1 X-6.188 Y19.188 E1122.44744
G1 X-4.376 Y20.579 E1122.54242
G1 X-2.264 Y21.454 E1122.63746
G1 X0 Y21.752 E1122.7324
G1 F6600 E1115.9324
G1 Z2.111
G0 F18000 X-0.046 Y22.098
G0 X-0.045 Y22.208
G0 X2.381 Y21.89
G0 X4.6 Y20.971
G0 X6.508 Y19.508
G0 X7.971 Y17.601
G0 X8.89 Y15.38
G0 X9.203 Y13
G0 X8.89 Y10.619
G0 X7.971 Y8.399
G0 X6.508 Y6.491
G0 X4.601 Y5.028
G0 X2.38 Y4.109
G0 X-0.012 Y3.793
G0 X0 Y-3.743
G0 X0 Y-3.743
; TYPE:WALL-INNER
G1 Z1.811
G1 F6600 E1122.8324
G1 F2160 X0 Y-3.743 E1122.8324
G1 X2.395 Y-4.058 E1122.93283
G1 X4.628 Y-4.983 E1123.03332
G1 X6.545 Y-6.454 E1123.13378
G1 X8.016 Y-8.371 E1123.23424
G1 X8.941 Y-10.604 E1123.33472
G1 X9.256 Y-13 E1123.43519
G1 X8.941 Y-15.395 E1123.53562
G1 X8.016 Y-17.627 E1123.63607
G1 X6.545 Y-19.545 E1123.73657
G1 X4.628 Y-21.016 E1123.83703
G1 X2.395 Y-21.941 E1123.93751
G1 X0 Y-22.256 E1124.03794
G1 X-2.395 Y-21.941 E1124.13837
G1 X-4.627 Y-21.016 E1124.23882
G1 X-6.545 Y-19.545 E1124.33932
G1 X-8.016 Y-17.628 E1124.43978
G1 X-8.941 Y-15.395 E1124.54026
G1 X-9.256 Y-13 E1124.64069
G1 X-8.941 Y-10.604 E1124.74116
G1 X-8.016 Y-8.372 E1124.84161
G1 X-6.545 Y-6.454 E1124.94211
G1 X-4.628 Y-4.983 E1125.04257
G1 X-2.395 Y-4.058 E1125.14305
G1 X0 Y-3.743 E1125.24348
G0 F18000 X0 Y-4.247
; TYPE:WALL-OUTER
G1 F1890 X0 Y-4.247 E1125.24348
G1 X2.264 Y-4.545 E1125.33842
G1 X4.376 Y-5.42 E1125.43347
G1 X6.188 Y-6.811 E1125.52844
G1 X7.579 Y-8.623 E1125.62341
G1 X8.454 Y-10.735 E1125.71845
G1 X8.752 Y-13 E1125.81343
G1 X8.454 Y-15.264 E1125.90837
G1 X7.579 Y-17.375 E1126.00338
G1 X6.188 Y-19.188 E1126.09838
G1 X4.376 Y-20.579 E1126.19335
G1 X2.264 Y-21.454 E1126.2884
G1 X0 Y-21.752 E1126.38334
G1 X-2.264 Y-21.454 E1126.47827
G1 X-4.375 Y-20.579 E1126.57328
G1 X-6.188 Y-19.188 E1126.66829
G1 X-7.579 Y-17.376 E1126.76326
G1 X-8.454 Y-15.264 E1126.8583
G1 X-8.752 Y-13 E1126.95324
G1 X-8.454 Y-10.735 E1127.04822
G1 X-7.579 Y-8.624 E1127.14322
G1 X-6.188 Y-6.811 E1127.23823
G1 X-4.376 Y-5.42 E1127.3332
G1 X-2.264 Y-4.545 E1127.42825
G1 X0 Y-4.247 E1127.52318
G0 F18000 X0 Y-3.299
; TYPE:FILL
G1 F2160 X0 Y3.3 E1127.79754
G0 F18000 X-0.499 Y3.365
G1 F2160 X-0.5 Y-3.365 E1128.07734
G0 F18000 X-1 Y-3.431
G1 F2160 X-0.999 Y3.431 E1128.36263
G0 F18000 X-1.499 Y3.496
G1 F2160 X-1.5 Y-3.496 E1128.65332
G0 F18000 X-2 Y-3.561
G1 F2160 X-1.999 Y3.561 E1128.94942
G0 F18000 X-2.499 Y3.627
G1 F2160 X-2.5 Y-3.627 E1129.25101
G0 F18000 X-3 Y-3.831
G1 F2160 X-2.999 Y3.831 E1129.56956
G0 F18000 X-3.499 Y4.039
G1 F2160 X-3.5 Y-4.039 E1129.9054
G0 F18000 X-4 Y-4.246
G1 F2160 X-3.999 Y4.246 E1130.25846
G0 F18000 X-4.499 Y4.453
G1 F2160 X-4.5 Y-4.453 E1130.62872
G0 F18000 X-5 Y-4.715
G1 F2160 X-4.999 Y4.715 E1131.02078
G0 F18000 X-5.499 Y5.098
G1 F2160 X-5.5 Y-5.098 E1131.44468
G0 F18000 X-6 Y-5.481
G1 F2160 X-5.999 Y5.481 E1131.90043
G0 F18000 X-6.499 Y5.864
G1 F2160 X-6.5 Y-5.865 E1132.38806
G0 F18000 X-7 Y-6.324
G1 F2160 X-6.999 Y6.323 E1132.91386
G0 F18000 X-7.499 Y6.976
G1 F2160 X-7.5 Y-6.977 E1133.49396
G0 F18000 X-8 Y-7.63
G1 F2160 X-7.999 Y7.628 E1134.12831
G0 F18000 X-8.499 Y8.389
G1 F2160 X-8.5 Y-8.392 E1134.82599
G0 F18000 X-9 Y-9.598
G1 F2160 X-8.999 Y9.596 E1135.62398
G0 F18000 X-9.499 Y11.481
G0 X-9.499 Y11.481
G1 F2160 X-9.5 Y-11.485 E1136.5788
G0 F18000 X-9.5 Y-14.513
G0 X-9.5 Y-14.513
G1 F2160 X-9.5 Y-23.808 E1136.96524
G0 F18000 X-9 Y-23.808
G1 F2160 X-9 Y-16.4 E1137.27323
G0 F18000 X-8.5 Y-17.607
G1 F2160 X-8.5 Y-23.808 E1137.53103
G0 F18000 X-8 Y-23.808
G1 F2160 X-8 Y-18.369 E1137.75716
G0 F18000 X-7.5 Y-19.021
G1 F2160 X-7.5 Y-23.808 E1137.95618
G0 F18000 X-7 Y-23.808
G1 F2160 X-7 Y-19.674 E1138.12805
G0 F18000 X-6.5 Y-20.133
G1 F2160 X-6.5 Y-23.808 E1138.28084
G0 F18000 X-6 Y-23.808
G1 F2160 X-6 Y-20.516 E1138.41771
G0 F18000 X-5.5 Y-20.899
G1 F2160 X-5.5 Y-23.808 E1138.53865
G0 F18000 X-5 Y-23.808
G1 F2160 X-5 Y-21.282 E1138.64367
G0 F18000 X-4.5 Y-21.545
G1 F2160 X-4.5 Y-23.808 E1138.73775
G0 F18000 X-4 Y-23.808
G1 F2160 X-4 Y-21.752 E1138.82323
G0 F18000 X-3.5 Y-21.959
G1 F2160 X-3.5 Y-23.808 E1138.9001
G0 F18000 X-3 Y-23.808
G1 F2160 X-3 Y-22.166 E1138.96837
G0 F18000 X-2.5 Y-22.371
G1 F2160 X-2.5 Y-23.808 E1139.02811
G0 F18000 X-2 Y-23.808
G1 F2160 X-2 Y-22.437 E1139.08511
G0 F18000 X-1.5 Y-22.503
G1 F2160 X-1.5 Y-23.808 E1139.13937
G0 F18000 X-1 Y-23.808
G1 F2160 X-1 Y-22.568 E1139.19092
G0 F18000 X-0.5 Y-22.634
G1 F2160 X-0.5 Y-23.808 E1139.23973
G0 F18000 X0 Y-23.808
G1 F2160 X0 Y-22.7 E1139.2858
G0 F18000 X0.499 Y-22.634
G1 F2160 X0.499 Y-23.808 E1139.33461
G0 F18000 X0.999 Y-23.808
G1 F2160 X0.999 Y-22.569 E1139.38612
G0 F18000 X1.499 Y-22.503
G1 F2160 X1.499 Y-23.808 E1139.44037
G0 F18000 X1.999 Y-23.808
G1 F2160 X1.999 Y-22.437 E1139.49737
G0 F18000 X2.499 Y-22.371
G1 F2160 X2.499 Y-23.808 E1139.55712
G0 F18000 X2.999 Y-23.808
G1 F2160 X2.999 Y-22.167 E1139.62534
G0 F18000 X3.499 Y-21.96
G1 F2160 X3.499 Y-23.808 E1139.70217
G0 F18000 X3.999 Y-23.808
G1 F2160 X3.999 Y-21.753 E1139.78761
G0 F18000 X4.499 Y-21.545
G1 F2160 X4.499 Y-23.808 E1139.88169
G0 F18000 X4.999 Y-23.808
G1 F2160 X4.999 Y-21.284 E1139.98663
G0 F18000 X5.499 Y-20.901
G1 F2160 X5.499 Y-23.808 E1140.10749
G0 F18000 X5.999 Y-23.808
G1 F2160 X5.999 Y-20.517 E1140.24431
G0 F18000 X6.499 Y-20.134
G1 F2160 X6.499 Y-23.808 E1140.39706
G0 F18000 X6.999 Y-23.808
G1 F2160 X6.999 Y-19.675 E1140.56889
G0 F18000 X7.499 Y-19.022
G1 F2160 X7.499 Y-23.808 E1140.76787
G0 F18000 X7.999 Y-23.808
G1 F2160 X7.999 Y-18.37 E1140.99395
G0 F18000 X8.499 Y-17.609
G1 F2160 X8.499 Y-23.808 E1141.25168
G0 F18000 X8.999 Y-23.808
G1 F2160 X8.999 Y-16.402 E1141.55958
G0 F18000 X9.499 Y-14.52
G0 X9.499 Y-14.52
G1 F2160 X9.499 Y-23.808 E1141.94573
G0 F18000 X9.999 Y-23.808
G1 F2160 X10 Y23.81 E1143.92546
G0 F18000 X9.5 Y23.81
G1 F2160 X9.5 Y14.509 E1144.31215
G0 F18000 X9 Y16.4
G0 X9 Y16.4
G1 F2160 X9 Y23.81 E1144.62022
G0 F18000 X8.5 Y23.81
G1 F2160 X8.5 Y17.607 E1144.87811
G0 F18000 X8 Y18.369
G1 F2160 X8 Y23.81 E1145.10432
G0 F18000 X7.5 Y23.81
G1 F2160 X7.5 Y19.021 E1145.30343
G0 F18000 X7 Y19.674
G1 F2160 X7 Y23.81 E1145.47538
G0 F18000 X6.5 Y23.81
G1 F2160 X6.5 Y20.133 E1145.62826
G0 F18000 X6 Y20.516
G1 F2160 X6 Y23.81 E1145.7652
G0 F18000 X5.5 Y23.81
G1 F2160 X5.5 Y20.899 E1145.88623
G0 F18000 X5 Y21.282
G1 F2160 X5 Y23.81 E1145.99133
G0 F18000 X4.5 Y23.81
G1 F2160 X4.5 Y21.545 E1146.0855
G0 F18000 X4 Y21.752
G1 F2160 X4 Y23.81 E1146.17106
G0 F18000 X3.5 Y23.81
G1 F2160 X3.5 Y21.959 E1146.24802
G0 F18000 X3 Y22.166
G1 F2160 X3 Y23.81 E1146.31637
G0 F18000 X2.5 Y23.81
G1 F2160 X2.5 Y22.371 E1146.37619
G0 F18000 X2 Y22.437
G1 F2160 X2 Y23.81 E1146.43328
G0 F18000 X1.5 Y23.81
G1 F2160 X1.5 Y22.503 E1146.48761
G0 F18000 X1 Y22.568
G1 F2160 X1 Y23.81 E1146.53925
G0 F18000 X0.5 Y23.81
G1 F2160 X0.5 Y22.634 E1146.58814
G0 F18000 X0 Y22.7
G1 F2160 X0 Y23.81 E1146.63429
G0 F18000 X-0.499 Y23.81
G1 F2160 X-0.499 Y22.634 E1146.68318
G0 F18000 X-0.999 Y22.569
G1 F2160 X-0.999 Y23.81 E1146.73478
G0 F18000 X-1.499 Y23.81
G1 F2160 X-1.499 Y22.503 E1146.78912
G0 F18000 X-1.999 Y22.437
G1 F2160 X-1.999 Y23.81 E1146.8462
G0 F18000 X-2.499 Y23.81
G1 F2160 X-2.499 Y22.371 E1146.90603
G0 F18000 X-2.999 Y22.167
G1 F2160 X-2.999 Y23.81 E1146.97433
G0 F18000 X-3.499 Y23.81
G1 F2160 X-3.499 Y21.96 E1147.05125
G0 F18000 X-3.999 Y21.753
G1 F2160 X-3.999 Y23.81 E1147.13677
G0 F18000 X-4.499 Y23.81
G1 F2160 X-4.499 Y21.545 E1147.23094
G0 F18000 X-4.999 Y21.284
G1 F2160 X-4.999 Y23.81 E1147.33596
G0 F18000 X-5.499 Y23.81
G1 F2160 X-5.499 Y20.901 E1147.4569
G0 F18000 X-5.999 Y20.517
G1 F2160 X-5.999 Y23.81 E1147.5938
G0 F18000 X-6.499 Y23.81
G1 F2160 X-6.499 Y20.134 E1147.74663
G0 F18000 X-6.999 Y19.675
G1 F2160 X-6.999 Y23.81 E1147.91855
G0 F18000 X-7.499 Y23.81
G1 F2160 X-7.499 Y19.022 E1148.11761
G0 F18000 X-7.999 Y18.37
G1 F2160 X-7.999 Y23.81 E1148.34378
G0 F18000 X-8.499 Y23.81
G1 F2160 X-8.499 Y17.608 E1148.60163
G0 F18000 X-8.999 Y16.401
G1 F2160 X-8.999 Y23.81 E1148.90966
G0 F18000 X-9.499 Y23.81
G1 F2160 X-9.499 Y14.517 E1149.29602
G0 F18000 X-9.999 Y23.81
G0 X-9.999 Y23.81
G1 F2160 X-10 Y-23.808 E1151.27574
G0 F18000 X-10.5 Y-23.808
G1 F2160 X-10.499 Y23.81 E1153.25547
G0 F18000 X10.5 Y23.81
G0 X10.5 Y23.81
G1 F2160 X10.499 Y-23.808 E1155.2352
G0 F18000 X9.499 Y-11.478
G0 X9.499 Y-11.478
G1 F2160 X9.5 Y11.488 E1156.19001
G0 F18000 X9 Y9.599
G0 X9 Y9.599
G1 F2160 X8.999 Y-9.596 E1156.98805
G0 F18000 X8.499 Y-8.389
G1 F2160 X8.5 Y8.392 E1157.68572
G0 F18000 X8 Y7.63
G1 F2160 X7.999 Y-7.628 E1158.32007
G0 F18000 X7.499 Y-6.975
G1 F2160 X7.5 Y6.977 E1158.90013
G0 F18000 X7 Y6.324
G1 F2160 X6.999 Y-6.323 E1159.42593
G0 F18000 X6.499 Y-5.864
G1 F2160 X6.5 Y5.865 E1159.91357
G0 F18000 X6 Y5.481
G1 F2160 X5.999 Y-5.481 E1160.36931
G0 F18000 X5.499 Y-5.097
G1 F2160 X5.5 Y5.098 E1160.79317
G0 F18000 X5 Y4.715
G1 F2160 X4.999 Y-4.714 E1161.18518
G0 F18000 X4.499 Y-4.453
G1 F2160 X4.5 Y4.453 E1161.55545
G0 F18000 X4 Y4.246
G1 F2160 X3.999 Y-4.245 E1161.90847
G0 F18000 X3.499 Y-4.038
G1 F2160 X3.5 Y4.039 E1162.24427
G0 F18000 X3 Y3.832
G1 F2160 X2.999 Y-3.831 E1162.56286
G0 F18000 X2.499 Y-3.627
G1 F2160 X2.5 Y3.627 E1162.86445
G0 F18000 X2 Y3.561
G1 F2160 X1.999 Y-3.561 E1163.16055
G0 F18000 X1.499 Y-3.496
G1 F2160 X1.5 Y3.497 E1163.45128
G0 F18000 X1 Y3.431
G1 F2160 X0.999 Y-3.43 E1163.73653
G0 F18000 X0.499 Y-3.365
G1 F2160 X0.5 Y3.366 E1164.01637
; Layer Change GCode
; LAYER:2
G4 P0
M106 S255
G1 F6600 E1157.21637
G1 Z2.111
G0 F18000 X0.23 Y3.837 Z2.311
G0 X0 Y3.796
G0 X-2.38 Y4.109
G0 X-4.6 Y5.028
G0 X-6.508 Y6.491
G0 X-7.971 Y8.399
G0 X-8.89 Y10.619
G0 X-9.203 Y13
G0 X-8.89 Y15.38
G0 X-7.971 Y17.6
G0 X-7.757 Y17.855
G0 X-11.399 Y24.244
G0 X-11.597 Y24.591
G0 X-11.488 Y24.4
G0 X-11.488 Y24.4
G0 X-11.748 Y24.75
G0 X-11.748 Y24.75
G0 X-11.248 Y24.25
; TYPE:WALL-INNER
G1 Z2.011
G1 F6600 E1164.11637
G1 F2184 X-11.248 Y24.25 E1164.11637
G1 X-11.248 Y-24.248 E1166.13268
G1 X11.25 Y-24.248 E1167.06804
G1 X11.25 Y24.25 E1169.08435
G1 X-11.248 Y24.25 E1170.01971
G0 F18000 X-11.748 Y24.75
; TYPE:WALL-OUTER
G1 F1911 X-11.748 Y24.75 E1170.01971
G1 X-11.748 Y-24.748 E1172.0776
G1 X11.75 Y-24.748 E1173.05453
G1 X11.75 Y24.75 E1175.11242
G1 X-11.748 Y24.75 E1176.08935
G0 F18000 X-11.488 Y24.4
G0 X-6.545 Y19.545
G0 X-6.545 Y19.545
; TYPE:WALL-INNER
G1 F2184 X-6.545 Y19.545 E1176.08935
G1 X-4.628 Y21.016 E1176.18981
G1 X-2.395 Y21.941 E1176.2903
G1 X0 Y22.256 E1176.39073
G1 X2.395 Y21.941 E1176.49116
G1 X4.627 Y21.016 E1176.59161
G1 X6.545 Y19.545 E1176.6921
G1 X8.016 Y17.628 E1176.79256
G1 X8.941 Y15.395 E1176.89305
G1 X9.255 Y13 E1176.99348
G1 X8.941 Y10.604 E1177.09394
G1 X8.016 Y8.372 E1177.19439
G1 X6.545 Y6.454 E1177.29488
G1 X4.628 Y4.983 E1177.39534
G1 X2.395 Y4.058 E1177.49583
G1 X0 Y3.744 E1177.59626
G1 X-2.395 Y4.058 E1177.69668
G1 X-4.627 Y4.983 E1177.79713
G1 X-6.545 Y6.454 E1177.89762
G1 X-8.016 Y8.372 E1177.99811
G1 X-8.941 Y10.604 E1178.09856
G1 X-9.255 Y13 E1178.19903
G1 X-8.941 Y15.395 E1178.29945
G1 X-8.016 Y17.627 E1178.3999
G1 X-6.545 Y19.545 E1178.5004
G0 F18000 X-5.893 Y19.8
G0 X-4.601 Y20.971
G0 X-2.381 Y21.89
G0 X-0.242 Y22.019
G0 X-0.046 Y22.098
G0 X-0.046 Y22.098
G0 X0 Y21.752
; TYPE:WALL-OUTER
G1 F1911 X0 Y21.752 E1178.5004
G1 X2.264 Y21.454 E1178.59533
G1 X4.375 Y20.579 E1178.69034
G1 X6.188 Y19.188 E1178.78535
G1 X7.579 Y17.376 E1178.88032
G1 X8.454 Y15.264 E1178.97536
G1 X8.751 Y13 E1179.07029
G1 X8.454 Y10.735 E1179.16527
G1 X7.579 Y8.624 E1179.26027
G1 X6.188 Y6.811 E1179.35528
G1 X4.376 Y5.42 E1179.45025
G1 X2.264 Y4.545 E1179.54529
G1 X0 Y4.248 E1179.64023
G1 X-2.264 Y4.545 E1179.73516
G1 X-4.375 Y5.42 E1179.83017
G1 X-6.188 Y6.811 E1179.92517
G1 X-7.579 Y8.624 E1180.02018
G1 X-8.454 Y10.735 E1180.11518
G1 X-8.751 Y13 E1180.21016
G1 X-8.454 Y15.264 E1180.30509
G1 X-7.579 Y17.375 E1180.40009
G1 X-6.188 Y19.188 E1180.4951
G1 X-4.376 Y20.579 E1180.59007
G1 X-2.264 Y21.454 E1180.68512
G1 X0 Y21.752 E1180.78005
G1 F6600 E1173.98005
G1 Z2.311
G0 F18000 X-0.046 Y22.098
G0 X-0.045 Y22.208
G0 X2.381 Y21.89
G0 X4.6 Y20.971
G0 X6.508 Y19.508
G0 X7.971 Y17.601
G0 X8.89 Y15.38
G0 X9.203 Y13
G0 X8.89 Y10.619
G0 X7.971 Y8.399
G0 X6.508 Y6.491
G0 X4.601 Y5.028
G0 X2.38 Y4.109
G0 X-0.012 Y3.793
G0 X0 Y-3.743
G0 X0 Y-3.743
; TYPE:WALL-INNER
G1 Z2.011
G1 F6600 E1180.88005
G1 F2184 X0 Y-3.743 E1180.88005
G1 X2.395 Y-4.058 E1180.98048
G1 X4.628 Y-4.983 E1181.08097
G1 X6.545 Y-6.454 E1181.18143
G1 X8.016 Y-8.371 E1181.28189
G1 X8.941 Y-10.604 E1181.38238
G1 X9.256 Y-13 E1181.48285
G1 X8.941 Y-15.395 E1181.58328
G1 X8.016 Y-17.627 E1181.68373
G1 X6.545 Y-19.545 E1181.78422
G1 X4.628 Y-21.016 E1181.88468
G1 X2.395 Y-21.941 E1181.98517
G1 X0 Y-22.256 E1182.0856
G1 X-2.395 Y-21.941 E1182.18603
G1 X-4.627 Y-21.016 E1182.28648
G1 X-6.545 Y-19.545 E1182.38697
G1 X-8.016 Y-17.628 E1182.48743
G1 X-8.941 Y-15.395 E1182.58792
G1 X-9.256 Y-13 E1182.68835
G1 X-8.941 Y-10.604 E1182.78882
G1 X-8.016 Y-8.372 E1182.88927
G1 X-6.545 Y-6.454 E1182.98976
G1 X-4.628 Y-4.983 E1183.09022
G1 X-2.395 Y-4.058 E1183.19071
G1 X0 Y-3.743 E1183.29114
G0 F18000 X0 Y-4.247
; TYPE:WALL-OUTER
G1 F1911 X0 Y-4.247 E1183.29114
G1 X2.264 Y-4.545 E1183.38608
G1 X4.376 Y-5.42 E1183.48112
G1 X6.188 Y-6.811 E1183.57609
G1 X7.579 Y-8.623 E1183.67107
G1 X8.454 Y-10.735 E1183.76611
G1 X8.752 Y-13 E1183.86109
G1 X8.454 Y-15.264 E1183.95603
G1 X7.579 Y-17.375 E1184.05103
G1 X6.188 Y-19.188 E1184.14604
G1 X4.376 Y-20.579 E1184.24101
G1 X2.264 Y-21.454 E1184.33605
G1 X0 Y-21.752 E1184.43099
G1 X-2.264 Y-21.454 E1184.52593
G1 X-4.375 Y-20.579 E1184.62094
G1 X-6.188 Y-19.188 E1184.71594
G1 X-7.579 Y-17.376 E1184.81091
G1 X-8.454 Y-15.264 E1184.90596
G1 X-8.752 Y-13 E1185.0009
G1 X-8.454 Y-10.735 E1185.09587
G1 X-7.579 Y-8.624 E1185.19088
G1 X-6.188 Y-6.811 E1185.28589
G1 X-4.376 Y-5.42 E1185.38086
G1 X-2.264 Y-4.545 E1185.4759
G1 X0 Y-4.247 E1185.57084
G0 F18000 X-0.046 Y-3.901
G0 X1.528 Y-3.5
G0 X1.528 Y-3.5
; TYPE:FILL
G1 F2184 X10.81 Y-3.5 E1185.95674
G0 F18000 X10.81 Y-4
G1 F2184 X3.404 Y-4 E1186.26465
G0 F18000 X4.612 Y-4.5
G1 F2184 X10.81 Y-4.5 E1186.52233
G0 F18000 X10.81 Y-5
G1 F2184 X5.372 Y-5 E1186.74841
G0 F18000 X6.024 Y-5.5
G1 F2184 X10.81 Y-5.5 E1186.94739
G0 F18000 X10.81 Y-6
G1 F2184 X6.676 Y-6 E1187.11926
G0 F18000 X7.135 Y-6.5
G1 F2184 X10.81 Y-6.5 E1187.27205
G0 F18000 X10.81 Y-7
G1 F2184 X7.519 Y-7 E1187.40888
G0 F18000 X7.901 Y-7.5
G1 F2184 X10.81 Y-7.5 E1187.52982
G0 F18000 X10.81 Y-8
G1 F2184 X8.285 Y-8 E1187.6348
G0 F18000 X8.546 Y-8.5
G1 F2184 X10.81 Y-8.5 E1187.72892
G0 F18000 X10.81 Y-9
G1 F2184 X8.753 Y-9 E1187.81444
G0 F18000 X8.96 Y-9.5
G1 F2184 X10.81 Y-9.5 E1187.89136
G0 F18000 X10.81 Y-10
G1 F2184 X9.167 Y-10 E1187.95967
G0 F18000 X9.371 Y-10.5
G1 F2184 X10.81 Y-10.5 E1188.01949
G0 F18000 X10.81 Y-11
G1 F2184 X9.437 Y-11 E1188.07657
G0 F18000 X9.503 Y-11.5
G1 F2184 X10.81 Y-11.5 E1188.13091
G0 F18000 X10.81 Y-12
G1 F2184 X9.569 Y-12 E1188.18251
G0 F18000 X9.634 Y-12.5
G1 F2184 X10.81 Y-12.5 E1188.2314
G0 F18000 X10.81 Y-13
G1 F2184 X9.7 Y-13 E1188.27755
G0 F18000 X9.634 Y-13.5
G1 F2184 X10.81 Y-13.5 E1188.32644
G0 F18000 X10.81 Y-14
G1 F2184 X9.569 Y-14 E1188.37804
G0 F18000 X9.503 Y-14.5
G1 F2184 X10.81 Y-14.5 E1188.43238
G0 F18000 X10.809 Y-15
G1 F2184 X9.436 Y-15 E1188.48946
G0 F18000 X9.37 Y-15.5
G1 F2184 X10.809 Y-15.5 E1188.54928
G0 F18000 X10.809 Y-16
G1 F2184 X9.166 Y-16 E1188.61759
G0 F18000 X8.959 Y-16.5
G1 F2184 X10.809 Y-16.5 E1188.69451
G0 F18000 X10.809 Y-17
G1 F2184 X8.751 Y-17 E1188.78007
G0 F18000 X8.544 Y-17.5
G1 F2184 X10.809 Y-17.5 E1188.87424
G0 F18000 X10.809 Y-18
G1 F2184 X8.282 Y-18 E1188.9793
G0 F18000 X7.899 Y-18.5
G1 F2184 X10.809 Y-18.5 E1189.10028
G0 F18000 X10.809 Y-19
G1 F2184 X7.516 Y-19 E1189.23719
G0 F18000 X7.133 Y-19.5
G1 F2184 X10.809 Y-19.5 E1189.39002
G0 F18000 X10.809 Y-20
G1 F2184 X6.674 Y-20 E1189.56193
G0 F18000 X6.022 Y-20.5
G1 F2184 X10.809 Y-20.5 E1189.76095
G0 F18000 X10.809 Y-21
G1 F2184 X5.369 Y-21 E1189.98712
G0 F18000 X4.609 Y-21.5
G1 F2184 X10.809 Y-21.5 E1190.24489
G0 F18000 X10.809 Y-22
G1 F2184 X3.402 Y-22 E1190.55283
G0 F18000 X1.52 Y-22.5
G0 X1.52 Y-22.5
G1 F2184 X10.809 Y-22.5 E1190.93903
G0 F18000 X10.809 Y-23
G1 F2184 X-10.807 Y-23 E1191.83771
G0 F18000 X-10.807 Y-22.5
G1 F2184 X-1.521 Y-22.5 E1192.22378
G0 F18000 X-3.402 Y-22
G0 X-3.402 Y-22
G1 F2184 X-10.807 Y-22 E1192.53165
G0 F18000 X-10.807 Y-21.5
G1 F2184 X-4.608 Y-21.5 E1192.78937
G0 F18000 X-5.369 Y-21
G1 F2184 X-10.807 Y-21 E1193.01546
G0 F18000 X-10.807 Y-20.5
G1 F2184 X-6.021 Y-20.5 E1193.21443
G0 F18000 X-6.674 Y-20
G1 F2184 X-10.807 Y-20 E1193.38626
G0 F18000 X-10.807 Y-19.5
G1 F2184 X-7.133 Y-19.5 E1193.53901
G0 F18000 X-7.516 Y-19
G1 F2184 X-10.807 Y-19 E1193.67584
G0 F18000 X-10.807 Y-18.5
G1 F2184 X-7.9 Y-18.5 E1193.79669
G0 F18000 X-8.283 Y-18
G1 F2184 X-10.807 Y-18 E1193.90163
G0 F18000 X-10.807 Y-17.5
G1 F2184 X-8.544 Y-17.5 E1193.99571
G0 F18000 X-8.752 Y-17
G1 F2184 X-10.807 Y-17 E1194.08115
G0 F18000 X-10.807 Y-16.5
G1 F2184 X-8.959 Y-16.5 E1194.15798
G0 F18000 X-9.166 Y-16
G1 F2184 X-10.807 Y-16 E1194.22621
G0 F18000 X-10.807 Y-15.5
G1 F2184 X-9.37 Y-15.5 E1194.28595
G0 F18000 X-9.436 Y-15
G1 F2184 X-10.807 Y-15 E1194.34295
G0 F18000 X-10.807 Y-14.5
G1 F2184 X-9.502 Y-14.5 E1194.39721
G0 F18000 X-9.568 Y-14
G1 F2184 X-10.807 Y-14 E1194.44872
G0 F18000 X-10.807 Y-13.5
G1 F2184 X-9.634 Y-13.5 E1194.49749
G0 F18000 X-9.7 Y-13
G1 F2184 X-10.807 Y-13 E1194.54351
G0 F18000 X-10.807 Y-12.5
G1 F2184 X-9.634 Y-12.5 E1194.59228
G0 F18000 X-9.569 Y-12
G1 F2184 X-10.807 Y-12 E1194.64375
G0 F18000 X-10.807 Y-11.5
G1 F2184 X-9.503 Y-11.5 E1194.69796
G0 F18000 X-9.437 Y-11
G1 F2184 X-10.807 Y-11 E1194.75492
G0 F18000 X-10.807 Y-10.5
G1 F2184 X-9.371 Y-10.5 E1194.81462
G0 F18000 X-9.167 Y-10
G1 F2184 X-10.807 Y-10 E1194.8828
G0 F18000 X-10.807 Y-9.5
G1 F2184 X-8.96 Y-9.5 E1194.95959
G0 F18000 X-8.753 Y-9
G1 F2184 X-10.807 Y-9 E1195.04499
G0 F18000 X-10.807 Y-8.5
G1 F2184 X-8.545 Y-8.5 E1195.13903
G0 F18000 X-8.284 Y-7.999
G1 F2184 X-10.807 Y-7.999 E1195.24393
G0 F18000 X-10.807 Y-7.499
G1 F2184 X-7.901 Y-7.499 E1195.36474
G0 F18000 X-7.518 Y-6.999
G1 F2184 X-10.807 Y-6.999 E1195.50148
G0 F18000 X-10.807 Y-6.499
G1 F2184 X-7.135 Y-6.5 E1195.65415
G0 F18000 X-6.676 Y-6
G1 F2184 X-10.807 Y-5.999 E1195.8259
G0 F18000 X-10.807 Y-5.499
G1 F2184 X-6.024 Y-5.5 E1196.02475
G0 F18000 X-5.372 Y-5
G1 F2184 X-10.807 Y-4.999 E1196.25071
G0 F18000 X-10.807 Y-4.499
G1 F2184 X-4.612 Y-4.5 E1196.50827
G0 F18000 X-3.405 Y-4
G1 F2184 X-10.807 Y-3.999 E1196.81601
G0 F18000 X-10.807 Y-3.499
G1 F2184 X-1.529 Y-3.5 E1197.20174
G0 F18000 X-1.524 Y3.5
G0 X-1.524 Y3.5
G1 F2184 X-10.808 Y3.5 E1197.58773
G0 F18000 X-10.808 Y4
G1 F2184 X-3.403 Y4 E1197.89559
G0 F18000 X-4.611 Y4.5
G1 F2184 X-10.808 Y4.5 E1198.15323
G0 F18000 X-10.808 Y5
G1 F2184 X-5.371 Y5 E1198.37928
G0 F18000 X-6.024 Y5.5
G1 F2184 X-10.808 Y5.5 E1198.57817
G0 F18000 X-10.808 Y6
G1 F2184 X-6.676 Y6 E1198.74996
G0 F18000 X-7.135 Y6.5
G1 F2184 X-10.808 Y6.5 E1198.90267
G0 F18000 X-10.808 Y7
G1 F2184 X-7.518 Y7 E1199.03945
G0 F18000 X-7.9 Y7.5
G1 F2184 X-10.808 Y7.5 E1199.16035
G0 F18000 X-10.808 Y8
G1 F2184 X-8.285 Y8 E1199.26524
G0 F18000 X-8.546 Y8.5
G1 F2184 X-10.808 Y8.5 E1199.35929
G0 F18000 X-10.808 Y9
G1 F2184 X-8.753 Y9 E1199.44472
G0 F18000 X-8.96 Y9.5
G1 F2184 X-10.808 Y9.5 E1199.52155
G0 F18000 X-10.808 Y10
G1 F2184 X-9.167 Y10 E1199.58978
G0 F18000 X-9.371 Y10.5
G1 F2184 X-10.808 Y10.5 E1199.64952
G0 F18000 X-10.808 Y11
G1 F2184 X-9.437 Y11 E1199.70652
G0 F18000 X-9.502 Y11.5
G1 F2184 X-10.808 Y11.5 E1199.76082
G0 F18000 X-10.808 Y12
G1 F2184 X-9.568 Y12 E1199.81237
G0 F18000 X-9.633 Y12.5
G1 F2184 X-10.808 Y12.5 E1199.86122
G0 F18000 X-10.808 Y13
G1 F2184 X-9.699 Y13 E1199.90733
G0 F18000 X-9.633 Y13.5
G1 F2184 X-10.808 Y13.5 E1199.95618
G0 F18000 X-10.808 Y14
G1 F2184 X-9.568 Y14 E1200.00773
G0 F18000 X-9.502 Y14.5
G1 F2184 X-10.808 Y14.5 E1200.06203
G0 F18000 X-10.807 Y15
G1 F2184 X-9.436 Y15 E1200.11903
G0 F18000 X-9.37 Y15.5
G1 F2184 X-10.807 Y15.5 E1200.17877
G0 F18000 X-10.807 Y16
G1 F2184 X-9.166 Y16 E1200.247
G0 F18000 X-8.958 Y16.5
G1 F2184 X-10.807 Y16.5 E1200.32387
G0 F18000 X-10.807 Y17
G1 F2184 X-8.751 Y17 E1200.40935
G0 F18000 X-8.544 Y17.5
G1 F2184 X-10.807 Y17.5 E1200.50343
G0 F18000 X-10.807 Y18
G1 F2184 X-8.282 Y18 E1200.60841
G0 F18000 X-7.899 Y18.5
G1 F2184 X-10.807 Y18.5 E1200.72931
G0 F18000 X-10.807 Y19
G1 F2184 X-7.516 Y19 E1200.86614
G0 F18000 X-7.133 Y19.5
G1 F2184 X-10.807 Y19.5 E1201.01888
G0 F18000 X-10.807 Y20
G1 F2184 X-6.674 Y20 E1201.19071
G0 F18000 X-6.022 Y20.5
G1 F2184 X-10.807 Y20.5 E1201.38965
G0 F18000 X-10.807 Y21
G1 F2184 X-5.369 Y21 E1201.61574
G0 F18000 X-4.609 Y21.5
G1 F2184 X-10.807 Y21.5 E1201.87342
G0 F18000 X-10.807 Y22
G1 F2184 X-3.402 Y22 E1202.18128
G0 F18000 X-1.52 Y22.5
G0 X-1.52 Y22.5
G1 F2184 X-10.807 Y22.5 E1202.56739
G0 F18000 X-10.807 Y23
G1 F2184 X10.809 Y23 E1203.46608
G0 F18000 X10.809 Y22.5
G1 F2184 X1.521 Y22.5 E1203.85223
G0 F18000 X3.402 Y22
G0 X3.402 Y22
G1 F2184 X10.809 Y22 E1204.16018
G0 F18000 X10.809 Y21.5
G1 F2184 X4.608 Y21.5 E1204.41799
G0 F18000 X5.369 Y21
G1 F2184 X10.809 Y21 E1204.64415
G0 F18000 X10.809 Y20.5
G1 F2184 X6.021 Y20.5 E1204.84322
G0 F18000 X6.674 Y20
G1 F2184 X10.809 Y20 E1205.01513
G0 F18000 X10.809 Y19.5
G1 F2184 X7.133 Y19.5 E1205.16796
G0 F18000 X7.516 Y19
G1 F2184 X10.809 Y19 E1205.30487
G0 F18000 X10.809 Y18.5
G1 F2184 X7.9 Y18.5 E1205.42581
G0 F18000 X8.283 Y18
G1 F2184 X10.809 Y18 E1205.53083
G0 F18000 X10.809 Y17.5
G1 F2184 X8.544 Y17.5 E1205.625
G0 F18000 X8.751 Y17
G1 F2184 X10.809 Y17 E1205.71056
G0 F18000 X10.809 Y16.5
G1 F2184 X8.959 Y16.5 E1205.78747
G0 F18000 X9.166 Y16
G1 F2184 X10.809 Y16 E1205.85578
G0 F18000 X10.809 Y15.5
G1 F2184 X9.37 Y15.5 E1205.91561
G0 F18000 X9.436 Y15
G1 F2184 X10.809 Y15 E1205.97269
G0 F18000 X10.809 Y14.5
G1 F2184 X9.502 Y14.5 E1206.02703
G0 F18000 X9.567 Y14
G1 F2184 X10.809 Y14 E1206.07866
G0 F18000 X10.809 Y13.5
G1 F2184 X9.633 Y13.5 E1206.12756
G0 F18000 X9.699 Y13
G1 F2184 X10.809 Y13 E1206.17371
G0 F18000 X10.809 Y12.5
G1 F2184 X9.633 Y12.5 E1206.2226
G0 F18000 X9.568 Y12
G1 F2184 X10.809 Y12 E1206.27419
G0 F18000 X10.809 Y11.5
G1 F2184 X9.502 Y11.5 E1206.32853
G0 F18000 X9.437 Y11
G1 F2184 X10.809 Y11 E1206.38557
G0 F18000 X10.809 Y10.5
G1 F2184 X9.371 Y10.5 E1206.44536
G0 F18000 X9.167 Y10
G1 F2184 X10.809 Y10 E1206.51362
G0 F18000 X10.809 Y9.5
G1 F2184 X8.96 Y9.5 E1206.5905
G0 F18000 X8.753 Y9
G1 F2184 X10.809 Y9 E1206.67597
G0 F18000 X10.809 Y8.5
G1 F2184 X8.545 Y8.5 E1206.7701
G0 F18000 X8.284 Y7.999
G1 F2184 X10.809 Y7.999 E1206.87508
G0 F18000 X10.809 Y7.499
G1 F2184 X7.901 Y7.499 E1206.99598
G0 F18000 X7.518 Y6.999
G1 F2184 X10.809 Y6.999 E1207.1328
G0 F18000 X10.809 Y6.499
G1 F2184 X7.135 Y6.5 E1207.28555
G0 F18000 X6.676 Y6
G1 F2184 X10.809 Y5.999 E1207.45738
G0 F18000 X10.809 Y5.499
G1 F2184 X6.024 Y5.5 E1207.65632
G0 F18000 X5.372 Y5
G1 F2184 X10.809 Y4.999 E1207.88236
G0 F18000 X10.809 Y4.499
G1 F2184 X4.612 Y4.5 E1208.14
G0 F18000 X3.405 Y4
G1 F2184 X10.809 Y3.999 E1208.44783
G0 F18000 X10.809 Y3.499
G1 F2184 X1.525 Y3.5 E1208.83381
G0 F18000 X10.809 Y2.999
G0 X10.809 Y2.999
G1 F2184 X-10.808 Y3 E1209.73254
G0 F18000 X-10.808 Y2.5
G1 F2184 X10.809 Y2.499 E1210.63127
G0 F18000 X10.809 Y1.999
G1 F2184 X-10.808 Y2 E1211.53
G0 F18000 X-10.808 Y1.5
G1 F2184 X10.809 Y1.499 E1212.42873
G0 F18000 X10.809 Y0.999
G1 F2184 X-10.808 Y1 E1213.32746
G0 F18000 X-10.808 Y0.5
G1 F2184 X10.809 Y0.499 E1214.22619
G0 F18000 X10.81 Y0
G1 F2184 X-10.807 Y0 E1215.12492
G0 F18000 X-10.807 Y-0.499
G1 F2184 X10.81 Y-0.5 E1216.02365
G0 F18000 X10.81 Y-1
G1 F2184 X-10.807 Y-0.999 E1216.92238
G0 F18000 X-10.807 Y-1.499
G1 F2184 X10.81 Y-1.5 E1217.82111
G0 F18000 X10.81 Y-2
G1 F2184 X-10.807 Y-1.999 E1218.71984
G0 F18000 X-10.807 Y-2.499
G1 F2184 X10.81 Y-2.5 E1219.61857
G0 F18000 X10.81 Y-3
G1 F2184 X-10.807 Y-2.999 E1220.5173
G0 F18000 X-10.807 Y-23.5
G0 X-10.807 Y-23.5
G1 F2184 X10.809 Y-23.5 E1221.41599
G0 F18000 X10.809 Y23.5
G0 X10.809 Y23.5
G1 F2184 X-10.807 Y23.5 E1222.31468
; Layer Change GCode
; LAYER:3
G0 F18000 X-11.377 Y24.252 Z2.211
G0 X-11.618 Y24.571
G0 X-11.488 Y24.4
G0 X-11.488 Y24.4
G0 X-11.748 Y24.75
G0 X-11.748 Y24.75
G0 X-11.248 Y24.25
; TYPE:WALL-INNER
G1 F2160 X-11.248 Y24.25 E1222.31468
G1 X-11.248 Y-24.248 E1224.331
G1 X11.25 Y-24.248 E1225.26635
G1 X11.25 Y24.25 E1227.28267
G1 X-11.248 Y24.25 E1228.21802
G0 F18000 X-11.748 Y24.75
; TYPE:WALL-OUTER
G1 F1890 X-11.748 Y24.75 E1228.21802
G1 X-11.748 Y-24.748 E1230.27591
G1 X11.75 Y-24.748 E1231.25285
G1 X11.75 Y24.75 E1233.31073
G1 X-11.748 Y24.75 E1234.28767
G0 F18000 X-11.488 Y24.4
G0 X-6.545 Y19.545
G0 X-6.545 Y19.545
; TYPE:WALL-INNER
G1 F2160 X-6.545 Y19.545 E1234.28767
G1 X-4.628 Y21.016 E1234.38813
G1 X-2.395 Y21.941 E1234.48861
G1 X0 Y22.256 E1234.58904
G1 X2.395 Y21.941 E1234.68947
G1 X4.627 Y21.016 E1234.78992
G1 X6.545 Y19.545 E1234.89042
G1 X8.016 Y17.628 E1234.99088
G1 X8.941 Y15.395 E1235.09136
G1 X9.255 Y13 E1235.19179
G1 X8.941 Y10.604 E1235.29225
G1 X8.016 Y8.372 E1235.3927
G1 X6.545 Y6.454 E1235.4932
G1 X4.628 Y4.983 E1235.59366
G1 X2.395 Y4.058 E1235.69414
G1 X0 Y3.744 E1235.79457
G1 X-2.395 Y4.058 E1235.89499
G1 X-4.627 Y4.983 E1235.99544
G1 X-6.545 Y6.454 E1236.09593
G1 X-8.016 Y8.372 E1236.19643
G1 X-8.941 Y10.604 E1236.29688
G1 X-9.255 Y13 E1236.39734
G1 X-8.941 Y15.395 E1236.49777
G1 X-8.016 Y17.627 E1236.59822
G1 X-6.545 Y19.545 E1236.69871
G0 F18000 X-5.893 Y19.8
G0 X-4.601 Y20.971
G0 X-2.381 Y21.89
G0 X-0.242 Y22.019
G0 X-0.046 Y22.098
G0 X-0.046 Y22.098
G0 X0 Y21.752
; TYPE:WALL-OUTER
G1 F1890 X0 Y21.752 E1236.69871
G1 X2.264 Y21.454 E1236.79365
G1 X4.375 Y20.579 E1236.88865
G1 X6.188 Y19.188 E1236.98366
G1 X7.579 Y17.376 E1237.07863
G1 X8.454 Y15.264 E1237.17367
G1 X8.751 Y13 E1237.26861
G1 X8.454 Y10.735 E1237.36358
G1 X7.579 Y8.624 E1237.45859
G1 X6.188 Y6.811 E1237.55359
G1 X4.376 Y5.42 E1237.64856
G1 X2.264 Y4.545 E1237.74361
G1 X0 Y4.248 E1237.83854
G1 X-2.264 Y4.545 E1237.93347
G1 X-4.375 Y5.42 E1238.02848
G1 X-6.188 Y6.811 E1238.12348
G1 X-7.579 Y8.624 E1238.21849
G1 X-8.454 Y10.735 E1238.31349
G1 X-8.751 Y13 E1238.40847
G1 X-8.454 Y15.264 E1238.5034
G1 X-7.579 Y17.375 E1238.59841
G1 X-6.188 Y19.188 E1238.69341
G1 X-4.376 Y20.579 E1238.78838
G1 X-2.264 Y21.454 E1238.88343
G1 X0 Y21.752 E1238.97837
G1 F6600 E1232.17837
G1 Z2.511
G0 F18000 X-0.046 Y22.098
G0 X-0.045 Y22.208
G0 X2.381 Y21.89
G0 X4.6 Y20.971
G0 X6.508 Y19.508
G0 X7.971 Y17.601
G0 X8.89 Y15.38
G0 X9.203 Y13
G0 X8.89 Y10.619
G0 X7.971 Y8.399
G0 X6.508 Y6.491
G0 X4.601 Y5.028
G0 X2.38 Y4.109
G0 X-0.012 Y3.793
G0 X0 Y-3.743
G0 X0 Y-3.743
; TYPE:WALL-INNER
G1 Z2.211
G1 F6600 E1239.07837
G1 F2160 X0 Y-3.743 E1239.07837
G1 X2.395 Y-4.058 E1239.1788
G1 X4.628 Y-4.983 E1239.27928
G1 X6.545 Y-6.454 E1239.37974
G1 X8.016 Y-8.371 E1239.4802
G1 X8.941 Y-10.604 E1239.58069
G1 X9.256 Y-13 E1239.68116
G1 X8.941 Y-15.395 E1239.78159
G1 X8.016 Y-17.627 E1239.88204
G1 X6.545 Y-19.545 E1239.98253
G1 X4.628 Y-21.016 E1240.08299
G1 X2.395 Y-21.941 E1240.18348
G1 X0 Y-22.256 E1240.28391
G1 X-2.395 Y-21.941 E1240.38434
G1 X-4.627 Y-21.016 E1240.48479
G1 X-6.545 Y-19.545 E1240.58528
G1 X-8.016 Y-17.628 E1240.68574
G1 X-8.941 Y-15.395 E1240.78623
G1 X-9.256 Y-13 E1240.88666
G1 X-8.941 Y-10.604 E1240.98713
G1 X-8.016 Y-8.372 E1241.08758
G1 X-6.545 Y-6.454 E1241.18807
G1 X-4.628 Y-4.983 E1241.28853
G1 X-2.395 Y-4.058 E1241.38902
G1 X0 Y-3.743 E1241.48945
G0 F18000 X0 Y-4.247
; TYPE:WALL-OUTER
G1 F1890 X0 Y-4.247 E1241.48945
G1 X2.264 Y-4.545 E1241.58439
G1 X4.376 Y-5.42 E1241.67943
G1 X6.188 Y-6.811 E1241.77441
G1 X7.579 Y-8.623 E1241.86938
G1 X8.454 Y-10.735 E1241.96442
G1 X8.752 Y-13 E1242.0594
G1 X8.454 Y-15.264 E1242.15434
G1 X7.579 Y-17.375 E1242.24935
G1 X6.188 Y-19.188 E1242.34435
G1 X4.376 Y-20.579 E1242.43932
G1 X2.264 Y-21.454 E1242.53437
G1 X0 Y-21.752 E1242.6293
G1 X-2.264 Y-21.454 E1242.72424
G1 X-4.375 Y-20.579 E1242.81925
G1 X-6.188 Y-19.188 E1242.91425
G1 X-7.579 Y-17.376 E1243.00923
G1 X-8.454 Y-15.264 E1243.10427
G1 X-8.752 Y-13 E1243.19921
G1 X-8.454 Y-10.735 E1243.29419
G1 X-7.579 Y-8.624 E1243.38919
G1 X-6.188 Y-6.811 E1243.4842
G1 X-4.376 Y-5.42 E1243.57917
G1 X-2.264 Y-4.545 E1243.67421
G1 X0 Y-4.247 E1243.76915
G0 F18000 X0 Y-3.299
; TYPE:FILL
G1 F2160 X0 Y3.3 E1244.04351
G0 F18000 X-0.499 Y3.365
G1 F2160 X-0.5 Y-3.365 E1244.32331
G0 F18000 X-1 Y-3.431
G1 F2160 X-0.999 Y3.431 E1244.6086
G0 F18000 X-1.499 Y3.496
G1 F2160 X-1.5 Y-3.496 E1244.89929
G0 F18000 X-2 Y-3.561
G1 F2160 X-1.999 Y3.561 E1245.19539
G0 F18000 X-2.499 Y3.627
G1 F2160 X-2.5 Y-3.627 E1245.49697
G0 F18000 X-3 Y-3.831
G1 F2160 X-2.999 Y3.831 E1245.81552
G0 F18000 X-3.499 Y4.039
G1 F2160 X-3.5 Y-4.039 E1246.15137
G0 F18000 X-4 Y-4.246
G1 F2160 X-3.999 Y4.246 E1246.50442
G0 F18000 X-4.499 Y4.453
G1 F2160 X-4.5 Y-4.453 E1246.87469
G0 F18000 X-5 Y-4.715
G1 F2160 X-4.999 Y4.715 E1247.26675
G0 F18000 X-5.499 Y5.098
G1 F2160 X-5.5 Y-5.098 E1247.69065
G0 F18000 X-6 Y-5.481
G1 F2160 X-5.999 Y5.481 E1248.14639
G0 F18000 X-6.499 Y5.864
G1 F2160 X-6.5 Y-5.865 E1248.63403
G0 F18000 X-7 Y-6.324
G1 F2160 X-6.999 Y6.323 E1249.15983
G0 F18000 X-7.499 Y6.976
G1 F2160 X-7.5 Y-6.977 E1249.73993
G0 F18000 X-8 Y-7.63
G1 F2160 X-7.999 Y7.628 E1250.37428
G0 F18000 X-8.499 Y8.389
G1 F2160 X-8.5 Y-8.392 E1251.07195
G0 F18000 X-9 Y-9.598
G1 F2160 X-8.999 Y9.596 E1251.86995
G0 F18000 X-9.499 Y11.481
G0 X-9.499 Y11.481
G1 F2160 X-9.5 Y-11.485 E1252.82476
G0 F18000 X-9.5 Y-14.513
G0 X-9.5 Y-14.513
G1 F2160 X-9.5 Y-23.808 E1253.21121
G0 F18000 X-9 Y-23.808
G1 F2160 X-9 Y-16.4 E1253.51919
G0 F18000 X-8.5 Y-17.607
G1 F2160 X-8.5 Y-23.808 E1253.777
G0 F18000 X-8 Y-23.808
G1 F2160 X-8 Y-18.369 E1254.00313
G0 F18000 X-7.5 Y-19.021
G1 F2160 X-7.5 Y-23.808 E1254.20215
G0 F18000 X-7 Y-23.808
G1 F2160 X-7 Y-19.674 E1254.37402
G0 F18000 X-6.5 Y-20.133
G1 F2160 X-6.5 Y-23.808 E1254.52681
G0 F18000 X-6 Y-23.808
G1 F2160 X-6 Y-20.516 E1254.66368
G0 F18000 X-5.5 Y-20.899
G1 F2160 X-5.5 Y-23.808 E1254.78462
G0 F18000 X-5 Y-23.808
G1 F2160 X-5 Y-21.282 E1254.88964
G0 F18000 X-4.5 Y-21.545
G1 F2160 X-4.5 Y-23.808 E1254.98372
G0 F18000 X-4 Y-23.808
G1 F2160 X-4 Y-21.752 E1255.0692
G0 F18000 X-3.5 Y-21.959
G1 F2160 X-3.5 Y-23.808 E1255.14607
G0 F18000 X-3 Y-23.808
G1 F2160 X-3 Y-22.166 E1255.21434
G0 F18000 X-2.5 Y-22.371
G1 F2160 X-2.5 Y-23.808 E1255.27408
G0 F18000 X-2 Y-23.808
G1 F2160 X-2 Y-22.437 E1255.33108
G0 F18000 X-1.5 Y-22.503
G1 F2160 X-1.5 Y-23.808 E1255.38534
G0 F18000 X-1 Y-23.808
G1 F2160 X-1 Y-22.568 E1255.43689
G0 F18000 X-0.5 Y-22.634
G1 F2160 X-0.5 Y-23.808 E1255.4857
G0 F18000 X0 Y-23.808
G1 F2160 X0 Y-22.7 E1255.53176
G0 F18000 X0.499 Y-22.634
G1 F2160 X0.499 Y-23.808 E1255.58057
G0 F18000 X0.999 Y-23.808
G1 F2160 X0.999 Y-22.569 E1255.63209
G0 F18000 X1.499 Y-22.503
G1 F2160 X1.499 Y-23.808 E1255.68634
G0 F18000 X1.999 Y-23.808
G1 F2160 X1.999 Y-22.437 E1255.74334
G0 F18000 X2.499 Y-22.371
G1 F2160 X2.499 Y-23.808 E1255.80308
G0 F18000 X2.999 Y-23.808
G1 F2160 X2.999 Y-22.167 E1255.87131
G0 F18000 X3.499 Y-21.96
G1 F2160 X3.499 Y-23.808 E1255.94814
G0 F18000 X3.999 Y-23.808
G1 F2160 X3.999 Y-21.753 E1256.03358
G0 F18000 X4.499 Y-21.545
G1 F2160 X4.499 Y-23.808 E1256.12766
G0 F18000 X4.999 Y-23.808
G1 F2160 X4.999 Y-21.284 E1256.2326
G0 F18000 X5.499 Y-20.901
G1 F2160 X5.499 Y-23.808 E1256.35346
G0 F18000 X5.999 Y-23.808
G1 F2160 X5.999 Y-20.517 E1256.49028
G0 F18000 X6.499 Y-20.134
G1 F2160 X6.499 Y-23.808 E1256.64303
G0 F18000 X6.999 Y-23.808
G1 F2160 X6.999 Y-19.675 E1256.81486
G0 F18000 X7.499 Y-19.022
G1 F2160 X7.499 Y-23.808 E1257.01384
G0 F18000 X7.999 Y-23.808
G1 F2160 X7.999 Y-18.37 E1257.23992
G0 F18000 X8.499 Y-17.609
G1 F2160 X8.499 Y-23.808 E1257.49765
G0 F18000 X8.999 Y-23.808
G1 F2160 X8.999 Y-16.402 E1257.80555
G0 F18000 X9.499 Y-14.52
G0 X9.499 Y-14.52
G1 F2160 X9.499 Y-23.808 E1258.1917
G0 F18000 X9.999 Y-23.808
G1 F2160 X10 Y23.81 E1260.17143
G0 F18000 X9.5 Y23.81
G1 F2160 X9.5 Y14.509 E1260.55812
G0 F18000 X9 Y16.4
G0 X9 Y16.4
G1 F2160 X9 Y23.81 E1260.86619
G0 F18000 X8.5 Y23.81
G1 F2160 X8.5 Y17.607 E1261.12408
G0 F18000 X8 Y18.369
G1 F2160 X8 Y23.81 E1261.35029
G0 F18000 X7.5 Y23.81
G1 F2160 X7.5 Y19.021 E1261.5494
G0 F18000 X7 Y19.674
G1 F2160 X7 Y23.81 E1261.72135
G0 F18000 X6.5 Y23.81
G1 F2160 X6.5 Y20.133 E1261.87422
G0 F18000 X6 Y20.516
G1 F2160 X6 Y23.81 E1262.01117
G0 F18000 X5.5 Y23.81
G1 F2160 X5.5 Y20.899 E1262.1322
G0 F18000 X5 Y21.282
G1 F2160 X5 Y23.81 E1262.2373
G0 F18000 X4.5 Y23.81
G1 F2160 X4.5 Y21.545 E1262.33147
G0 F18000 X4 Y21.752
G1 F2160 X4 Y23.81 E1262.41703
G0 F18000 X3.5 Y23.81
G1 F2160 X3.5 Y21.959 E1262.49398
G0 F18000 X3 Y22.166
G1 F2160 X3 Y23.81 E1262.56233
G0 F18000 X2.5 Y23.81
G1 F2160 X2.5 Y22.371 E1262.62216
G0 F18000 X2 Y22.437
G1 F2160 X2 Y23.81 E1262.67924
G0 F18000 X1.5 Y23.81
G1 F2160 X1.5 Y22.503 E1262.73358
G0 F18000 X1 Y22.568
G1 F2160 X1 Y23.81 E1262.78522
G0 F18000 X0.5 Y23.81
G1 F2160 X0.5 Y22.634 E1262.83411
G0 F18000 X0 Y22.7
G1 F2160 X0 Y23.81 E1262.88026
G0 F18000 X-0.499 Y23.81
G1 F2160 X-0.499 Y22.634 E1262.92915
G0 F18000 X-0.999 Y22.569
G1 F2160 X-0.999 Y23.81 E1262.98075
G0 F18000 X-1.499 Y23.81
G1 F2160 X-1.499 Y22.503 E1263.03508
G0 F18000 X-1.999 Y22.437
G1 F2160 X-1.999 Y23.81 E1263.09217
G0 F18000 X-2.499 Y23.81
G1 F2160 X-2.499 Y22.371 E1263.15199
G0 F18000 X-2.999 Y22.167
G1 F2160 X-2.999 Y23.81 E1263.2203
G0 F18000 X-3.499 Y23.81
G1 F2160 X-3.499 Y21.96 E1263.29722
G0 F18000 X-3.999 Y21.753
G1 F2160 X-3.999 Y23.81 E1263.38274
G0 F18000 X-4.499 Y23.81
G1 F2160 X-4.499 Y21.545 E1263.4769
G0 F18000 X-4.999 Y21.284
G1 F2160 X-4.999 Y23.81 E1263.58192
G0 F18000 X-5.499 Y23.81
G1 F2160 X-5.499 Y20.901 E1263.70287
G0 F18000 X-5.999 Y20.517
G1 F2160 X-5.999 Y23.81 E1263.83977
G0 F18000 X-6.499 Y23.81
G1 F2160 X-6.499 Y20.134 E1263.9926
G0 F18000 X-6.999 Y19.675
G1 F2160 X-6.999 Y23.81 E1264.16452
G0 F18000 X-7.499 Y23.81
G1 F2160 X-7.499 Y19.022 E1264.36358
G0 F18000 X-7.999 Y18.37
G1 F2160 X-7.999 Y23.81 E1264.58975
G0 F18000 X-8.499 Y23.81
G1 F2160 X-8.499 Y17.608 E1264.8476
G0 F18000 X-8.999 Y16.401
G1 F2160 X-8.999 Y23.81 E1265.15563
G0 F18000 X-9.499 Y23.81
G1 F2160 X-9.499 Y14.517 E1265.54198
G0 F18000 X-9.999 Y23.81
G0 X-9.999 Y23.81
G1 F2160 X-10 Y-23.808 E1267.52171
G0 F18000 X-10.5 Y-23.808
G1 F2160 X-10.499 Y23.81 E1269.50144
G0 F18000 X10.5 Y23.81
G0 X10.5 Y23.81
G1 F2160 X10.499 Y-23.808 E1271.48116
G0 F18000 X9.499 Y-11.478
G0 X9.499 Y-11.478
G1 F2160 X9.5 Y11.488 E1272.43598
G0 F18000 X9 Y9.599
G0 X9 Y9.599
G1 F2160 X8.999 Y-9.596 E1273.23401
G0 F18000 X8.499 Y-8.389
G1 F2160 X8.5 Y8.392 E1273.93169
G0 F18000 X8 Y7.63
G1 F2160 X7.999 Y-7.628 E1274.56604
G0 F18000 X7.499 Y-6.975
G1 F2160 X7.5 Y6.977 E1275.1461
G0 F18000 X7 Y6.324
G1 F2160 X6.999 Y-6.323 E1275.6719
G0 F18000 X6.499 Y-5.864
G1 F2160 X6.5 Y5.865 E1276.15953
G0 F18000 X6 Y5.481
G1 F2160 X5.999 Y-5.481 E1276.61528
G0 F18000 X5.499 Y-5.097
G1 F2160 X5.5 Y5.098 E1277.03914
G0 F18000 X5 Y4.715
G1 F2160 X4.999 Y-4.714 E1277.43115
G0 F18000 X4.499 Y-4.453
G1 F2160 X4.5 Y4.453 E1277.80142
G0 F18000 X4 Y4.246
G1 F2160 X3.999 Y-4.245 E1278.15444
G0 F18000 X3.499 Y-4.038
G1 F2160 X3.5 Y4.039 E1278.49024
G0 F18000 X3 Y3.832
G1 F2160 X2.999 Y-3.831 E1278.80883
G0 F18000 X2.499 Y-3.627
G1 F2160 X2.5 Y3.627 E1279.11042
G0 F18000 X2 Y3.561
G1 F2160 X1.999 Y-3.561 E1279.40651
G0 F18000 X1.499 Y-3.496
G1 F2160 X1.5 Y3.497 E1279.69725
G0 F18000 X1 Y3.431
G1 F2160 X0.999 Y-3.43 E1279.9825
G0 F18000 X0.499 Y-3.365
G1 F2160 X0.5 Y3.366 E1280.26234
; Layer Change GCode
; LAYER:4
G1 F6600 E1273.46234
G1 Z2.511
G0 F18000 X0.23 Y3.837 Z2.711
G0 X0 Y3.796
G0 X-2.38 Y4.109
G0 X-4.6 Y5.028
G0 X-6.508 Y6.491
G0 X-7.971 Y8.399
G0 X-8.89 Y10.619
G0 X-9.203 Y13
G0 X-8.89 Y15.38
G0 X-7.971 Y17.6
G0 X-7.757 Y17.855
G0 X-11.399 Y24.244
G0 X-11.597 Y24.591
G0 X-11.488 Y24.4
G0 X-11.488 Y24.4
G0 X-11.748 Y24.75
G0 X-11.748 Y24.75
G0 X-11.248 Y24.25
; TYPE:WALL-INNER
G1 Z2.411
G1 F6600 E1280.36234
G1 F2184 X-11.248 Y24.25 E1280.36234
G1 X-11.248 Y-24.248 E1282.37865
G1 X11.25 Y-24.248 E1283.31401
G1 X11.25 Y24.25 E1285.33032
G1 X-11.248 Y24.25 E1286.26568
G0 F18000 X-11.748 Y24.75
; TYPE:WALL-OUTER
G1 F1911 X-11.748 Y24.75 E1286.26568
G1 X-11.748 Y-24.748 E1288.32357
G1 X11.75 Y-24.748 E1289.3005
G1 X11.75 Y24.75 E1291.35839
G1 X-11.748 Y24.75 E1292.33532
G0 F18000 X-11.488 Y24.4
G0 X-6.545 Y19.545
G0 X-6.545 Y19.545
; TYPE:WALL-INNER
G1 F2184 X-6.545 Y19.545 E1292.33532
G1 X-4.628 Y21.016 E1292.43578
G1 X-2.395 Y21.941 E1292.53627
G1 X0 Y22.256 E1292.6367
G1 X2.395 Y21.941 E1292.73713
G1 X4.627 Y21.016 E1292.83758
G1 X6.545 Y19.545 E1292.93807
G1 X8.016 Y17.628 E1293.03853
G1 X8.941 Y15.395 E1293.13902
G1 X9.255 Y13 E1293.23944
G1 X8.941 Y10.604 E1293.33991
G1 X8.016 Y8.372 E1293.44036
G1 X6.545 Y6.454 E1293.54085
G1 X4.628 Y4.983 E1293.64131
G1 X2.395 Y4.058 E1293.7418
G1 X0 Y3.744 E1293.84222
G1 X-2.395 Y4.058 E1293.94265
G1 X-4.627 Y4.983 E1294.0431
G1 X-6.545 Y6.454 E1294.14359
G1 X-8.016 Y8.372 E1294.24408
G1 X-8.941 Y10.604 E1294.34453
G1 X-9.255 Y13 E1294.445
G1 X-8.941 Y15.395 E1294.54542
G1 X-8.016 Y17.627 E1294.64587
G1 X-6.545 Y19.545 E1294.74636
G0 F18000 X-5.893 Y19.8
G0 X-4.601 Y20.971
G0 X-2.381 Y21.89
G0 X-0.242 Y22.019
G0 X-0.046 Y22.098
G0 X-0.046 Y22.098
G0 X0 Y21.752
; TYPE:WALL-OUTER
G1 F1911 X0 Y21.752 E1294.74636
G1 X2.264 Y21.454 E1294.8413
G1 X4.375 Y20.579 E1294.93631
G1 X6.188 Y19.188 E1295.03131
G1 X7.579 Y17.376 E1295.12629
G1 X8.454 Y15.264 E1295.22133
G1 X8.751 Y13 E1295.31626
G1 X8.454 Y10.735 E1295.41124
G1 X7.579 Y8.624 E1295.50624
G1 X6.188 Y6.811 E1295.60125
G1 X4.376 Y5.42 E1295.69622
G1 X2.264 Y4.545 E1295.79126
G1 X0 Y4.248 E1295.8862
G1 X-2.264 Y4.545 E1295.98113
G1 X-4.375 Y5.42 E1296.07613
G1 X-6.188 Y6.811 E1296.17114
G1 X-7.579 Y8.624 E1296.26614
G1 X-8.454 Y10.735 E1296.36115
G1 X-8.751 Y13 E1296.45612
G1 X-8.454 Y15.264 E1296.55106
G1 X-7.579 Y17.375 E1296.64606
G1 X-6.188 Y19.188 E1296.74107
G1 X-4.376 Y20.579 E1296.83604
G1 X-2.264 Y21.454 E1296.93108
G1 X0 Y21.752 E1297.02602
G1 F6600 E1290.22602
G1 Z2.711
G0 F18000 X-0.046 Y22.098
G0 X-0.045 Y22.208
G0 X2.381 Y21.89
G0 X4.6 Y20.971
G0 X6.508 Y19.508
G0 X7.971 Y17.601
G0 X8.89 Y15.38
G0 X9.203 Y13
G0 X8.89 Y10.619
G0 X7.971 Y8.399
G0 X6.508 Y6.491
G0 X4.601 Y5.028
G0 X2.38 Y4.109
G0 X-0.012 Y3.793
G0 X0 Y-3.743
G0 X0 Y-3.743
; TYPE:WALL-INNER
G1 Z2.411
G1 F6600 E1297.12602
G1 F2184 X0 Y-3.743 E1297.12602
G1 X2.395 Y-4.058 E1297.22645
G1 X4.628 Y-4.983 E1297.32694
G1 X6.545 Y-6.454 E1297.4274
G1 X8.016 Y-8.371 E1297.52786
G1 X8.941 Y-10.604 E1297.62835
G1 X9.256 Y-13 E1297.72882
G1 X8.941 Y-15.395 E1297.82925
G1 X8.016 Y-17.627 E1297.9297
G1 X6.545 Y-19.545 E1298.03019
G1 X4.628 Y-21.016 E1298.13065
G1 X2.395 Y-21.941 E1298.23114
G1 X0 Y-22.256 E1298.33157
G1 X-2.395 Y-21.941 E1298.432
G1 X-4.627 Y-21.016 E1298.53245
G1 X-6.545 Y-19.545 E1298.63294
G1 X-8.016 Y-17.628 E1298.7334
G1 X-8.941 Y-15.395 E1298.83389
G1 X-9.256 Y-13 E1298.93432
G1 X-8.941 Y-10.604 E1299.03479
G1 X-8.016 Y-8.372 E1299.13524
G1 X-6.545 Y-6.454 E1299.23573
G1 X-4.628 Y-4.983 E1299.33619
G1 X-2.395 Y-4.058 E1299.43668
G1 X0 Y-3.743 E1299.53711
G0 F18000 X0 Y-4.247
; TYPE:WALL-OUTER
G1 F1911 X0 Y-4.247 E1299.53711
G1 X2.264 Y-4.545 E1299.63205
G1 X4.376 Y-5.42 E1299.72709
G1 X6.188 Y-6.811 E1299.82206
G1 X7.579 Y-8.623 E1299.91703
G1 X8.454 Y-10.735 E1300.01208
G1 X8.752 Y-13 E1300.10706
G1 X8.454 Y-15.264 E1300.20199
G1 X7.579 Y-17.375 E1300.297
G1 X6.188 Y-19.188 E1300.39201
G1 X4.376 Y-20.579 E1300.48698
G1 X2.264 Y-21.454 E1300.58202
G1 X0 Y-21.752 E1300.67696
G1 X-2.264 Y-21.454 E1300.7719
G1 X-4.375 Y-20.579 E1300.8669
G1 X-6.188 Y-19.188 E1300.96191
G1 X-7.579 Y-17.376 E1301.05688
G1 X-8.454 Y-15.264 E1301.15192
G1 X-8.752 Y-13 E1301.24686
G1 X-8.454 Y-10.735 E1301.34184
G1 X-7.579 Y-8.624 E1301.43685
G1 X-6.188 Y-6.811 E1301.53185
G1 X-4.376 Y-5.42 E1301.62683
G1 X-2.264 Y-4.545 E1301.72187
G1 X0 Y-4.247 E1301.81681
G0 F18000 X-0.046 Y-3.901
G0 X1.528 Y-3.5
G0 X1.528 Y-3.5
; TYPE:FILL
G1 F2184 X10.81 Y-3.5 E1302.20271
G0 F18000 X10.81 Y-4
G1 F2184 X3.404 Y-4 E1302.51061
G0 F18000 X4.612 Y-4.5
G1 F2184 X10.81 Y-4.5 E1302.7683
G0 F18000 X10.81 Y-5
G1 F2184 X5.372 Y-5 E1302.99438
G0 F18000 X6.024 Y-5.5
G1 F2184 X10.81 Y-5.5 E1303.19336
G0 F18000 X10.81 Y-6
G1 F2184 X6.676 Y-6 E1303.36523
G0 F18000 X7.135 Y-6.5
G1 F2184 X10.81 Y-6.5 E1303.51802
G0 F18000 X10.81 Y-7
G1 F2184 X7.519 Y-7 E1303.65485
G0 F18000 X7.901 Y-7.5
G1 F2184 X10.81 Y-7.5 E1303.77579
G0 F18000 X10.81 Y-8
G1 F2184 X8.285 Y-8 E1303.88077
G0 F18000 X8.546 Y-8.5
G1 F2184 X10.81 Y-8.5 E1303.97489
G0 F18000 X10.81 Y-9
G1 F2184 X8.753 Y-9 E1304.06041
G0 F18000 X8.96 Y-9.5
G1 F2184 X10.81 Y-9.5 E1304.13733
G0 F18000 X10.81 Y-10
G1 F2184 X9.167 Y-10 E1304.20563
G0 F18000 X9.371 Y-10.5
G1 F2184 X10.81 Y-10.5 E1304.26546
G0 F18000 X10.81 Y-11
G1 F2184 X9.437 Y-11 E1304.32254
G0 F18000 X9.503 Y-11.5
G1 F2184 X10.81 Y-11.5 E1304.37688
G0 F18000 X10.81 Y-12
G1 F2184 X9.569 Y-12 E1304.42848
G0 F18000 X9.634 Y-12.5
G1 F2184 X10.81 Y-12.5 E1304.47737
G0 F18000 X10.81 Y-13
G1 F2184 X9.7 Y-13 E1304.52352
G0 F18000 X9.634 Y-13.5
G1 F2184 X10.81 Y-13.5 E1304.57241
G0 F18000 X10.81 Y-14
G1 F2184 X9.569 Y-14 E1304.624
G0 F18000 X9.503 Y-14.5
G1 F2184 X10.81 Y-14.5 E1304.67834
G0 F18000 X10.809 Y-15
G1 F2184 X9.436 Y-15 E1304.73543
G0 F18000 X9.37 Y-15.5
G1 F2184 X10.809 Y-15.5 E1304.79525
G0 F18000 X10.809 Y-16
G1 F2184 X9.166 Y-16 E1304.86356
G0 F18000 X8.959 Y-16.5
G1 F2184 X10.809 Y-16.5 E1304.94047
G0 F18000 X10.809 Y-17
G1 F2184 X8.751 Y-17 E1305.02604
G0 F18000 X8.544 Y-17.5
G1 F2184 X10.809 Y-17.5 E1305.1202
G0 F18000 X10.809 Y-18
G1 F2184 X8.282 Y-18 E1305.22526
G0 F18000 X7.899 Y-18.5
G1 F2184 X10.809 Y-18.5 E1305.34625
G0 F18000 X10.809 Y-19
G1 F2184 X7.516 Y-19 E1305.48316
G0 F18000 X7.133 Y-19.5
G1 F2184 X10.809 Y-19.5 E1305.63599
G0 F18000 X10.809 Y-20
G1 F2184 X6.674 Y-20 E1305.8079
G0 F18000 X6.022 Y-20.5
G1 F2184 X10.809 Y-20.5 E1306.00692
G0 F18000 X10.809 Y-21
G1 F2184 X5.369 Y-21 E1306.23309
G0 F18000 X4.609 Y-21.5
G1 F2184 X10.809 Y-21.5 E1306.49085
G0 F18000 X10.809 Y-22
G1 F2184 X3.402 Y-22 E1306.7988
G0 F18000 X1.52 Y-22.5
G0 X1.52 Y-22.5
G1 F2184 X10.809 Y-22.5 E1307.18499
G0 F18000 X10.809 Y-23
G1 F2184 X-10.807 Y-23 E1308.08368
G0 F18000 X-10.807 Y-22.5
G1 F2184 X-1.521 Y-22.5 E1308.46975
G0 F18000 X-3.402 Y-22
G0 X-3.402 Y-22
G1 F2184 X-10.807 Y-22 E1308.77761
G0 F18000 X-10.807 Y-21.5
G1 F2184 X-4.608 Y-21.5 E1309.03534
G0 F18000 X-5.369 Y-21
G1 F2184 X-10.807 Y-21 E1309.26142
G0 F18000 X-10.807 Y-20.5
G1 F2184 X-6.021 Y-20.5 E1309.4604
G0 F18000 X-6.674 Y-20
G1 F2184 X-10.807 Y-20 E1309.63223
G0 F18000 X-10.807 Y-19.5
G1 F2184 X-7.133 Y-19.5 E1309.78498
G0 F18000 X-7.516 Y-19
G1 F2184 X-10.807 Y-19 E1309.9218
G0 F18000 X-10.807 Y-18.5
G1 F2184 X-7.9 Y-18.5 E1310.04266
G0 F18000 X-8.283 Y-18
G1 F2184 X-10.807 Y-18 E1310.1476
G0 F18000 X-10.807 Y-17.5
G1 F2184 X-8.544 Y-17.5 E1310.24168
G0 F18000 X-8.752 Y-17
G1 F2184 X-10.807 Y-17 E1310.32712
G0 F18000 X-10.807 Y-16.5
G1 F2184 X-8.959 Y-16.5 E1310.40395
G0 F18000 X-9.166 Y-16
G1 F2184 X-10.807 Y-16 E1310.47218
G0 F18000 X-10.807 Y-15.5
G1 F2184 X-9.37 Y-15.5 E1310.53192
G0 F18000 X-9.436 Y-15
G1 F2184 X-10.807 Y-15 E1310.58892
G0 F18000 X-10.807 Y-14.5
G1 F2184 X-9.502 Y-14.5 E1310.64317
G0 F18000 X-9.568 Y-14
G1 F2184 X-10.807 Y-14 E1310.69469
G0 F18000 X-10.807 Y-13.5
G1 F2184 X-9.634 Y-13.5 E1310.74345
G0 F18000 X-9.7 Y-13
G1 F2184 X-10.807 Y-13 E1310.78948
G0 F18000 X-10.807 Y-12.5
G1 F2184 X-9.634 Y-12.5 E1310.83824
G0 F18000 X-9.569 Y-12
G1 F2184 X-10.807 Y-12 E1310.88971
G0 F18000 X-10.807 Y-11.5
G1 F2184 X-9.503 Y-11.5 E1310.94393
G0 F18000 X-9.437 Y-11
G1 F2184 X-10.807 Y-11 E1311.00089
G0 F18000 X-10.807 Y-10.5
G1 F2184 X-9.371 Y-10.5 E1311.06059
G0 F18000 X-9.167 Y-10
G1 F2184 X-10.807 Y-10 E1311.12877
G0 F18000 X-10.807 Y-9.5
G1 F2184 X-8.96 Y-9.5 E1311.20556
G0 F18000 X-8.753 Y-9
G1 F2184 X-10.807 Y-9 E1311.29096
G0 F18000 X-10.807 Y-8.5
G1 F2184 X-8.545 Y-8.5 E1311.385
G0 F18000 X-8.284 Y-7.999
G1 F2184 X-10.807 Y-7.999 E1311.48989
G0 F18000 X-10.807 Y-7.499
G1 F2184 X-7.901 Y-7.499 E1311.61071
G0 F18000 X-7.518 Y-6.999
G1 F2184 X-10.807 Y-6.999 E1311.74745
G0 F18000 X-10.807 Y-6.499
G1 F2184 X-7.135 Y-6.5 E1311.90012
G0 F18000 X-6.676 Y-6
G1 F2184 X-10.807 Y-5.999 E1312.07186
G0 F18000 X-10.807 Y-5.499
G1 F2184 X-6.024 Y-5.5 E1312.27072
G0 F18000 X-5.372 Y-5
G1 F2184 X-10.807 Y-4.999 E1312.49668
G0 F18000 X-10.807 Y-4.499
G1 F2184 X-4.612 Y-4.5 E1312.75424
G0 F18000 X-3.405 Y-4
G1 F2184 X-10.807 Y-3.999 E1313.06198
G0 F18000 X-10.807 Y-3.499
G1 F2184 X-1.529 Y-3.5 E1313.44771
G0 F18000 X-1.524 Y3.5
G0 X-1.524 Y3.5
G1 F2184 X-10.808 Y3.5 E1313.83369
G0 F18000 X-10.808 Y4
G1 F2184 X-3.403 Y4 E1314.14156
G0 F18000 X-4.611 Y4.5
G1 F2184 X-10.808 Y4.5 E1314.3992
G0 F18000 X-10.808 Y5
G1 F2184 X-5.371 Y5 E1314.62524
G0 F18000 X-6.024 Y5.5
G1 F2184 X-10.808 Y5.5 E1314.82414
G0 F18000 X-10.808 Y6
G1 F2184 X-6.676 Y6 E1314.99593
G0 F18000 X-7.135 Y6.5
G1 F2184 X-10.808 Y6.5 E1315.14863
G0 F18000 X-10.808 Y7
G1 F2184 X-7.518 Y7 E1315.28542
G0 F18000 X-7.9 Y7.5
G1 F2184 X-10.808 Y7.5 E1315.40632
G0 F18000 X-10.808 Y8
G1 F2184 X-8.285 Y8 E1315.51121
G0 F18000 X-8.546 Y8.5
G1 F2184 X-10.808 Y8.5 E1315.60525
G0 F18000 X-10.808 Y9
G1 F2184 X-8.753 Y9 E1315.69069
G0 F18000 X-8.96 Y9.5
G1 F2184 X-10.808 Y9.5 E1315.76752
G0 F18000 X-10.808 Y10
G1 F2184 X-9.167 Y10 E1315.83575
G0 F18000 X-9.371 Y10.5
G1 F2184 X-10.808 Y10.5 E1315.89549
G0 F18000 X-10.808 Y11
G1 F2184 X-9.437 Y11 E1315.95249
G0 F18000 X-9.502 Y11.5
G1 F2184 X-10.808 Y11.5 E1316.00679
G0 F18000 X-10.808 Y12
G1 F2184 X-9.568 Y12 E1316.05834
G0 F18000 X-9.633 Y12.5
G1 F2184 X-10.808 Y12.5 E1316.10719
G0 F18000 X-10.808 Y13
G1 F2184 X-9.699 Y13 E1316.1533
G0 F18000 X-9.633 Y13.5
G1 F2184 X-10.808 Y13.5 E1316.20215
G0 F18000 X-10.808 Y14
G1 F2184 X-9.568 Y14 E1316.2537
G0 F18000 X-9.502 Y14.5
G1 F2184 X-10.808 Y14.5 E1316.308
G0 F18000 X-10.807 Y15
G1 F2184 X-9.436 Y15 E1316.365
G0 F18000 X-9.37 Y15.5
G1 F2184 X-10.807 Y15.5 E1316.42474
G0 F18000 X-10.807 Y16
G1 F2184 X-9.166 Y16 E1316.49297
G0 F18000 X-8.958 Y16.5
G1 F2184 X-10.807 Y16.5 E1316.56984
G0 F18000 X-10.807 Y17
G1 F2184 X-8.751 Y17 E1316.65532
G0 F18000 X-8.544 Y17.5
G1 F2184 X-10.807 Y17.5 E1316.7494
G0 F18000 X-10.807 Y18
G1 F2184 X-8.282 Y18 E1316.85438
G0 F18000 X-7.899 Y18.5
G1 F2184 X-10.807 Y18.5 E1316.97528
G0 F18000 X-10.807 Y19
G1 F2184 X-7.516 Y19 E1317.1121
G0 F18000 X-7.133 Y19.5
G1 F2184 X-10.807 Y19.5 E1317.26485
G0 F18000 X-10.807 Y20
G1 F2184 X-6.674 Y20 E1317.43668
G0 F18000 X-6.022 Y20.5
G1 F2184 X-10.807 Y20.5 E1317.63562
G0 F18000 X-10.807 Y21
G1 F2184 X-5.369 Y21 E1317.8617
G0 F18000 X-4.609 Y21.5
G1 F2184 X-10.807 Y21.5 E1318.11939
G0 F18000 X-10.807 Y22
G1 F2184 X-3.402 Y22 E1318.42725
G0 F18000 X-1.52 Y22.5
G0 X-1.52 Y22.5
G1 F2184 X-10.807 Y22.5 E1318.81336
G0 F18000 X-10.807 Y23
G1 F2184 X10.809 Y23 E1319.71205
G0 F18000 X10.809 Y22.5
G1 F2184 X1.521 Y22.5 E1320.0982
G0 F18000 X3.402 Y22
G0 X3.402 Y22
G1 F2184 X10.809 Y22 E1320.40615
G0 F18000 X10.809 Y21.5
G1 F2184 X4.608 Y21.5 E1320.66395
G0 F18000 X5.369 Y21
G1 F2184 X10.809 Y21 E1320.89012
G0 F18000 X10.809 Y20.5
G1 F2184 X6.021 Y20.5 E1321.08918
G0 F18000 X6.674 Y20
G1 F2184 X10.809 Y20 E1321.2611
G0 F18000 X10.809 Y19.5
G1 F2184 X7.133 Y19.5 E1321.41393
G0 F18000 X7.516 Y19
G1 F2184 X10.809 Y19 E1321.55084
G0 F18000 X10.809 Y18.5
G1 F2184 X7.9 Y18.5 E1321.67178
G0 F18000 X8.283 Y18
G1 F2184 X10.809 Y18 E1321.7768
G0 F18000 X10.809 Y17.5
G1 F2184 X8.544 Y17.5 E1321.87096
G0 F18000 X8.751 Y17
G1 F2184 X10.809 Y17 E1321.95653
G0 F18000 X10.809 Y16.5
G1 F2184 X8.959 Y16.5 E1322.03344
G0 F18000 X9.166 Y16
G1 F2184 X10.809 Y16 E1322.10175
G0 F18000 X10.809 Y15.5
G1 F2184 X9.37 Y15.5 E1322.16157
G0 F18000 X9.436 Y15
G1 F2184 X10.809 Y15 E1322.21866
G0 F18000 X10.809 Y14.5
G1 F2184 X9.502 Y14.5 E1322.273
G0 F18000 X9.567 Y14
G1 F2184 X10.809 Y14 E1322.32463
G0 F18000 X10.809 Y13.5
G1 F2184 X9.633 Y13.5 E1322.37352
G0 F18000 X9.699 Y13
G1 F2184 X10.809 Y13 E1322.41967
G0 F18000 X10.809 Y12.5
G1 F2184 X9.633 Y12.5 E1322.46857
G0 F18000 X9.568 Y12
G1 F2184 X10.809 Y12 E1322.52016
G0 F18000 X10.809 Y11.5
G1 F2184 X9.502 Y11.5 E1322.5745
G0 F18000 X9.437 Y11
G1 F2184 X10.809 Y11 E1322.63154
G0 F18000 X10.809 Y10.5
G1 F2184 X9.371 Y10.5 E1322.69133
G0 F18000 X9.167 Y10
G1 F2184 X10.809 Y10 E1322.75959
G0 F18000 X10.809 Y9.5
G1 F2184 X8.96 Y9.5 E1322.83646
G0 F18000 X8.753 Y9
G1 F2184 X10.809 Y9 E1322.92194
G0 F18000 X10.809 Y8.5
G1 F2184 X8.545 Y8.5 E1323.01607
G0 F18000 X8.284 Y7.999
G1 F2184 X10.809 Y7.999 E1323.12105
G0 F18000 X10.809 Y7.499
G1 F2184 X7.901 Y7.499 E1323.24195
G0 F18000 X7.518 Y6.999
G1 F2184 X10.809 Y6.999 E1323.37877
G0 F18000 X10.809 Y6.499
G1 F2184 X7.135 Y6.5 E1323.53152
G0 F18000 X6.676 Y6
G1 F2184 X10.809 Y5.999 E1323.70335
G0 F18000 X10.809 Y5.499
G1 F2184 X6.024 Y5.5 E1323.90229
G0 F18000 X5.372 Y5
G1 F2184 X10.809 Y4.999 E1324.12833
G0 F18000 X10.809 Y4.499
G1 F2184 X4.612 Y4.5 E1324.38597
G0 F18000 X3.405 Y4
G1 F2184 X10.809 Y3.999 E1324.69379
G0 F18000 X10.809 Y3.499
G1 F2184 X1.525 Y3.5 E1325.07978
G0 F18000 X10.809 Y2.999
G0 X10.809 Y2.999
G1 F2184 X-10.808 Y3 E1325.97851
G0 F18000 X-10.808 Y2.5
G1 F2184 X10.809 Y2.499 E1326.87724
G0 F18000 X10.809 Y1.999
G1 F2184 X-10.808 Y2 E1327.77597
G0 F18000 X-10.808 Y1.5
G1 F2184 X10.809 Y1.499 E1328.6747
G0 F18000 X10.809 Y0.999
G1 F2184 X-10.808 Y1 E1329.57343
G0 F18000 X-10.808 Y0.5
G1 F2184 X10.809 Y0.499 E1330.47216
G0 F18000 X10.81 Y0
G1 F2184 X-10.807 Y0 E1331.37089
G0 F18000 X-10.807 Y-0.499
G1 F2184 X10.81 Y-0.5 E1332.26962
G0 F18000 X10.81 Y-1
G1 F2184 X-10.807 Y-0.999 E1333.16835
G0 F18000 X-10.807 Y-1.499
G1 F2184 X10.81 Y-1.5 E1334.06708
G0 F18000 X10.81 Y-2
G1 F2184 X-10.807 Y-1.999 E1334.96581
G0 F18000 X-10.807 Y-2.499
G1 F2184 X10.81 Y-2.5 E1335.86454
G0 F18000 X10.81 Y-3
G1 F2184 X-10.807 Y-2.999 E1336.76327
G0 F18000 X-10.807 Y-23.5
G0 X-10.807 Y-23.5
G1 F2184 X10.809 Y-23.5 E1337.66196
G0 F18000 X10.809 Y23.5
G0 X10.809 Y23.5
G1 F2184 X-10.807 Y23.5 E1338.56065
; Layer Change GCode
; LAYER:5
G0 F18000 X-11.377 Y24.252 Z2.611
G0 X-11.618 Y24.571
G0 X-11.488 Y24.4
G0 X-11.488 Y24.4
G0 X-11.748 Y24.75
G0 X-11.748 Y24.75
G0 X-11.248 Y24.25
; TYPE:WALL-INNER
G1 F2040 X-11.248 Y24.25 E1338.56065
G1 X-11.248 Y-24.248 E1340.57696
G1 X11.25 Y-24.248 E1341.51232
G1 X11.25 Y24.25 E1343.52863
G1 X-11.248 Y24.25 E1344.46399
G0 F18000 X-11.748 Y24.75
; TYPE:WALL-OUTER
G1 F1785 X-11.748 Y24.75 E1344.46399
G1 X-11.748 Y-24.748 E1346.52188
G1 X11.75 Y-24.748 E1347.49881
G1 X11.75 Y24.75 E1349.5567
G1 X-11.748 Y24.75 E1350.53363
G0 F18000 X-11.488 Y24.4
G0 X-6.545 Y19.545
G0 X-6.545 Y19.545
; TYPE:WALL-INNER
G1 F2040 X-6.545 Y19.545 E1350.53363
G1 X-4.628 Y21.016 E1350.63409
G1 X-2.395 Y21.941 E1350.73458
G1 X0 Y22.256 E1350.83501
G1 X2.395 Y21.941 E1350.93544
G1 X4.627 Y21.016 E1351.03589
G1 X6.545 Y19.545 E1351.13638
G1 X8.016 Y17.628 E1351.23684
G1 X8.941 Y15.395 E1351.33733
G1 X9.255 Y13 E1351.43776
G1 X8.941 Y10.604 E1351.53822
G1 X8.016 Y8.372 E1351.63867
G1 X6.545 Y6.454 E1351.73916
G1 X4.628 Y4.983 E1351.83962
G1 X2.395 Y4.058 E1351.94011
G1 X0 Y3.744 E1352.04054
G1 X-2.395 Y4.058 E1352.14096
G1 X-4.627 Y4.983 E1352.24141
G1 X-6.545 Y6.454 E1352.3419
G1 X-8.016 Y8.372 E1352.4424
G1 X-8.941 Y10.604 E1352.54284
G1 X-9.255 Y13 E1352.64331
G1 X-8.941 Y15.395 E1352.74373
G1 X-8.016 Y17.627 E1352.84418
G1 X-6.545 Y19.545 E1352.94468
G0 F18000 X-5.893 Y19.8
G0 X-4.601 Y20.971
G0 X-2.381 Y21.89
G0 X-0.242 Y22.019
G0 X-0.046 Y22.098
G0 X-0.046 Y22.098
G0 X0 Y21.752
; TYPE:WALL-OUTER
G1 F1785 X0 Y21.752 E1352.94468
G1 X2.264 Y21.454 E1353.03961
G1 X4.375 Y20.579 E1353.13462
G1 X6.188 Y19.188 E1353.22963
G1 X7.579 Y17.376 E1353.3246
G1 X8.454 Y15.264 E1353.41964
G1 X8.751 Y13 E1353.51457
G1 X8.454 Y10.735 E1353.60955
G1 X7.579 Y8.624 E1353.70455
G1 X6.188 Y6.811 E1353.79956
G1 X4.376 Y5.42 E1353.89453
G1 X2.264 Y4.545 E1353.98958
G1 X0 Y4.248 E1354.08451
G1 X-2.264 Y4.545 E1354.17944
G1 X-4.375 Y5.42 E1354.27445
G1 X-6.188 Y6.811 E1354.36945
G1 X-7.579 Y8.624 E1354.46446
G1 X-8.454 Y10.735 E1354.55946
G1 X-8.751 Y13 E1354.65444
G1 X-8.454 Y15.264 E1354.74937
G1 X-7.579 Y17.375 E1354.84437
G1 X-6.188 Y19.188 E1354.93938
G1 X-4.376 Y20.579 E1355.03435
G1 X-2.264 Y21.454 E1355.1294
G1 X0 Y21.752 E1355.22433
G1 F6600 E1348.42433
G1 Z2.911
G0 F18000 X-0.046 Y22.098
G0 X-0.045 Y22.208
G0 X2.381 Y21.89
G0 X4.6 Y20.971
G0 X6.508 Y19.508
G0 X7.971 Y17.601
G0 X8.89 Y15.38
G0 X9.203 Y13
G0 X8.89 Y10.619
G0 X7.971 Y8.399
G0 X6.508 Y6.491
G0 X4.601 Y5.028
G0 X2.38 Y4.109
G0 X-0.012 Y3.793
G0 X0 Y-3.743
G0 X0 Y-3.743
; TYPE:WALL-INNER
G1 Z2.611
G1 F6600 E1355.32433
G1 F2040 X0 Y-3.743 E1355.32433
G1 X2.395 Y-4.058 E1355.42476
G1 X4.628 Y-4.983 E1355.52525
G1 X6.545 Y-6.454 E1355.62571
G1 X8.016 Y-8.371 E1355.72617
G1 X8.941 Y-10.604 E1355.82666
G1 X9.256 Y-13 E1355.92713
G1 X8.941 Y-15.395 E1356.02756
G1 X8.016 Y-17.627 E1356.12801
G1 X6.545 Y-19.545 E1356.2285
G1 X4.628 Y-21.016 E1356.32896
G1 X2.395 Y-21.941 E1356.42945
G1 X0 Y-22.256 E1356.52988
G1 X-2.395 Y-21.941 E1356.63031
G1 X-4.627 Y-21.016 E1356.73076
G1 X-6.545 Y-19.545 E1356.83125
G1 X-8.016 Y-17.628 E1356.93171
G1 X-8.941 Y-15.395 E1357.0322
G1 X-9.256 Y-13 E1357.13263
G1 X-8.941 Y-10.604 E1357.2331
G1 X-8.016 Y-8.372 E1357.33355
G1 X-6.545 Y-6.454 E1357.43404
G1 X-4.628 Y-4.983 E1357.5345
G1 X-2.395 Y-4.058 E1357.63499
G1 X0 Y-3.743 E1357.73542
G0 F18000 X0 Y-4.247
; TYPE:WALL-OUTER
G1 F1785 X0 Y-4.247 E1357.73542
G1 X2.264 Y-4.545 E1357.83036
G1 X4.376 Y-5.42 E1357.9254
G1 X6.188 Y-6.811 E1358.02037
G1 X7.579 Y-8.623 E1358.11535
G1 X8.454 Y-10.735 E1358.21039
G1 X8.752 Y-13 E1358.30537
G1 X8.454 Y-15.264 E1358.40031
G1 X7.579 Y-17.375 E1358.49531
G1 X6.188 Y-19.188 E1358.59032
G1 X4.376 Y-20.579 E1358.68529
G1 X2.264 Y-21.454 E1358.78033
G1 X0 Y-21.752 E1358.87527
G1 X-2.264 Y-21.454 E1358.97021
G1 X-4.375 Y-20.579 E1359.06522
G1 X-6.188 Y-19.188 E1359.16022
G1 X-7.579 Y-17.376 E1359.25519
G1 X-8.454 Y-15.264 E1359.35024
G1 X-8.752 Y-13 E1359.44518
G1 X-8.454 Y-10.735 E1359.54015
G1 X-7.579 Y-8.624 E1359.63516
G1 X-6.188 Y-6.811 E1359.73017
G1 X-4.376 Y-5.42 E1359.82514
G1 X-2.264 Y-4.545 E1359.92018
G1 X0 Y-4.247 E1360.01512
G0 F18000 X0 Y-3.299
; TYPE:FILL
G1 F2040 X0 Y3.3 E1360.28947
G0 F18000 X-0.251 Y3.333
G1 F2040 X-10.808 Y3.333 E1360.72838
G0 F18000 X-10.808 Y4.444
G1 F2040 X-4.476 Y4.444 E1360.99164
G0 F18000 X-4.443 Y4.43
G1 F2040 X-4.444 Y-4.43 E1361.35999
G0 F18000 X-4.477 Y-4.444
G1 F2040 X-10.807 Y-4.443 E1361.62316
G0 F18000 X-10.807 Y-3.332
G1 F2040 X-0.259 Y-3.333 E1362.0617
G0 F18000 X0.258 Y-3.333
G1 F2040 X10.81 Y-3.333 E1362.5004
G0 F18000 X10.81 Y-4.444
G1 F2040 X4.477 Y-4.444 E1362.7637
G0 F18000 X4.443 Y-4.429
G1 F2040 X4.444 Y4.43 E1363.13201
G0 F18000 X4.477 Y4.444
G1 F2040 X10.809 Y4.443 E1363.39526
G0 F18000 X10.809 Y5.554
G1 F2040 X6.096 Y5.555 E1363.59121
G0 F18000 X5.555 Y5.14
G1 F2040 X5.554 Y-5.139 E1364.01856
G0 F18000 X6.096 Y-5.555
G1 F2040 X10.81 Y-5.555 E1364.21454
G0 F18000 X10.81 Y-6.666
G1 F2040 X7.262 Y-6.666 E1364.36205
G0 F18000 X7.776 Y-7.337
G1 F2040 X7.777 Y7.339 E1364.97221
G0 F18000 X8.113 Y7.776
G1 F2040 X10.809 Y7.776 E1365.0843
G0 F18000 X10.809 Y6.665
G1 F2040 X7.262 Y6.666 E1365.23176
G0 F18000 X6.666 Y5.992
G1 F2040 X6.665 Y-5.991 E1365.72996
G0 F18000 X8.113 Y-7.777
G0 X8.113 Y-7.777
G1 F2040 X10.81 Y-7.777 E1365.84209
G0 F18000 X10.81 Y-8.888
G1 F2040 X8.707 Y-8.888 E1365.92952
G0 F18000 X8.887 Y-9.325
G1 F2040 X8.888 Y9.328 E1366.70502
G0 F18000 X8.706 Y8.888
G1 F2040 X10.809 Y8.888 E1366.79245
G0 F18000 X10.809 Y9.999
G1 F2040 X9.167 Y9.999 E1366.86072
G0 F18000 X9.451 Y11.11
G1 F2040 X10.809 Y11.11 E1366.91718
G0 F18000 X10.809 Y12.221
G1 F2040 X9.597 Y12.221 E1366.96757
G0 F18000 X9.655 Y13.332
G1 F2040 X10.809 Y13.332 E1367.01555
G0 F18000 X10.809 Y14.443
G1 F2040 X9.509 Y14.443 E1367.06959
G0 F18000 X9.35 Y15.554
G1 F2040 X10.809 Y15.554 E1367.13025
G0 F18000 X10.809 Y16.665
G1 F2040 X8.89 Y16.665 E1367.21004
G0 F18000 X8.888 Y16.67
G1 F2040 X8.888 Y23.81 E1367.50688
G0 F18000 X7.777 Y23.81
G1 F2040 X7.777 Y18.66 E1367.72099
G0 F18000 X7.603 Y18.887
G1 F2040 X10.809 Y18.887 E1367.85428
G0 F18000 X10.809 Y17.776
G1 F2040 X8.43 Y17.776 E1367.95319
G0 F18000 X6.677 Y19.998
G0 X6.677 Y19.998
G1 F2040 X10.809 Y19.998 E1368.12498
G0 F18000 X10.809 Y21.109
G1 F2040 X5.226 Y21.109 E1368.35709
G0 F18000 X5.555 Y20.857
G1 F2040 X5.555 Y23.81 E1368.47987
G0 F18000 X4.444 Y23.81
G1 F2040 X4.444 Y21.568 E1368.57308
G0 F18000 X3.333 Y22.028
G1 F2040 X3.333 Y23.81 E1368.64716
G0 F18000 X2.222 Y23.81
G1 F2040 X2.222 Y22.408 E1368.70545
G0 F18000 X2.871 Y22.22
G1 F2040 X10.809 Y22.22 E1369.03548
G0 F18000 X10.809 Y23.331
G1 F2040 X-10.807 Y23.331 E1369.93417
G0 F18000 X-9.998 Y23.81
G1 F2040 X-9.999 Y-23.808 E1371.91389
G0 F18000 X-10.807 Y-23.331
G1 F2040 X10.809 Y-23.331 E1372.81258
G0 F18000 X9.998 Y-23.808
G1 F2040 X9.999 Y23.81 E1374.79231
G0 F18000 X6.666 Y23.81
G0 X6.666 Y23.81
G1 F2040 X6.666 Y20.006 E1374.95046
G0 F18000 X1.111 Y22.554
G0 X1.111 Y22.554
G1 F2040 X1.111 Y23.81 E1375.00268
G0 F18000 X0 Y23.81
G1 F2040 X0 Y22.7 E1375.04883
G0 F18000 X-1.11 Y22.554
G1 F2040 X-1.11 Y23.81 E1375.10104
G0 F18000 X-2.221 Y23.81
G1 F2040 X-2.221 Y22.408 E1375.15933
G0 F18000 X-2.871 Y22.22
G1 F2040 X-10.807 Y22.22 E1375.48927
G0 F18000 X-10.807 Y21.109
G1 F2040 X-5.227 Y21.109 E1375.72126
G0 F18000 X-5.554 Y20.859
G1 F2040 X-5.554 Y23.81 E1375.84395
G0 F18000 X-4.443 Y23.81
G1 F2040 X-4.443 Y21.569 E1375.93712
G0 F18000 X-3.332 Y22.029
G1 F2040 X-3.332 Y23.81 E1376.01117
G0 F18000 X-6.665 Y23.81
G0 X-6.665 Y23.81
G1 F2040 X-6.665 Y20.007 E1376.16928
G0 F18000 X-6.677 Y19.998
G1 F2040 X-10.807 Y19.998 E1376.34098
G0 F18000 X-10.807 Y18.887
G1 F2040 X-7.603 Y18.887 E1376.47419
G0 F18000 X-7.776 Y18.661
G1 F2040 X-7.776 Y23.81 E1376.68826
G0 F18000 X-8.887 Y23.81
G1 F2040 X-8.887 Y16.672 E1376.98502
G0 F18000 X-8.89 Y16.665
G1 F2040 X-10.807 Y16.665 E1377.06472
G0 F18000 X-10.807 Y17.776
G1 F2040 X-8.43 Y17.776 E1377.16355
G0 F18000 X-9.35 Y15.554
G0 X-9.35 Y15.554
G1 F2040 X-10.807 Y15.554 E1377.22412
G0 F18000 X-10.808 Y14.443
G1 F2040 X-9.51 Y14.443 E1377.27809
G0 F18000 X-9.655 Y13.332
G1 F2040 X-10.808 Y13.332 E1377.32602
G0 F18000 X-10.808 Y12.221
G1 F2040 X-9.597 Y12.221 E1377.37637
G0 F18000 X-9.451 Y11.11
G1 F2040 X-10.808 Y11.11 E1377.43279
G0 F18000 X-10.808 Y9.999
G1 F2040 X-9.167 Y9.999 E1377.50101
G0 F18000 X-8.887 Y9.326
G1 F2040 X-8.888 Y-9.328 E1378.27656
G0 F18000 X-8.706 Y-8.888
G1 F2040 X-10.807 Y-8.888 E1378.3639
G0 F18000 X-10.807 Y-9.999
G1 F2040 X-9.167 Y-9.999 E1378.43209
G0 F18000 X-9.452 Y-11.11
G1 F2040 X-10.807 Y-11.11 E1378.48842
G0 F18000 X-10.807 Y-12.221
G1 F2040 X-9.598 Y-12.221 E1378.53869
G0 F18000 X-9.656 Y-13.332
G1 F2040 X-10.807 Y-13.332 E1378.58654
G0 F18000 X-10.807 Y-14.443
G1 F2040 X-9.51 Y-14.443 E1378.64046
G0 F18000 X-9.351 Y-15.554
G1 F2040 X-10.807 Y-15.554 E1378.701
G0 F18000 X-10.807 Y-16.665
G1 F2040 X-8.89 Y-16.665 E1378.7807
G0 F18000 X-8.888 Y-16.671
G1 F2040 X-8.888 Y-23.808 E1379.07742
G0 F18000 X-7.777 Y-23.808
G1 F2040 X-7.777 Y-18.66 E1379.29145
G0 F18000 X-7.603 Y-18.887
G1 F2040 X-10.807 Y-18.887 E1379.42465
G0 F18000 X-10.807 Y-17.776
G1 F2040 X-8.43 Y-17.776 E1379.52348
G0 F18000 X-6.677 Y-19.998
G0 X-6.677 Y-19.998
G1 F2040 X-10.807 Y-19.998 E1379.69518
G0 F18000 X-10.807 Y-21.109
G1 F2040 X-5.226 Y-21.109 E1379.92721
G0 F18000 X-5.555 Y-20.857
G1 F2040 X-5.555 Y-23.808 E1380.0499
G0 F18000 X-4.444 Y-23.808
G1 F2040 X-4.444 Y-21.568 E1380.14303
G0 F18000 X-3.333 Y-22.028
G1 F2040 X-3.333 Y-23.808 E1380.21703
G0 F18000 X-2.222 Y-23.808
G1 F2040 X-2.222 Y-22.408 E1380.27524
G0 F18000 X-2.871 Y-22.22
G1 F2040 X-10.807 Y-22.22 E1380.60518
G0 F18000 X-6.666 Y-23.808
G0 X-6.666 Y-23.808
G1 F2040 X-6.666 Y-20.006 E1380.76325
G0 F18000 X-1.111 Y-22.554
G0 X-1.111 Y-22.554
G1 F2040 X-1.111 Y-23.808 E1380.81538
G0 F18000 X0 Y-23.808
G1 F2040 X0 Y-22.7 E1380.86145
G0 F18000 X1.11 Y-22.554
G1 F2040 X1.11 Y-23.808 E1380.91359
G0 F18000 X2.221 Y-23.808
G1 F2040 X2.221 Y-22.408 E1380.97179
G0 F18000 X2.871 Y-22.22
G1 F2040 X10.809 Y-22.22 E1381.30181
G0 F18000 X10.809 Y-21.109
G1 F2040 X5.227 Y-21.109 E1381.53389
G0 F18000 X5.554 Y-20.859
G1 F2040 X5.554 Y-23.808 E1381.65649
G0 F18000 X6.665 Y-23.808
G1 F2040 X6.665 Y-20.007 E1381.81452
G0 F18000 X6.677 Y-19.998
G1 F2040 X10.809 Y-19.998 E1381.98631
G0 F18000 X10.809 Y-18.887
G1 F2040 X7.603 Y-18.887 E1382.1196
G0 F18000 X7.776 Y-18.661
G1 F2040 X7.776 Y-23.808 E1382.33358
G0 F18000 X8.887 Y-23.808
G1 F2040 X8.887 Y-16.672 E1382.63027
G0 F18000 X8.89 Y-16.665
G1 F2040 X10.809 Y-16.665 E1382.71005
G0 F18000 X10.809 Y-15.554
G1 F2040 X9.351 Y-15.554 E1382.77066
G0 F18000 X9.51 Y-14.443
G1 F2040 X10.81 Y-14.443 E1382.82471
G0 F18000 X10.81 Y-13.332
G1 F2040 X9.656 Y-13.332 E1382.87269
G0 F18000 X9.598 Y-12.221
G1 F2040 X10.81 Y-12.221 E1382.92308
G0 F18000 X10.81 Y-11.11
G1 F2040 X9.452 Y-11.11 E1382.97954
G0 F18000 X9.167 Y-9.999
G1 F2040 X10.81 Y-9.999 E1383.04785
G0 F18000 X10.81 Y-2.222
G0 X10.81 Y-2.222
G1 F2040 X-10.807 Y-2.221 E1383.94658
G0 F18000 X-10.807 Y-1.11
G1 F2040 X10.81 Y-1.111 E1384.84531
G0 F18000 X10.81 Y0
G1 F2040 X-10.807 Y0 E1385.74404
G0 F18000 X-10.808 Y1.111
G1 F2040 X10.809 Y1.11 E1386.64277
G0 F18000 X10.809 Y2.221
G1 F2040 X-10.808 Y2.222 E1387.5415
G0 F18000 X-10.808 Y5.555
G0 X-10.808 Y5.555
