; Generated with MatterSlice 1.0
; filamentDiameter = 1.75
; extrusionWidth = 0.5
; firstLayerExtrusionWidth = 0.4
; layerThickness = 0.2
; firstLayerThickness = 0.3
; automatic settings before start_gcode
G21 ; set units to millimeters
M107 ; fan off
T0 ; set the active extruder to 0
; settings from start_gcode
M104 S210
M190 S50
M109 S210
G28
; automatic settings after start_gcode
T0 ; set the active extruder to 0
G90 ; use absolute coordinates
G92 E0 ; reset the expected extruder position
M82 ; use absolute distance for extrusion
; Layer count: 89
; Layer Change GCode
; LAYER:0
G4 P0
M107
G0 F18000 X33.1 Y53.6 Z0.6
; TYPE:SKIRT
G1 Z0.3
G1 F6600 E0
G1 F720 X4.22 Y53.6 E1.44083
G1 X-33.099 Y23.234 E3.84117
G1 X-33.099 Y-31.586 E6.57615
G1 X4.524 Y-53.599 E8.75085
G1 X33.1 Y-53.599 E10.17651
G1 X33.1 Y53.6 E15.52469
G0 F18000 X32.7 Y53.2
G1 F720 X4.363 Y53.2 E16.93843
G1 X-32.699 Y23.044 E19.32221
G1 X-32.699 Y-31.356 E22.03623
G1 X4.633 Y-53.199 E24.19412
G1 X32.7 Y-53.199 E25.59439
G1 X32.7 Y53.2 E30.90265
G1 F6600 E24.10265
G1 Z0.6
G0 F18000 X-29.299 Y21.322
; TYPE:WALL-OUTER
G1 Z0.3
G1 F6600 E31.00265
G1 F720 X-29.299 Y21.322 E31.00265
G1 X-29.299 Y-29.321 E33.52924
G1 X-4.524 Y-29.321 E34.76527
G1 X-4.369 Y-29.284 E34.77322
G1 X-4.225 Y-29.15 E34.78304
G1 X-4.182 Y-28.994 E34.79111
G1 X-4.177 Y20.974 E37.28402
G1 X-4.225 Y21.15 E37.29313
G1 X-4.37 Y21.287 E37.30308
G1 X-4.504 Y21.319 E37.30995
G1 X-29.299 Y21.322 E38.54698
G0 F18000 X-28.899 Y20.922
; TYPE:WALL-INNER
G1 F720 X-28.899 Y20.922 E38.54698
G1 X-28.899 Y-28.921 E41.03366
G1 X-4.582 Y-28.921 E42.24684
G1 X-4.577 Y20.919 E44.73336
G1 X-28.899 Y20.922 E45.94679
G0 F18000 X-16.537 Y17.998
G0 X-16.537 Y17.998
G0 X-16.499 Y17.702
; TYPE:WALL-OUTER
G1 F720 X-16.499 Y17.702 E45.94679
G1 X-14.247 Y17.405 E46.06012
G1 X-12.148 Y16.536 E46.17346
G1 X-10.345 Y15.153 E46.28682
G1 X-8.962 Y13.351 E46.40015
G1 X-8.093 Y11.251 E46.51354
G1 X-7.797 Y9 E46.62681
G1 X-8.093 Y6.748 E46.74013
G1 X-8.962 Y4.649 E46.85347
G1 X-10.345 Y2.846 E46.96683
G1 X-12.148 Y1.463 E47.0802
G1 X-14.247 Y0.594 E47.19354
G1 X-16.499 Y0.297 E47.30687
G1 X-18.75 Y0.594 E47.42014
G1 X-20.85 Y1.463 E47.53353
G1 X-22.652 Y2.846 E47.64685
G1 X-24.035 Y4.649 E47.76022
G1 X-24.904 Y6.748 E47.87356
G1 X-25.201 Y9 E47.98689
G1 X-24.904 Y11.251 E48.10016
G1 X-24.035 Y13.351 E48.21355
G1 X-22.652 Y15.153 E48.32688
G1 X-20.85 Y16.536 E48.4402
G1 X-18.75 Y17.405 E48.55359
G1 X-16.499 Y17.702 E48.66686
G0 F18000 X-16.499 Y18.105
; TYPE:WALL-INNER
G1 F720 X-16.499 Y18.105 E48.66686
G1 X-14.142 Y17.795 E48.78547
G1 X-11.946 Y16.885 E48.90406
G1 X-10.06 Y15.438 E49.02266
G1 X-8.613 Y13.553 E49.14121
G1 X-7.703 Y11.355 E49.2599
G1 X-7.394 Y9 E49.3784
G1 X-7.703 Y6.643 E49.497
G1 X-8.613 Y4.447 E49.61559
G1 X-10.06 Y2.561 E49.73418
G1 X-11.946 Y1.114 E49.85278
G1 X-14.142 Y0.204 E49.97137
G1 X-16.499 Y-0.106 E50.08998
G1 X-18.855 Y0.204 E50.20853
G1 X-21.052 Y1.114 E50.32717
G1 X-22.937 Y2.561 E50.44573
G1 X-24.384 Y4.447 E50.56432
G1 X-25.294 Y6.643 E50.68292
G1 X-25.604 Y9 E50.80152
G1 X-25.294 Y11.356 E50.92008
G1 X-24.384 Y13.553 E51.03871
G1 X-22.937 Y15.438 E51.15727
G1 X-21.052 Y16.885 E51.27583
G1 X-18.855 Y17.795 E51.39447
G1 X-16.499 Y18.105 E51.51302
G1 F6600 E44.71302
G1 Z0.6
G0 F18000 X-16.498 Y18.102
G0 X-14.144 Y17.793
G0 X-11.948 Y16.883
G0 X-10.062 Y15.436
G0 X-8.615 Y13.552
G0 X-7.705 Y11.354
G0 X-7.396 Y9
G0 X-7.705 Y6.645
G0 X-8.615 Y4.449
G0 X-10.062 Y2.563
G0 X-11.948 Y1.116
G0 X-14.144 Y0.206
G0 X-16.525 Y-0.107
G0 X-16.536 Y-7.891
G0 X-16.537 Y-8.291
G0 X-16.537 Y-8.001
G0 X-16.537 Y-8.001
G0 X-16.499 Y-8.297
; TYPE:WALL-OUTER
G1 Z0.3
G1 F6600 E51.61302
G1 F720 X-16.499 Y-8.297 E51.61302
G1 X-14.247 Y-8.593 E51.72634
G1 X-12.148 Y-9.462 E51.83968
G1 X-10.345 Y-10.845 E51.95305
G1 X-8.962 Y-12.648 E52.06641
G1 X-8.093 Y-14.747 E52.17975
G1 X-7.797 Y-16.999 E52.29307
G1 X-8.093 Y-19.25 E52.40634
G1 X-8.962 Y-21.35 E52.51973
G1 X-10.345 Y-23.152 E52.63306
G1 X-12.148 Y-24.535 E52.74642
G1 X-14.247 Y-25.404 E52.85976
G1 X-16.499 Y-25.701 E52.97309
G1 X-18.75 Y-25.404 E53.08636
G1 X-20.85 Y-24.535 E53.19975
G1 X-22.652 Y-23.152 E53.31308
G1 X-24.035 Y-21.35 E53.4264
G1 X-24.904 Y-19.25 E53.53979
G1 X-25.201 Y-16.999 E53.65307
G1 X-24.904 Y-14.747 E53.76639
G1 X-24.035 Y-12.648 E53.87973
G1 X-22.652 Y-10.845 E53.9931
G1 X-20.85 Y-9.462 E54.10643
G1 X-18.75 Y-8.593 E54.21981
G1 X-16.499 Y-8.297 E54.33308
G0 F18000 X-16.499 Y-7.894
; TYPE:WALL-INNER
G1 F720 X-16.499 Y-7.894 E54.33308
G1 X-14.142 Y-8.203 E54.45168
G1 X-11.946 Y-9.113 E54.57027
G1 X-10.06 Y-10.56 E54.68887
G1 X-8.613 Y-12.446 E54.80746
G1 X-7.703 Y-14.642 E54.92606
G1 X-7.394 Y-16.999 E55.04465
G1 X-7.703 Y-19.354 E55.16315
G1 X-8.613 Y-21.552 E55.28184
G1 X-10.06 Y-23.437 E55.40039
G1 X-11.946 Y-24.884 E55.51899
G1 X-14.142 Y-25.794 E55.63758
G1 X-16.499 Y-26.104 E55.75619
G1 X-18.855 Y-25.794 E55.87474
G1 X-21.052 Y-24.884 E55.99338
G1 X-22.937 Y-23.437 E56.11194
G1 X-24.384 Y-21.552 E56.23049
G1 X-25.294 Y-19.355 E56.34913
G1 X-25.604 Y-16.999 E56.46769
G1 X-25.294 Y-14.642 E56.58629
G1 X-24.384 Y-12.446 E56.70488
G1 X-22.937 Y-10.56 E56.82348
G1 X-21.052 Y-9.113 E56.94204
G1 X-18.854 Y-8.203 E57.06072
G1 X-16.499 Y-7.894 E57.17922
G1 F6600 E50.37922
G1 Z0.6
G0 F18000 X-16.474 Y-7.937
G0 X-14.144 Y-8.205
G0 X-11.948 Y-9.115
G0 X-10.062 Y-10.562
G0 X-8.615 Y-12.448
G0 X-7.705 Y-14.644
G0 X-7.396 Y-16.999
G0 X-7.705 Y-19.353
G0 X-8.615 Y-21.551
G0 X-8.687 Y-21.622
G0 X-4.522 Y-28.94
G0 X-4.324 Y-29.287
G0 X-4.463 Y-29.045
G0 X-4.463 Y-29.045
; TYPE:FILL
G1 Z0.3
G1 F6600 E57.27922
G1 F720 X-4.435 Y-29.072 E57.27966
G0 F18000 X-4.454 Y21.033
G0 X-4.454 Y21.033
G1 F720 X-4.435 Y21.073 E57.28015
G0 F18000 X-4.916 Y20.4
; TYPE:BOTTOM-FILL
G1 F720 X-28.559 Y20.4 E58.4597
G0 F18000 X-28.559 Y20
G1 F720 X-4.916 Y20 E59.63926
G0 F18000 X-4.916 Y19.6
G1 F720 X-28.559 Y19.6 E60.81881
G0 F18000 X-28.559 Y19.2
G1 F720 X-4.916 Y19.2 E61.99836
G0 F18000 X-4.916 Y18.8
G1 F720 X-28.559 Y18.8 E63.17792
G0 F18000 X-28.559 Y18.4
G1 F720 X-16.864 Y18.4 E63.76138
G0 F18000 X-16.132 Y18.4
G1 F720 X-4.916 Y18.4 E64.32095
G0 F18000 X-4.916 Y18
G1 F720 X-13.747 Y18 E64.76153
G0 F18000 X-12.782 Y17.6
G1 F720 X-4.916 Y17.6 E65.15397
G0 F18000 X-4.916 Y17.2
G1 F720 X-11.818 Y17.2 E65.49831
G0 F18000 X-11.278 Y16.8
G1 F720 X-4.916 Y16.8 E65.81571
G0 F18000 X-4.916 Y16.4
G1 F720 X-10.756 Y16.4 E66.10707
G0 F18000 X-10.234 Y16
G1 F720 X-4.916 Y16 E66.37239
G0 F18000 X-4.916 Y15.6
G1 F720 X-9.756 Y15.6 E66.61386
G0 F18000 X-9.449 Y15.2
G1 F720 X-4.916 Y15.2 E66.84001
G0 F18000 X-4.916 Y14.8
G1 F720 X-9.143 Y14.8 E67.0509
G0 F18000 X-8.836 Y14.4
G1 F720 X-4.917 Y14.4 E67.24641
G0 F18000 X-4.917 Y14
G1 F720 X-8.529 Y14 E67.42662
G0 F18000 X-8.265 Y13.6
G1 F720 X-4.917 Y13.6 E67.59365
G0 F18000 X-4.917 Y13.2
G1 F720 X-8.098 Y13.2 E67.75235
G0 F18000 X-7.932 Y12.8
G1 F720 X-4.917 Y12.8 E67.90277
G0 F18000 X-4.917 Y12.4
G1 F720 X-7.767 Y12.4 E68.04496
G0 F18000 X-7.601 Y12
G1 F720 X-4.917 Y12 E68.17886
G0 F18000 X-4.917 Y11.6
G1 F720 X-7.435 Y11.6 E68.30449
G0 F18000 X-7.338 Y11.2
G1 F720 X-4.917 Y11.2 E68.42527
G0 F18000 X-4.917 Y10.8
G1 F720 X-7.286 Y10.8 E68.54346
G0 F18000 X-7.233 Y10.4
G1 F720 X-4.917 Y10.4 E68.65901
G0 F18000 X-4.917 Y10
G1 F720 X-7.181 Y10 E68.77196
G0 F18000 X-7.129 Y9.6
G1 F720 X-4.917 Y9.6 E68.88231
G0 F18000 X-4.917 Y9.2
G1 F720 X-7.076 Y9.2 E68.99003
G0 F18000 X-7.076 Y8.8
G1 F720 X-4.917 Y8.8 E69.09774
G0 F18000 X-4.917 Y8.4
G1 F720 X-7.129 Y8.4 E69.2081
G0 F18000 X-7.181 Y8
G1 F720 X-4.917 Y8 E69.32105
G0 F18000 X-4.917 Y7.6
G1 F720 X-7.233 Y7.6 E69.43659
G0 F18000 X-7.287 Y7.2
G1 F720 X-4.918 Y7.2 E69.55478
G0 F18000 X-4.918 Y6.8
G1 F720 X-7.339 Y6.8 E69.67557
G0 F18000 X-7.435 Y6.4
G1 F720 X-4.918 Y6.4 E69.80114
G0 F18000 X-4.918 Y6
G1 F720 X-7.601 Y6 E69.935
G0 F18000 X-7.767 Y5.6
G1 F720 X-4.918 Y5.6 E70.07714
G0 F18000 X-4.918 Y5.2
G1 F720 X-7.933 Y5.2 E70.22755
G0 F18000 X-8.099 Y4.8
G1 F720 X-4.918 Y4.8 E70.38625
G0 F18000 X-4.918 Y4.4
G1 F720 X-8.264 Y4.4 E70.55319
G0 F18000 X-8.528 Y4
G1 F720 X-4.918 Y4 E70.73329
G0 F18000 X-4.918 Y3.6
G1 F720 X-8.835 Y3.6 E70.92871
G0 F18000 X-9.142 Y3.2
G1 F720 X-4.918 Y3.2 E71.13945
G0 F18000 X-4.918 Y2.8
G1 F720 X-9.448 Y2.8 E71.36545
G0 F18000 X-9.755 Y2.4
G1 F720 X-4.918 Y2.4 E71.60677
G0 F18000 X-4.919 Y2
G1 F720 X-10.233 Y2 E71.87189
G0 F18000 X-10.754 Y1.6
G1 F720 X-4.919 Y1.6 E72.16299
G0 F18000 X-4.919 Y1.2
G1 F720 X-11.276 Y1.2 E72.48015
G0 F18000 X-11.814 Y0.8
G1 F720 X-4.919 Y0.8 E72.82414
G0 F18000 X-4.919 Y0.4
G1 F720 X-12.78 Y0.4 E73.21633
G0 F18000 X-13.745 Y0
G1 F720 X-4.919 Y0 E73.65666
G0 F18000 X-4.919 Y-0.399
G1 F720 X-16.126 Y-0.399 E74.21578
G0 F18000 X-16.872 Y-0.399
G1 F720 X-28.559 Y-0.399 E74.79884
G0 F18000 X-28.559 Y0
G1 F720 X-19.252 Y0 E75.26317
G0 F18000 X-20.218 Y0.4
G1 F720 X-28.559 Y0.4 E75.67931
G0 F18000 X-28.559 Y0.8
G1 F720 X-21.184 Y0.8 E76.04725
G0 F18000 X-21.722 Y1.2
G1 F720 X-28.559 Y1.2 E76.38835
G0 F18000 X-28.559 Y1.6
G1 F720 X-22.243 Y1.6 E76.70345
G0 F18000 X-22.765 Y2
G1 F720 X-28.559 Y2 E76.99252
G0 F18000 X-28.559 Y2.4
G1 F720 X-23.242 Y2.4 E77.25778
G0 F18000 X-23.549 Y2.8
G1 F720 X-28.559 Y2.8 E77.50773
G0 F18000 X-28.559 Y3.2
G1 F720 X-23.855 Y3.2 E77.74242
G0 F18000 X-24.162 Y3.6
G1 F720 X-28.559 Y3.6 E77.96178
G0 F18000 X-28.559 Y4
G1 F720 X-24.469 Y4 E78.16583
G0 F18000 X-24.733 Y4.4
G1 F720 X-28.559 Y4.4 E78.35671
G0 F18000 X-28.559 Y4.8
G1 F720 X-24.899 Y4.8 E78.53931
G0 F18000 X-25.064 Y5.2
G1 F720 X-28.559 Y5.2 E78.71368
G0 F18000 X-28.559 Y5.6
G1 F720 X-25.23 Y5.6 E78.87976
G0 F18000 X-25.396 Y6
G1 F720 X-28.559 Y6 E79.03757
G0 F18000 X-28.559 Y6.4
G1 F720 X-25.562 Y6.4 E79.18709
G0 F18000 X-25.658 Y6.8
G1 F720 X-28.559 Y6.8 E79.33182
G0 F18000 X-28.559 Y7.2
G1 F720 X-25.711 Y7.2 E79.4739
G0 F18000 X-25.763 Y7.6
G1 F720 X-28.559 Y7.6 E79.6134
G0 F18000 X-28.559 Y8
G1 F720 X-25.816 Y8 E79.75025
G0 F18000 X-25.868 Y8.4
G1 F720 X-28.559 Y8.4 E79.8845
G0 F18000 X-28.559 Y8.8
G1 F720 X-25.921 Y8.8 E80.01611
G0 F18000 X-25.921 Y9.2
G1 F720 X-28.559 Y9.2 E80.14772
G0 F18000 X-28.559 Y9.6
G1 F720 X-25.868 Y9.6 E80.28198
G0 F18000 X-25.816 Y10
G1 F720 X-28.559 Y10 E80.41883
G0 F18000 X-28.559 Y10.4
G1 F720 X-25.763 Y10.4 E80.55832
G0 F18000 X-25.71 Y10.8
G1 F720 X-28.559 Y10.8 E80.70046
G0 F18000 X-28.559 Y11.2
G1 F720 X-25.658 Y11.2 E80.84519
G0 F18000 X-25.561 Y11.6
G1 F720 X-28.559 Y11.6 E80.99476
G0 F18000 X-28.559 Y12
G1 F720 X-25.395 Y12 E81.15261
G0 F18000 X-25.229 Y12.4
G1 F720 X-28.559 Y12.4 E81.31874
G0 F18000 X-28.559 Y12.8
G1 F720 X-25.063 Y12.8 E81.49316
G0 F18000 X-24.898 Y13.2
G1 F720 X-28.559 Y13.2 E81.67581
G0 F18000 X-28.559 Y13.6
G1 F720 X-24.732 Y13.6 E81.86674
G0 F18000 X-24.467 Y14
G1 F720 X-28.559 Y14 E82.07089
G0 F18000 X-28.559 Y14.4
G1 F720 X-24.16 Y14.4 E82.29036
G0 F18000 X-23.853 Y14.8
G1 F720 X-28.559 Y14.8 E82.52514
G0 F18000 X-28.559 Y15.2
G1 F720 X-23.547 Y15.2 E82.77519
G0 F18000 X-23.24 Y15.6
G1 F720 X-28.559 Y15.6 E83.04056
G0 F18000 X-28.559 Y16
G1 F720 X-22.761 Y16 E83.32982
G0 F18000 X-22.24 Y16.4
G1 F720 X-28.559 Y16.4 E83.64508
G0 F18000 X-28.559 Y16.8
G1 F720 X-21.719 Y16.8 E83.98632
G0 F18000 X-21.179 Y17.2
G1 F720 X-28.559 Y17.2 E84.35451
G0 F18000 X-28.559 Y17.6
G1 F720 X-20.214 Y17.6 E84.77085
G0 F18000 X-19.249 Y18
G1 F720 X-28.559 Y18 E85.23533
G0 F18000 X-28.559 Y-0.799
G0 X-28.559 Y-0.799
G1 F720 X-4.919 Y-0.799 E86.41473
G0 F18000 X-4.919 Y-1.199
G1 F720 X-28.559 Y-1.199 E87.59413
G0 F18000 X-28.559 Y-1.599
G1 F720 X-4.919 Y-1.599 E88.77354
G0 F18000 X-4.919 Y-1.999
G1 F720 X-28.559 Y-1.999 E89.95294
G0 F18000 X-28.559 Y-2.399
G1 F720 X-4.919 Y-2.399 E91.13235
G0 F18000 X-4.919 Y-2.799
G1 F720 X-28.559 Y-2.799 E92.31175
G0 F18000 X-28.559 Y-3.199
G1 F720 X-4.919 Y-3.199 E93.49116
G0 F18000 X-4.919 Y-3.599
G1 F720 X-28.559 Y-3.599 E94.67056
G0 F18000 X-28.559 Y-3.999
G1 F720 X-4.919 Y-3.999 E95.84996
G0 F18000 X-4.919 Y-4.4
G1 F720 X-28.559 Y-4.399 E97.02937
G0 F18000 X-28.559 Y-4.799
G1 F720 X-4.919 Y-4.8 E98.20877
G0 F18000 X-4.919 Y-5.2
G1 F720 X-28.559 Y-5.199 E99.38818
G0 F18000 X-28.559 Y-5.599
G1 F720 X-4.919 Y-5.6 E100.56758
G0 F18000 X-4.919 Y-6
G1 F720 X-28.559 Y-5.999 E101.74699
G0 F18000 X-28.559 Y-6.399
G1 F720 X-4.919 Y-6.4 E102.92639
G0 F18000 X-4.919 Y-6.8
G1 F720 X-28.559 Y-6.799 E104.1058
G0 F18000 X-28.559 Y-7.199
G1 F720 X-4.919 Y-7.2 E105.2852
G0 F18000 X-4.919 Y-7.6
G1 F720 X-16.125 Y-7.599 E105.84427
G0 F18000 X-16.873 Y-7.599
G1 F720 X-28.559 Y-7.599 E106.42729
G0 F18000 X-28.559 Y-7.999
G1 F720 X-19.253 Y-7.999 E106.89156
G0 F18000 X-20.219 Y-8.399
G1 F720 X-28.559 Y-8.399 E107.30765
G0 F18000 X-28.559 Y-8.799
G1 F720 X-21.184 Y-8.799 E107.67559
G0 F18000 X-21.722 Y-9.199
G1 F720 X-28.559 Y-9.199 E108.01669
G0 F18000 X-28.559 Y-9.599
G1 F720 X-22.243 Y-9.599 E108.3318
G0 F18000 X-22.765 Y-9.999
G1 F720 X-28.559 Y-9.999 E108.62086
G0 F18000 X-28.559 Y-10.399
G1 F720 X-23.242 Y-10.399 E108.88613
G0 F18000 X-23.549 Y-10.799
G1 F720 X-28.559 Y-10.799 E109.13607
G0 F18000 X-28.559 Y-11.199
G1 F720 X-23.855 Y-11.199 E109.37076
G0 F18000 X-24.162 Y-11.599
G1 F720 X-28.559 Y-11.599 E109.59013
G0 F18000 X-28.559 Y-11.999
G1 F720 X-24.469 Y-11.999 E109.79418
G0 F18000 X-24.733 Y-12.399
G1 F720 X-28.559 Y-12.399 E109.98506
G0 F18000 X-28.559 Y-12.799
G1 F720 X-24.899 Y-12.799 E110.16765
G0 F18000 X-25.064 Y-13.199
G1 F720 X-28.559 Y-13.199 E110.34202
G0 F18000 X-28.559 Y-13.599
G1 F720 X-25.23 Y-13.599 E110.50811
G0 F18000 X-25.396 Y-13.999
G1 F720 X-28.559 Y-13.999 E110.66591
G0 F18000 X-28.559 Y-14.399
G1 F720 X-25.562 Y-14.399 E110.81543
G0 F18000 X-25.658 Y-14.799
G1 F720 X-28.559 Y-14.799 E110.96016
G0 F18000 X-28.559 Y-15.199
G1 F720 X-25.711 Y-15.199 E111.10225
G0 F18000 X-25.763 Y-15.599
G1 F720 X-28.559 Y-15.599 E111.24174
G0 F18000 X-28.559 Y-15.999
G1 F720 X-25.816 Y-15.999 E111.37859
G0 F18000 X-25.868 Y-16.4
G1 F720 X-28.559 Y-16.4 E111.51284
G0 F18000 X-28.559 Y-16.8
G1 F720 X-25.921 Y-16.8 E111.64445
G0 F18000 X-25.921 Y-17.2
G1 F720 X-28.559 Y-17.2 E111.77606
G0 F18000 X-28.559 Y-17.6
G1 F720 X-25.868 Y-17.6 E111.91032
G0 F18000 X-25.816 Y-18
G1 F720 X-28.559 Y-18 E112.04717
G0 F18000 X-28.559 Y-18.4
G1 F720 X-25.763 Y-18.4 E112.18666
G0 F18000 X-25.71 Y-18.8
G1 F720 X-28.559 Y-18.8 E112.3288
G0 F18000 X-28.559 Y-19.2
G1 F720 X-25.658 Y-19.2 E112.47353
G0 F18000 X-25.561 Y-19.6
G1 F720 X-28.559 Y-19.6 E112.6231
G0 F18000 X-28.559 Y-20
G1 F720 X-25.395 Y-20 E112.78095
G0 F18000 X-25.229 Y-20.4
G1 F720 X-28.559 Y-20.4 E112.94709
G0 F18000 X-28.559 Y-20.8
G1 F720 X-25.063 Y-20.8 E113.1215
G0 F18000 X-24.898 Y-21.2
G1 F720 X-28.559 Y-21.2 E113.30415
G0 F18000 X-28.559 Y-21.6
G1 F720 X-24.732 Y-21.6 E113.49508
G0 F18000 X-24.467 Y-22
G1 F720 X-28.559 Y-22 E113.69923
G0 F18000 X-28.559 Y-22.4
G1 F720 X-24.16 Y-22.4 E113.9187
G0 F18000 X-23.853 Y-22.8
G1 F720 X-28.559 Y-22.8 E114.15348
G0 F18000 X-28.559 Y-23.2
G1 F720 X-23.547 Y-23.2 E114.40353
G0 F18000 X-23.24 Y-23.6
G1 F720 X-28.559 Y-23.6 E114.6689
G0 F18000 X-28.559 Y-24
G1 F720 X-22.761 Y-24 E114.95816
G0 F18000 X-22.239 Y-24.4
G1 F720 X-28.559 Y-24.4 E115.27347
G0 F18000 X-28.559 Y-24.8
G1 F720 X-21.718 Y-24.8 E115.61477
G0 F18000 X-21.177 Y-25.2
G1 F720 X-28.559 Y-25.2 E115.98306
G0 F18000 X-28.559 Y-25.6
G1 F720 X-20.212 Y-25.6 E116.39949
G0 F18000 X-19.247 Y-26
G1 F720 X-28.559 Y-26 E116.86407
G0 F18000 X-28.559 Y-26.4
G1 F720 X-16.857 Y-26.4 E117.44788
G0 F18000 X-16.141 Y-26.4
G1 F720 X-4.921 Y-26.4 E118.00765
G0 F18000 X-4.921 Y-26
G1 F720 X-13.749 Y-26 E118.44808
G0 F18000 X-12.785 Y-25.6
G1 F720 X-4.921 Y-25.6 E118.84042
G0 F18000 X-4.921 Y-25.2
G1 F720 X-11.82 Y-25.2 E119.18461
G0 F18000 X-11.279 Y-24.8
G1 F720 X-4.921 Y-24.8 E119.50181
G0 F18000 X-4.921 Y-24.4
G1 F720 X-10.757 Y-24.4 E119.79297
G0 F18000 X-10.236 Y-24
G1 F720 X-4.921 Y-24 E120.05814
G0 F18000 X-4.921 Y-23.6
G1 F720 X-9.756 Y-23.6 E120.29936
G0 F18000 X-9.449 Y-23.2
G1 F720 X-4.921 Y-23.2 E120.52526
G0 F18000 X-4.921 Y-22.8
G1 F720 X-9.143 Y-22.8 E120.7359
G0 F18000 X-8.836 Y-22.4
G1 F720 X-4.92 Y-22.4 E120.93127
G0 F18000 X-4.92 Y-22
G1 F720 X-8.529 Y-22 E121.11132
G0 F18000 X-8.264 Y-21.6
G1 F720 X-4.92 Y-21.6 E121.27815
G0 F18000 X-4.92 Y-21.2
G1 F720 X-8.099 Y-21.2 E121.43675
G0 F18000 X-7.933 Y-20.8
G1 F720 X-4.92 Y-20.8 E121.58707
G0 F18000 X-4.92 Y-20.4
G1 F720 X-7.767 Y-20.4 E121.72911
G0 F18000 X-7.601 Y-20
G1 F720 X-4.92 Y-20 E121.86287
G0 F18000 X-4.92 Y-19.6
G1 F720 X-7.435 Y-19.6 E121.98834
G0 F18000 X-7.338 Y-19.2
G1 F720 X-4.92 Y-19.2 E122.10897
G0 F18000 X-4.92 Y-18.8
G1 F720 X-7.286 Y-18.8 E122.22701
G0 F18000 X-7.234 Y-18.4
G1 F720 X-4.92 Y-18.4 E122.34246
G0 F18000 X-4.92 Y-18
G1 F720 X-7.181 Y-18 E122.45526
G0 F18000 X-7.129 Y-17.6
G1 F720 X-4.92 Y-17.6 E122.56547
G0 F18000 X-4.92 Y-17.2
G1 F720 X-7.076 Y-17.2 E122.67303
G0 F18000 X-7.076 Y-16.8
G1 F720 X-4.92 Y-16.8 E122.7806
G0 F18000 X-4.92 Y-16.4
G1 F720 X-7.128 Y-16.4 E122.89075
G0 F18000 X-7.181 Y-16
G1 F720 X-4.92 Y-16 E123.00356
G0 F18000 X-4.92 Y-15.6
G1 F720 X-7.233 Y-15.6 E123.11895
G0 F18000 X-7.285 Y-15.2
G1 F720 X-4.92 Y-15.2 E123.23694
G0 F18000 X-4.92 Y-14.8
G1 F720 X-7.338 Y-14.8 E123.35758
G0 F18000 X-7.434 Y-14.4
G1 F720 X-4.92 Y-14.4 E123.483
G0 F18000 X-4.92 Y-14
G1 F720 X-7.6 Y-14 E123.61671
G0 F18000 X-7.766 Y-13.6
G1 F720 X-4.92 Y-13.6 E123.75869
G0 F18000 X-4.92 Y-13.2
G1 F720 X-7.932 Y-13.2 E123.90896
G0 F18000 X-8.098 Y-12.8
G1 F720 X-4.92 Y-12.8 E124.06751
G0 F18000 X-4.92 Y-12.4
G1 F720 X-8.264 Y-12.4 E124.23435
G0 F18000 X-8.528 Y-12
G1 F720 X-4.92 Y-12 E124.41435
G0 F18000 X-4.92 Y-11.6
G1 F720 X-8.835 Y-11.6 E124.60967
G0 F18000 X-9.142 Y-11.2
G1 F720 X-4.92 Y-11.2 E124.82031
G0 F18000 X-4.92 Y-10.8
G1 F720 X-9.448 Y-10.8 E125.04621
G0 F18000 X-9.755 Y-10.4
G1 F720 X-4.92 Y-10.4 E125.28743
G0 F18000 X-4.919 Y-10
G1 F720 X-10.233 Y-10 E125.55255
G0 F18000 X-10.754 Y-9.6
G1 F720 X-4.919 Y-9.6 E125.84366
G0 F18000 X-4.919 Y-9.2
G1 F720 X-11.276 Y-9.2 E126.16081
G0 F18000 X-11.814 Y-8.8
G1 F720 X-4.919 Y-8.8 E126.5048
G0 F18000 X-4.919 Y-8.4
G1 F720 X-12.779 Y-8.4 E126.89694
G0 F18000 X-13.743 Y-7.999
G1 F720 X-4.919 Y-8 E127.33717
G0 F18000 X-4.921 Y-26.8
G0 X-4.921 Y-26.8
G1 F720 X-28.559 Y-26.8 E128.51647
G0 F18000 X-28.559 Y-27.2
G1 F720 X-4.921 Y-27.2 E129.69578
G0 F18000 X-4.921 Y-27.6
G1 F720 X-28.559 Y-27.6 E130.87508
G0 F18000 X-28.559 Y-28
G1 F720 X-4.921 Y-28 E132.05439
G0 F18000 X-4.921 Y-28.4
G1 F720 X-28.559 Y-28.4 E133.23369
G1 F6600 E126.43369
G1 Z0.6
G0 F18000 X5.7 Y49.8
; TYPE:WALL-OUTER
G1 Z0.3
G1 F6600 E133.33369
G1 F720 X5.7 Y49.8 E133.33369
G1 X5.7 Y-49.799 E138.30271
G1 X29.3 Y-49.799 E139.48011
G1 X29.3 Y49.8 E144.44913
G1 X5.7 Y49.8 E145.62654
G0 F18000 X6.1 Y49.4
; TYPE:WALL-INNER
G1 F720 X6.1 Y49.4 E145.62654
G1 X6.1 Y-49.399 E150.55564
G1 X28.9 Y-49.399 E151.69314
G1 X28.9 Y49.4 E156.62224
G1 X6.1 Y49.4 E157.75974
G0 F18000 X6.439 Y48.8
; TYPE:BOTTOM-FILL
G1 F720 X28.559 Y48.8 E158.86331
G0 F18000 X28.559 Y48.4
G1 F720 X6.439 Y48.4 E159.96688
G0 F18000 X6.439 Y48
G1 F720 X28.559 Y48 E161.07045
G0 F18000 X28.559 Y47.6
G1 F720 X6.439 Y47.6 E162.17402
G0 F18000 X6.439 Y47.2
G1 F720 X28.559 Y47.2 E163.27759
G0 F18000 X28.559 Y46.8
G1 F720 X6.439 Y46.8 E164.38116
G0 F18000 X6.439 Y46.4
G1 F720 X28.559 Y46.4 E165.48473
G0 F18000 X28.559 Y46
G1 F720 X6.439 Y46 E166.58831
G0 F18000 X6.439 Y45.6
G1 F720 X28.559 Y45.6 E167.69188
G0 F18000 X28.559 Y45.2
G1 F720 X6.439 Y45.2 E168.79545
G0 F18000 X6.439 Y44.8
G1 F720 X28.559 Y44.8 E169.89902
G0 F18000 X28.559 Y44.4
G1 F720 X6.439 Y44.4 E171.00259
G0 F18000 X6.439 Y44
G1 F720 X28.559 Y44 E172.10616
G0 F18000 X28.559 Y43.6
G1 F720 X6.439 Y43.6 E173.20973
G0 F18000 X6.439 Y43.2
G1 F720 X28.559 Y43.2 E174.3133
G0 F18000 X28.559 Y42.8
G1 F720 X6.439 Y42.8 E175.41688
G0 F18000 X6.439 Y42.4
G1 F720 X28.559 Y42.4 E176.52045
G0 F18000 X28.559 Y42
G1 F720 X6.439 Y42 E177.62402
G0 F18000 X6.439 Y41.6
G1 F720 X28.559 Y41.6 E178.72759
G0 F18000 X28.559 Y41.2
G1 F720 X6.439 Y41.2 E179.83116
G0 F18000 X6.439 Y40.8
G1 F720 X28.559 Y40.8 E180.93473
G0 F18000 X28.559 Y40.4
G1 F720 X6.439 Y40.4 E182.0383
G0 F18000 X6.439 Y40
G1 F720 X28.559 Y40 E183.14187
G0 F18000 X28.559 Y39.6
G1 F720 X6.439 Y39.6 E184.24545
G0 F18000 X6.439 Y39.2
G1 F720 X28.559 Y39.2 E185.34902
G0 F18000 X28.559 Y38.8
G1 F720 X6.439 Y38.8 E186.45259
G0 F18000 X6.439 Y38.4
G1 F720 X28.559 Y38.4 E187.55616
G0 F18000 X28.559 Y38
G1 F720 X6.439 Y38 E188.65973
G0 F18000 X6.439 Y37.6
G1 F720 X28.559 Y37.6 E189.7633
G0 F18000 X28.559 Y37.2
G1 F720 X6.439 Y37.2 E190.86687
G0 F18000 X6.439 Y36.8
G1 F720 X28.559 Y36.8 E191.97044
G0 F18000 X28.559 Y36.4
G1 F720 X6.439 Y36.4 E193.07402
G0 F18000 X6.439 Y36
G1 F720 X28.559 Y36 E194.17759
G0 F18000 X28.559 Y35.6
G1 F720 X6.439 Y35.6 E195.28116
G0 F18000 X6.439 Y35.2
G1 F720 X28.559 Y35.2 E196.38473
G0 F18000 X28.559 Y34.8
G1 F720 X6.439 Y34.8 E197.4883
G0 F18000 X6.439 Y34.4
G1 F720 X28.559 Y34.4 E198.59187
G0 F18000 X28.559 Y34
G1 F720 X6.439 Y34 E199.69544
G0 F18000 X6.439 Y33.6
G1 F720 X28.559 Y33.6 E200.79901
G0 F18000 X28.559 Y33.2
G1 F720 X6.439 Y33.2 E201.90259
G0 F18000 X6.439 Y32.8
G1 F720 X28.559 Y32.8 E203.00616
G0 F18000 X28.559 Y32.4
G1 F720 X6.439 Y32.4 E204.10973
G0 F18000 X6.439 Y32
G1 F720 X28.559 Y32 E205.2133
G0 F18000 X28.559 Y31.6
G1 F720 X6.439 Y31.6 E206.31687
G0 F18000 X6.439 Y31.2
G1 F720 X28.559 Y31.2 E207.42044
G0 F18000 X28.559 Y30.8
G1 F720 X6.439 Y30.8 E208.52401
G0 F18000 X6.439 Y30.4
G1 F720 X28.559 Y30.4 E209.62759
G0 F18000 X28.559 Y30
G1 F720 X6.439 Y30 E210.73116
G0 F18000 X6.439 Y29.6
G1 F720 X28.559 Y29.6 E211.83473
G0 F18000 X28.559 Y29.2
G1 F720 X6.439 Y29.2 E212.9383
G0 F18000 X6.439 Y28.8
G1 F720 X28.559 Y28.8 E214.04187
G0 F18000 X28.559 Y28.4
G1 F720 X6.439 Y28.4 E215.14544
G0 F18000 X6.439 Y28
G1 F720 X28.559 Y28 E216.24901
G0 F18000 X28.559 Y27.6
G1 F720 X6.439 Y27.6 E217.35258
G0 F18000 X6.439 Y27.2
G1 F720 X28.559 Y27.2 E218.45616
G0 F18000 X28.559 Y26.8
G1 F720 X6.439 Y26.8 E219.55973
G0 F18000 X6.439 Y26.4
G1 F720 X28.559 Y26.4 E220.6633
G0 F18000 X28.559 Y26
G1 F720 X6.439 Y26 E221.76687
G0 F18000 X6.439 Y25.6
G1 F720 X28.559 Y25.6 E222.87044
G0 F18000 X28.559 Y25.2
G1 F720 X6.439 Y25.2 E223.97401
G0 F18000 X6.439 Y24.8
G1 F720 X28.559 Y24.8 E225.07758
G0 F18000 X28.559 Y24.4
G1 F720 X6.439 Y24.4 E226.18115
G0 F18000 X6.439 Y24
G1 F720 X28.559 Y24 E227.28473
G0 F18000 X28.559 Y23.6
G1 F720 X6.439 Y23.6 E228.3883
G0 F18000 X6.439 Y23.2
G1 F720 X28.559 Y23.2 E229.49187
G0 F18000 X28.559 Y22.8
G1 F720 X6.439 Y22.8 E230.59544
G0 F18000 X6.439 Y22.4
G1 F720 X28.559 Y22.4 E231.69901
G0 F18000 X28.559 Y22
G1 F720 X6.439 Y22 E232.80258
G0 F18000 X6.439 Y21.6
G1 F720 X28.559 Y21.6 E233.90615
G0 F18000 X28.559 Y21.2
G1 F720 X6.439 Y21.2 E235.00972
G0 F18000 X6.439 Y20.8
G1 F720 X28.559 Y20.8 E236.1133
G0 F18000 X28.559 Y20.4
G1 F720 X6.439 Y20.4 E237.21687
G0 F18000 X6.439 Y20
G1 F720 X28.559 Y20 E238.32044
G0 F18000 X28.559 Y19.6
G1 F720 X6.439 Y19.6 E239.42401
G0 F18000 X6.439 Y19.2
G1 F720 X28.559 Y19.2 E240.52758
G0 F18000 X28.559 Y18.8
G1 F720 X6.439 Y18.8 E241.63115
G0 F18000 X6.439 Y18.4
G1 F720 X28.559 Y18.4 E242.73472
G0 F18000 X28.559 Y18
G1 F720 X6.439 Y18 E243.83829
G0 F18000 X6.439 Y17.6
G1 F720 X28.559 Y17.6 E244.94187
G0 F18000 X28.559 Y17.2
G1 F720 X6.439 Y17.2 E246.04544
G0 F18000 X6.439 Y16.8
G1 F720 X28.559 Y16.8 E247.14901
G0 F18000 X28.559 Y16.4
G1 F720 X6.439 Y16.4 E248.25258
G0 F18000 X6.439 Y16
G1 F720 X28.559 Y15.999 E249.35615
G0 F18000 X28.559 Y15.599
G1 F720 X6.439 Y15.6 E250.45972
G0 F18000 X6.439 Y15.2
G1 F720 X28.559 Y15.199 E251.56329
G0 F18000 X28.559 Y14.799
G1 F720 X6.439 Y14.8 E252.66687
G0 F18000 X6.439 Y14.4
G1 F720 X28.559 Y14.399 E253.77044
G0 F18000 X28.559 Y13.999
G1 F720 X6.439 Y14 E254.87401
G0 F18000 X6.439 Y13.6
G1 F720 X28.559 Y13.599 E255.97758
G0 F18000 X28.559 Y13.199
G1 F720 X6.439 Y13.2 E257.08115
G0 F18000 X6.439 Y12.8
G1 F720 X28.559 Y12.799 E258.18472
G0 F18000 X28.559 Y12.399
G1 F720 X6.439 Y12.4 E259.28829
G0 F18000 X6.439 Y12
G1 F720 X28.559 Y11.999 E260.39186
G0 F18000 X28.559 Y11.599
G1 F720 X6.439 Y11.6 E261.49544
G0 F18000 X6.439 Y11.2
G1 F720 X28.559 Y11.199 E262.59901
G0 F18000 X28.559 Y10.799
G1 F720 X6.439 Y10.8 E263.70258
G0 F18000 X6.439 Y10.4
G1 F720 X28.559 Y10.399 E264.80615
G0 F18000 X28.559 Y9.999
G1 F720 X6.439 Y10 E265.90972
G0 F18000 X6.439 Y9.6
G1 F720 X28.559 Y9.599 E267.01329
G0 F18000 X28.559 Y9.199
G1 F720 X6.439 Y9.2 E268.11686
G0 F18000 X6.439 Y8.8
G1 F720 X28.559 Y8.799 E269.22043
G0 F18000 X28.559 Y8.399
G1 F720 X6.439 Y8.4 E270.32401
G0 F18000 X6.439 Y8
G1 F720 X28.559 Y7.999 E271.42758
G0 F18000 X28.559 Y7.599
G1 F720 X6.439 Y7.6 E272.53115
G0 F18000 X6.439 Y7.2
G1 F720 X28.559 Y7.199 E273.63472
G0 F18000 X28.559 Y6.799
G1 F720 X6.439 Y6.8 E274.73829
G0 F18000 X6.439 Y6.4
G1 F720 X28.559 Y6.399 E275.84186
G0 F18000 X28.559 Y5.999
G1 F720 X6.439 Y6 E276.94543
G0 F18000 X6.439 Y5.6
G1 F720 X28.559 Y5.599 E278.049
G0 F18000 X28.559 Y5.199
G1 F720 X6.439 Y5.2 E279.15258
G0 F18000 X6.439 Y4.8
G1 F720 X28.559 Y4.799 E280.25615
G0 F18000 X28.559 Y4.399
G1 F720 X6.439 Y4.4 E281.35972
G0 F18000 X6.439 Y3.999
G1 F720 X28.559 Y3.999 E282.46329
G0 F18000 X28.559 Y3.599
G1 F720 X6.439 Y3.599 E283.56686
G0 F18000 X6.439 Y3.199
G1 F720 X28.559 Y3.199 E284.67043
G0 F18000 X28.559 Y2.799
G1 F720 X6.439 Y2.799 E285.774
G0 F18000 X6.439 Y2.399
G1 F720 X28.559 Y2.399 E286.87757
G0 F18000 X28.559 Y1.999
G1 F720 X6.439 Y1.999 E287.98115
G0 F18000 X6.439 Y1.599
G1 F720 X28.559 Y1.599 E289.08472
G0 F18000 X28.559 Y1.199
G1 F720 X6.439 Y1.199 E290.18829
G0 F18000 X6.439 Y0.799
G1 F720 X28.559 Y0.799 E291.29186
G0 F18000 X28.559 Y0.399
G1 F720 X6.439 Y0.399 E292.39543
G0 F18000 X6.44 Y0
G1 F720 X28.56 Y0 E293.499
G0 F18000 X28.56 Y-0.4
G1 F720 X6.44 Y-0.4 E294.60257
G0 F18000 X6.44 Y-0.8
G1 F720 X28.56 Y-0.8 E295.70615
G0 F18000 X28.56 Y-1.2
G1 F720 X6.44 Y-1.2 E296.80972
G0 F18000 X6.44 Y-1.6
G1 F720 X28.56 Y-1.6 E297.91329
G0 F18000 X28.56 Y-2
G1 F720 X6.44 Y-2 E299.01686
G0 F18000 X6.44 Y-2.4
G1 F720 X28.56 Y-2.4 E300.12043
G0 F18000 X28.56 Y-2.8
G1 F720 X6.44 Y-2.8 E301.224
G0 F18000 X6.44 Y-3.2
G1 F720 X28.56 Y-3.2 E302.32757
G0 F18000 X28.56 Y-3.6
G1 F720 X6.44 Y-3.6 E303.43114
G0 F18000 X6.44 Y-4
G1 F720 X28.56 Y-4 E304.53472
G0 F18000 X28.56 Y-4.4
G1 F720 X6.44 Y-4.4 E305.63829
G0 F18000 X6.44 Y-4.8
G1 F720 X28.56 Y-4.8 E306.74186
G0 F18000 X28.56 Y-5.2
G1 F720 X6.44 Y-5.2 E307.84543
G0 F18000 X6.44 Y-5.6
G1 F720 X28.56 Y-5.6 E308.949
G0 F18000 X28.56 Y-6
G1 F720 X6.44 Y-6 E310.05257
G0 F18000 X6.44 Y-6.4
G1 F720 X28.56 Y-6.4 E311.15614
G0 F18000 X28.56 Y-6.8
G1 F720 X6.44 Y-6.8 E312.25971
G0 F18000 X6.44 Y-7.2
G1 F720 X28.56 Y-7.2 E313.36329
G0 F18000 X28.56 Y-7.6
G1 F720 X6.439 Y-7.6 E314.46691
G0 F18000 X6.439 Y-8
G1 F720 X28.56 Y-8 E315.57053
G0 F18000 X28.56 Y-8.4
G1 F720 X6.439 Y-8.4 E316.67415
G0 F18000 X6.439 Y-8.8
G1 F720 X28.56 Y-8.8 E317.77777
G0 F18000 X28.56 Y-9.2
G1 F720 X6.439 Y-9.2 E318.88139
G0 F18000 X6.439 Y-9.6
G1 F720 X28.56 Y-9.6 E319.98501
G0 F18000 X28.56 Y-10
G1 F720 X6.439 Y-10 E321.08863
G0 F18000 X6.439 Y-10.4
G1 F720 X28.56 Y-10.4 E322.19226
G0 F18000 X28.56 Y-10.8
G1 F720 X6.439 Y-10.8 E323.29588
G0 F18000 X6.439 Y-11.2
G1 F720 X28.56 Y-11.2 E324.3995
G0 F18000 X28.56 Y-11.6
G1 F720 X6.439 Y-11.6 E325.50312
G0 F18000 X6.439 Y-12
G1 F720 X28.56 Y-12 E326.60674
G0 F18000 X28.56 Y-12.4
G1 F720 X6.439 Y-12.4 E327.71036
G0 F18000 X6.439 Y-12.8
G1 F720 X28.56 Y-12.8 E328.81398
G0 F18000 X28.56 Y-13.2
G1 F720 X6.439 Y-13.2 E329.9176
G0 F18000 X6.439 Y-13.6
G1 F720 X28.56 Y-13.6 E331.02122
G0 F18000 X28.56 Y-14
G1 F720 X6.439 Y-14 E332.12485
G0 F18000 X6.439 Y-14.4
G1 F720 X28.56 Y-14.4 E333.22847
G0 F18000 X28.56 Y-14.8
G1 F720 X6.439 Y-14.8 E334.33209
G0 F18000 X6.439 Y-15.2
G1 F720 X28.56 Y-15.2 E335.43571
G0 F18000 X28.56 Y-15.6
G1 F720 X6.439 Y-15.6 E336.53933
G0 F18000 X6.439 Y-16
G1 F720 X28.56 Y-16 E337.64295
G0 F18000 X28.56 Y-16.4
G1 F720 X6.439 Y-16.4 E338.74657
G0 F18000 X6.439 Y-16.8
G1 F720 X28.56 Y-16.8 E339.85019
G0 F18000 X28.56 Y-17.2
G1 F720 X6.439 Y-17.2 E340.95381
G0 F18000 X6.439 Y-17.6
G1 F720 X28.56 Y-17.6 E342.05744
G0 F18000 X28.56 Y-18
G1 F720 X6.439 Y-18 E343.16106
G0 F18000 X6.439 Y-18.4
G1 F720 X28.56 Y-18.4 E344.26468
G0 F18000 X28.56 Y-18.8
G1 F720 X6.439 Y-18.8 E345.3683
G0 F18000 X6.439 Y-19.2
G1 F720 X28.56 Y-19.2 E346.47192
G0 F18000 X28.56 Y-19.6
G1 F720 X6.439 Y-19.6 E347.57554
G0 F18000 X6.439 Y-20
G1 F720 X28.56 Y-20 E348.67916
G0 F18000 X28.56 Y-20.4
G1 F720 X6.439 Y-20.4 E349.78278
G0 F18000 X6.439 Y-20.8
G1 F720 X28.56 Y-20.8 E350.88641
G0 F18000 X28.56 Y-21.2
G1 F720 X6.439 Y-21.2 E351.99003
G0 F18000 X6.439 Y-21.6
G1 F720 X28.56 Y-21.6 E353.09365
G0 F18000 X28.56 Y-22
G1 F720 X6.439 Y-22 E354.19727
G0 F18000 X6.439 Y-22.4
G1 F720 X28.56 Y-22.4 E355.30089
G0 F18000 X28.56 Y-22.8
G1 F720 X6.439 Y-22.8 E356.40451
G0 F18000 X6.439 Y-23.2
G1 F720 X28.56 Y-23.2 E357.50813
G0 F18000 X28.56 Y-23.6
G1 F720 X6.439 Y-23.6 E358.61175
G0 F18000 X6.439 Y-24
G1 F720 X28.56 Y-24 E359.71537
G0 F18000 X28.56 Y-24.4
G1 F720 X6.439 Y-24.4 E360.819
G0 F18000 X6.439 Y-24.8
G1 F720 X28.56 Y-24.8 E361.92262
G0 F18000 X28.56 Y-25.2
G1 F720 X6.439 Y-25.2 E363.02624
G0 F18000 X6.439 Y-25.6
G1 F720 X28.56 Y-25.6 E364.12986
G0 F18000 X28.56 Y-26
G1 F720 X6.439 Y-26 E365.23348
G0 F18000 X6.439 Y-26.4
G1 F720 X28.56 Y-26.4 E366.3371
G0 F18000 X28.56 Y-26.8
G1 F720 X6.439 Y-26.8 E367.44072
G0 F18000 X6.439 Y-27.2
G1 F720 X28.56 Y-27.2 E368.54434
G0 F18000 X28.56 Y-27.6
G1 F720 X6.439 Y-27.6 E369.64797
G0 F18000 X6.439 Y-28
G1 F720 X28.56 Y-28 E370.75159
G0 F18000 X28.56 Y-28.4
G1 F720 X6.439 Y-28.4 E371.85521
G0 F18000 X6.439 Y-28.8
G1 F720 X28.56 Y-28.8 E372.95883
G0 F18000 X28.56 Y-29.2
G1 F720 X6.439 Y-29.2 E374.06245
G0 F18000 X6.439 Y-29.6
G1 F720 X28.56 Y-29.6 E375.16607
G0 F18000 X28.559 Y-30
G1 F720 X6.439 Y-30 E376.26964
G0 F18000 X6.439 Y-30.4
G1 F720 X28.559 Y-30.4 E377.37321
G0 F18000 X28.559 Y-30.8
G1 F720 X6.439 Y-30.8 E378.47679
G0 F18000 X6.439 Y-31.2
G1 F720 X28.559 Y-31.2 E379.58036
G0 F18000 X28.559 Y-31.6
G1 F720 X6.439 Y-31.6 E380.68393
G0 F18000 X6.439 Y-32
G1 F720 X28.559 Y-32 E381.7875
G0 F18000 X28.559 Y-32.4
G1 F720 X6.439 Y-32.4 E382.89107
G0 F18000 X6.439 Y-32.8
G1 F720 X28.559 Y-32.8 E383.99464
G0 F18000 X28.559 Y-33.2
G1 F720 X6.439 Y-33.2 E385.09821
G0 F18000 X6.439 Y-33.6
G1 F720 X28.559 Y-33.6 E386.20178
G0 F18000 X28.559 Y-34
G1 F720 X6.439 Y-34 E387.30536
G0 F18000 X6.439 Y-34.4
G1 F720 X28.559 Y-34.4 E388.40893
G0 F18000 X28.559 Y-34.8
G1 F720 X6.439 Y-34.8 E389.5125
G0 F18000 X6.439 Y-35.2
G1 F720 X28.559 Y-35.2 E390.61607
G0 F18000 X28.559 Y-35.6
G1 F720 X6.439 Y-35.6 E391.71964
G0 F18000 X6.439 Y-36
G1 F720 X28.559 Y-36 E392.82321
G0 F18000 X28.559 Y-36.4
G1 F720 X6.439 Y-36.4 E393.92678
G0 F18000 X6.439 Y-36.8
G1 F720 X28.559 Y-36.8 E395.03035
G0 F18000 X28.559 Y-37.2
G1 F720 X6.439 Y-37.2 E396.13393
G0 F18000 X6.439 Y-37.6
G1 F720 X28.559 Y-37.6 E397.2375
G0 F18000 X28.559 Y-38
G1 F720 X6.439 Y-38 E398.34107
G0 F18000 X6.439 Y-38.4
G1 F720 X28.559 Y-38.4 E399.44464
G0 F18000 X28.559 Y-38.8
G1 F720 X6.439 Y-38.8 E400.54821
G0 F18000 X6.439 Y-39.2
G1 F720 X28.559 Y-39.2 E401.65178
G0 F18000 X28.559 Y-39.6
G1 F720 X6.439 Y-39.6 E402.75535
G0 F18000 X6.439 Y-40
G1 F720 X28.559 Y-40 E403.85892
G0 F18000 X28.559 Y-40.4
G1 F720 X6.439 Y-40.4 E404.9625
G0 F18000 X6.439 Y-40.8
G1 F720 X28.559 Y-40.8 E406.06607
G0 F18000 X28.559 Y-41.2
G1 F720 X6.439 Y-41.2 E407.16964
G0 F18000 X6.439 Y-41.6
G1 F720 X28.559 Y-41.6 E408.27321
G0 F18000 X28.559 Y-42
G1 F720 X6.439 Y-42 E409.37678
G0 F18000 X6.439 Y-42.4
G1 F720 X28.559 Y-42.4 E410.48035
G0 F18000 X28.559 Y-42.8
G1 F720 X6.439 Y-42.8 E411.58392
G0 F18000 X6.439 Y-43.2
G1 F720 X28.559 Y-43.2 E412.68749
G0 F18000 X28.559 Y-43.6
G1 F720 X6.439 Y-43.6 E413.79107
G0 F18000 X6.439 Y-44
G1 F720 X28.559 Y-44 E414.89464
G0 F18000 X28.559 Y-44.4
G1 F720 X6.439 Y-44.4 E415.99821
G0 F18000 X6.439 Y-44.8
G1 F720 X28.559 Y-44.8 E417.10178
G0 F18000 X28.559 Y-45.2
G1 F720 X6.439 Y-45.2 E418.20535
G0 F18000 X6.439 Y-45.6
G1 F720 X28.559 Y-45.6 E419.30892
G0 F18000 X28.559 Y-46
G1 F720 X6.439 Y-46 E420.41249
G0 F18000 X6.439 Y-46.4
G1 F720 X28.559 Y-46.4 E421.51607
G0 F18000 X28.559 Y-46.8
G1 F720 X6.439 Y-46.8 E422.61964
G0 F18000 X6.439 Y-47.2
G1 F720 X28.559 Y-47.2 E423.72321
G0 F18000 X28.559 Y-47.6
G1 F720 X6.439 Y-47.6 E424.82678
G0 F18000 X6.439 Y-48
G1 F720 X28.559 Y-48 E425.93035
G0 F18000 X28.559 Y-48.4
G1 F720 X6.439 Y-48.4 E427.03392
G0 F18000 X6.439 Y-48.8
G1 F720 X28.559 Y-48.8 E428.13749
G0 F18000 X28.559 Y-48.8 Z0.6
; Layer Change GCode
; LAYER:1
G1 F6600 E421.33749
G1 Z0.9
G0 F18000 X-29.249 Y21.54 Z0.8
G0 X-28.749 Y21.04
; TYPE:WALL-INNER
G1 Z0.5
G1 F6600 E428.23749
G1 F2400 X-28.749 Y21.04 E428.23749
G1 X-28.749 Y-29.039 E430.31954
G1 X-4.478 Y-29.022 E431.32861
G1 X-4.458 Y-28.936 E431.33228
G1 X-4.458 Y20.937 E433.40576
G1 X-4.48 Y21.025 E433.40953
G1 X-28.749 Y21.04 E434.41852
G0 F18000 X-29.249 Y21.54
; TYPE:WALL-OUTER
G1 F2100 X-29.249 Y21.54 E434.41852
G1 X-29.249 Y-29.539 E436.54213
G1 X-4.431 Y-29.529 E437.57395
G1 X-4.262 Y-29.487 E437.58119
G1 X-4.092 Y-29.357 E437.59008
G1 X-3.991 Y-29.175 E437.59874
G1 X-3.958 Y-28.976 E437.60712
G1 X-3.958 Y20.977 E439.68393
G1 X-3.992 Y21.179 E439.69244
G1 X-4.074 Y21.339 E439.69992
G1 X-4.246 Y21.48 E439.70917
G1 X-4.431 Y21.53 E439.71713
G1 X-29.249 Y21.54 E440.74895
G0 F18000 X-28.899 Y21.28
G0 X-23.044 Y15.545
G0 X-23.044 Y15.545
; TYPE:WALL-INNER
G1 F2400 X-23.044 Y15.545 E440.74895
G1 X-21.127 Y17.016 E440.84941
G1 X-18.894 Y17.941 E440.94989
G1 X-16.499 Y18.256 E441.05032
G1 X-14.103 Y17.941 E441.15079
G1 X-11.871 Y17.016 E441.25124
G1 X-9.953 Y15.545 E441.35174
G1 X-8.482 Y13.628 E441.4522
G1 X-7.557 Y11.395 E441.55268
G1 X-7.243 Y9 E441.65311
G1 X-7.557 Y6.604 E441.75357
G1 X-8.482 Y4.372 E441.85402
G1 X-9.953 Y2.454 E441.95452
G1 X-11.871 Y0.983 E442.05501
G1 X-14.103 Y0.058 E442.15546
G1 X-16.499 Y-0.257 E442.25593
G1 X-18.894 Y0.058 E442.35636
G1 X-21.127 Y0.983 E442.45685
G1 X-23.044 Y2.454 E442.55731
G1 X-24.515 Y4.372 E442.6578
G1 X-25.44 Y6.604 E442.75825
G1 X-25.755 Y9 E442.85872
G1 X-25.44 Y11.395 E442.95915
G1 X-24.515 Y13.628 E443.05964
G1 X-23.044 Y15.545 E443.1601
G0 F18000 X-22.389 Y15.801
G0 X-21.1 Y16.971
G0 X-18.88 Y17.89
G0 X-16.743 Y18.019
G0 X-16.545 Y18.098
G0 X-16.545 Y18.098
G0 X-16.499 Y17.752
; TYPE:WALL-OUTER
G1 F2100 X-16.499 Y17.752 E443.1601
G1 X-14.234 Y17.454 E443.25508
G1 X-12.123 Y16.579 E443.35008
G1 X-10.31 Y15.188 E443.44509
G1 X-8.919 Y13.376 E443.54006
G1 X-8.044 Y11.264 E443.6351
G1 X-7.747 Y9 E443.73004
G1 X-8.044 Y6.735 E443.82501
G1 X-8.919 Y4.624 E443.92002
G1 X-10.31 Y2.811 E444.01502
G1 X-12.123 Y1.42 E444.11003
G1 X-14.234 Y0.545 E444.20503
G1 X-16.499 Y0.247 E444.30001
G1 X-18.763 Y0.545 E444.39495
G1 X-20.875 Y1.42 E444.48999
G1 X-22.687 Y2.811 E444.58497
G1 X-24.078 Y4.624 E444.67997
G1 X-24.953 Y6.735 E444.77498
G1 X-25.251 Y9 E444.86996
G1 X-24.953 Y11.264 E444.96489
G1 X-24.078 Y13.376 E445.05994
G1 X-22.687 Y15.188 E445.15491
G1 X-20.875 Y16.579 E445.24988
G1 X-18.763 Y17.454 E445.34493
G1 X-16.499 Y17.752 E445.43986
G1 F6600 E438.63986
G1 Z0.8
G0 F18000 X-16.545 Y18.098
G0 X-16.544 Y18.209
G0 X-14.117 Y17.89
G0 X-11.898 Y16.971
G0 X-9.99 Y15.508
G0 X-8.527 Y13.601
G0 X-7.608 Y11.38
G0 X-7.295 Y9
G0 X-7.608 Y6.619
G0 X-8.527 Y4.399
G0 X-9.99 Y2.491
G0 X-11.898 Y1.028
G0 X-14.117 Y0.109
G0 X-16.511 Y-0.206
G0 X-16.499 Y-7.743
G0 X-16.499 Y-7.743
; TYPE:WALL-INNER
G1 Z0.5
G1 F6600 E445.53986
G1 F2400 X-16.499 Y-7.743 E445.53986
G1 X-14.103 Y-8.057 E445.64033
G1 X-11.871 Y-8.982 E445.74078
G1 X-9.953 Y-10.453 E445.84127
G1 X-8.482 Y-12.371 E445.94176
G1 X-7.557 Y-14.603 E446.04221
G1 X-7.243 Y-16.999 E446.14268
G1 X-7.557 Y-19.394 E446.2431
G1 X-8.482 Y-21.627 E446.34359
G1 X-9.953 Y-23.544 E446.44405
G1 X-11.871 Y-25.015 E446.54454
G1 X-14.103 Y-25.94 E446.64499
G1 X-16.499 Y-26.255 E446.74547
G1 X-18.894 Y-25.94 E446.8459
G1 X-21.127 Y-25.015 E446.94638
G1 X-23.044 Y-23.544 E447.04684
G1 X-24.515 Y-21.627 E447.1473
G1 X-25.44 Y-19.394 E447.24779
G1 X-25.755 Y-16.999 E447.34822
G1 X-25.44 Y-14.603 E447.44869
G1 X-24.515 Y-12.371 E447.54914
G1 X-23.044 Y-10.453 E447.64963
G1 X-21.127 Y-8.982 E447.75009
G1 X-18.894 Y-8.057 E447.85058
G1 X-16.499 Y-7.743 E447.95101
G0 F18000 X-16.499 Y-8.247
; TYPE:WALL-OUTER
G1 F2100 X-16.499 Y-8.247 E447.95101
G1 X-14.234 Y-8.544 E448.04598
G1 X-12.123 Y-9.419 E448.14099
G1 X-10.31 Y-10.81 E448.23599
G1 X-8.919 Y-12.623 E448.331
G1 X-8.044 Y-14.734 E448.426
G1 X-7.747 Y-16.999 E448.52097
G1 X-8.044 Y-19.263 E448.61591
G1 X-8.919 Y-21.375 E448.71095
G1 X-10.31 Y-23.187 E448.80592
G1 X-12.123 Y-24.578 E448.90093
G1 X-14.234 Y-25.453 E448.99593
G1 X-16.499 Y-25.751 E449.09091
G1 X-18.763 Y-25.453 E449.18585
G1 X-20.875 Y-24.578 E449.2809
G1 X-22.687 Y-23.187 E449.37587
G1 X-24.078 Y-21.375 E449.47084
G1 X-24.953 Y-19.263 E449.56588
G1 X-25.251 Y-16.999 E449.66082
G1 X-24.953 Y-14.734 E449.7558
G1 X-24.078 Y-12.623 E449.85081
G1 X-22.687 Y-10.81 E449.94581
G1 X-20.875 Y-9.419 E450.04078
G1 X-18.763 Y-8.544 E450.13583
G1 X-16.499 Y-8.247 E450.23076
G0 F18000 X-16.5 Y-7.298
; TYPE:FILL
G1 F2400 X-16.5 Y-0.7 E450.50507
G0 F18000 X-16 Y-0.634
G1 F2400 X-16 Y-7.363 E450.78483
G0 F18000 X-15.5 Y-7.429
G1 F2400 X-15.5 Y-0.569 E451.07004
G0 F18000 X-15 Y-0.503
G1 F2400 X-15 Y-7.494 E451.36069
G0 F18000 X-14.5 Y-7.56
G1 F2400 X-14.5 Y-0.437 E451.65683
G0 F18000 X-14 Y-0.372
G1 F2400 X-14 Y-7.625 E451.95838
G0 F18000 X-13.5 Y-7.829
G1 F2400 X-13.5 Y-0.168 E452.27688
G0 F18000 X-13 Y0.038
G1 F2400 X-13 Y-8.036 E452.61256
G0 F18000 X-12.5 Y-8.244
G1 F2400 X-12.5 Y0.245 E452.96549
G0 F18000 X-12 Y0.452
G1 F2400 X-12 Y-8.451 E453.33564
G0 F18000 X-11.5 Y-8.711
G1 F2400 X-11.5 Y0.713 E453.72744
G0 F18000 X-11 Y1.096
G1 F2400 X-11 Y-9.095 E454.15113
G0 F18000 X-10.5 Y-9.478
G1 F2400 X-10.5 Y1.479 E454.60667
G0 F18000 X-10 Y1.862
G1 F2400 X-10 Y-9.861 E455.09406
G0 F18000 X-9.5 Y-10.318
G1 F2400 X-9.5 Y2.32 E455.61948
G0 F18000 X-9 Y2.973
G1 F2400 X-9 Y-10.971 E456.19921
G0 F18000 X-8.5 Y-11.623
G1 F2400 X-8.5 Y3.626 E456.83319
G0 F18000 X-7.999 Y4.385
G1 F2400 X-8 Y-12.381 E457.53024
G0 F18000 X-7.5 Y-13.588
G1 F2400 X-7.499 Y5.591 E458.32761
G0 F18000 X-6.999 Y7.466
G0 X-6.999 Y7.466
G1 F2400 X-7 Y-15.458 E459.28068
G0 F18000 X-7 Y-18.539
G0 X-7 Y-18.539
G1 F2400 X-7 Y-28.584 E459.6983
G0 F18000 X-7.5 Y-28.584
G1 F2400 X-7.5 Y-20.409 E460.03818
G0 F18000 X-8 Y-21.616
G1 F2400 X-8 Y-28.584 E460.32787
G0 F18000 X-8.5 Y-28.585
G1 F2400 X-8.5 Y-22.373 E460.58614
G0 F18000 X-9 Y-23.026
G1 F2400 X-9 Y-28.585 E460.81725
G0 F18000 X-9.5 Y-28.585
G1 F2400 X-9.5 Y-23.678 E461.02126
G0 F18000 X-10 Y-24.135
G1 F2400 X-10 Y-28.586 E461.20631
G0 F18000 X-10.5 Y-28.586
G1 F2400 X-10.5 Y-24.518 E461.37544
G0 F18000 X-11 Y-24.901
G1 F2400 X-11 Y-28.586 E461.52865
G0 F18000 X-11.5 Y-28.587
G1 F2400 X-11.5 Y-25.285 E461.66593
G0 F18000 X-12 Y-25.545
G1 F2400 X-12 Y-28.587 E461.7924
G0 F18000 X-12.5 Y-28.588
G1 F2400 X-12.5 Y-25.753 E461.91027
G0 F18000 X-13 Y-25.96
G1 F2400 X-13 Y-28.588 E462.01952
G0 F18000 X-13.5 Y-28.588
G1 F2400 X-13.5 Y-26.167 E462.12018
G0 F18000 X-14 Y-26.371
G1 F2400 X-14 Y-28.589 E462.21239
G0 F18000 X-14.5 Y-28.589
G1 F2400 X-14.5 Y-26.436 E462.3019
G0 F18000 X-15 Y-26.501
G1 F2400 X-15 Y-28.588 E462.38867
G0 F18000 X-15.5 Y-28.589
G1 F2400 X-15.5 Y-26.567 E462.47274
G0 F18000 X-16 Y-26.633
G1 F2400 X-16 Y-28.589 E462.55406
G0 F18000 X-16.5 Y-28.589
G1 F2400 X-16.5 Y-26.698 E462.63268
G0 F18000 X-17 Y-26.632
G1 F2400 X-17 Y-28.59 E462.71408
G0 F18000 X-17.5 Y-28.59
G1 F2400 X-17.5 Y-26.566 E462.79823
G0 F18000 X-18 Y-26.501
G1 F2400 X-18 Y-28.591 E462.88512
G0 F18000 X-18.5 Y-28.591
G1 F2400 X-18.5 Y-26.435 E462.97476
G0 F18000 X-19 Y-26.369
G1 F2400 X-19 Y-28.591 E463.06714
G0 F18000 X-19.5 Y-28.592
G1 F2400 X-19.5 Y-26.164 E463.16808
G0 F18000 X-20 Y-25.957
G1 F2400 X-20 Y-28.592 E463.27763
G0 F18000 X-20.5 Y-28.592
G1 F2400 X-20.5 Y-25.75 E463.39579
G0 F18000 X-21 Y-25.543
G1 F2400 X-21 Y-28.593 E463.52259
G0 F18000 X-21.5 Y-28.593
G1 F2400 X-21.5 Y-25.28 E463.66033
G0 F18000 X-22 Y-24.897
G1 F2400 X-22 Y-28.593 E463.81399
G0 F18000 X-22.5 Y-28.594
G1 F2400 X-22.5 Y-24.514 E463.98362
G0 F18000 X-23 Y-24.131
G1 F2400 X-23 Y-28.594 E464.16917
G0 F18000 X-23.5 Y-28.595
G1 F2400 X-23.5 Y-23.67 E464.37393
G0 F18000 X-24 Y-23.018
G1 F2400 X-24 Y-28.595 E464.60579
G0 F18000 X-24.5 Y-28.595
G1 F2400 X-24.5 Y-22.366 E464.86476
G0 F18000 X-25 Y-21.603
G1 F2400 X-25 Y-28.596 E465.1555
G0 F18000 X-25.5 Y-28.596
G1 F2400 X-25.5 Y-20.396 E465.49641
G0 F18000 X-26 Y-18.504
G0 X-26 Y-18.504
G1 F2400 X-26 Y-28.596 E465.91599
G0 F18000 X-26.5 Y-28.597
G1 F2400 X-26.499 Y20.598 E467.96128
G0 F18000 X-25.999 Y20.598
G1 F2400 X-26 Y10.513 E468.38057
G0 F18000 X-25.5 Y12.399
G0 X-25.5 Y12.399
G1 F2400 X-25.499 Y20.597 E468.7214
G0 F18000 X-24.999 Y20.597
G1 F2400 X-25 Y13.606 E469.01205
G0 F18000 X-24.5 Y14.368
G1 F2400 X-24.499 Y20.597 E469.27102
G0 F18000 X-23.999 Y20.596
G1 F2400 X-23.999 Y15.02 E469.50285
G0 F18000 X-23.499 Y15.673
G1 F2400 X-23.499 Y20.596 E469.70752
G0 F18000 X-22.999 Y20.596
G1 F2400 X-22.999 Y16.132 E469.89311
G0 F18000 X-22.499 Y16.516
G1 F2400 X-22.499 Y20.596 E470.06274
G0 F18000 X-21.999 Y20.595
G1 F2400 X-21.999 Y16.899 E470.2164
G0 F18000 X-21.499 Y17.282
G1 F2400 X-21.499 Y20.595 E470.35414
G0 F18000 X-20.999 Y20.595
G1 F2400 X-20.999 Y17.544 E470.48099
G0 F18000 X-20.499 Y17.751
G1 F2400 X-20.499 Y20.594 E470.59918
G0 F18000 X-19.999 Y20.594
G1 F2400 X-19.999 Y17.958 E470.70878
G0 F18000 X-19.499 Y18.166
G1 F2400 X-19.499 Y20.594 E470.80972
G0 F18000 X-18.999 Y20.593
G1 F2400 X-18.999 Y18.37 E470.90214
G0 F18000 X-18.499 Y18.436
G1 F2400 X-18.499 Y20.593 E470.99182
G0 F18000 X-17.999 Y20.593
G1 F2400 X-17.999 Y18.502 E471.07875
G0 F18000 X-17.499 Y18.567
G1 F2400 X-17.499 Y20.593 E471.16299
G0 F18000 X-16.999 Y20.592
G1 F2400 X-16.999 Y18.633 E471.24443
G0 F18000 X-16.499 Y18.699
G1 F2400 X-16.499 Y20.592 E471.32313
G0 F18000 X-15.999 Y20.592
G1 F2400 X-15.999 Y18.634 E471.40454
G0 F18000 X-15.499 Y18.568
G1 F2400 X-15.499 Y20.591 E471.48864
G0 F18000 X-14.999 Y20.591
G1 F2400 X-14.999 Y18.503 E471.57545
G0 F18000 X-14.499 Y18.437
G1 F2400 X-14.499 Y20.591 E471.66501
G0 F18000 X-13.999 Y20.59
G1 F2400 X-13.999 Y18.372 E471.75722
G0 F18000 X-13.499 Y18.168
G1 F2400 X-13.499 Y20.59 E471.85791
G0 F18000 X-12.999 Y20.59
G1 F2400 X-12.999 Y17.96 E471.96726
G0 F18000 X-12.499 Y17.753
G1 F2400 X-12.499 Y20.59 E472.08521
G0 F18000 X-11.999 Y20.589
G1 F2400 X-11.999 Y17.546 E472.21172
G0 F18000 X-11.499 Y17.285
G1 F2400 X-11.499 Y20.589 E472.34908
G0 F18000 X-10.999 Y20.589
G1 F2400 X-10.999 Y16.901 E472.50241
G0 F18000 X-10.499 Y16.518
G1 F2400 X-10.499 Y20.588 E472.67162
G0 F18000 X-9.999 Y20.588
G1 F2400 X-9.999 Y16.135 E472.85676
G0 F18000 X-9.499 Y15.677
G1 F2400 X-9.499 Y20.588 E473.06093
G0 F18000 X-8.999 Y20.587
G1 F2400 X-8.999 Y15.024 E473.29222
G0 F18000 X-8.499 Y14.372
G1 F2400 X-8.499 Y20.587 E473.55061
G0 F18000 X-7.999 Y20.587
G1 F2400 X-7.999 Y13.613 E473.84055
G0 F18000 X-7.499 Y12.407
G1 F2400 X-7.499 Y20.587 E474.18064
G0 F18000 X-6.999 Y20.586
G1 F2400 X-6.999 Y10.533 E474.59859
G0 F18000 X-6.499 Y20.586
G0 X-6.499 Y20.586
G1 F2400 X-6.5 Y-28.583 E476.6428
G0 F18000 X-6 Y-28.583
G1 F2400 X-5.999 Y20.586 E478.68701
G0 F18000 X-5.499 Y20.585
G1 F2400 X-5.5 Y-28.582 E480.73114
G0 F18000 X-5 Y-28.582
G1 F2400 X-4.999 Y20.585 E482.77526
G0 F18000 X-4.337 Y21.12
G1 F2400 X-4.306 Y21.195 E482.77809
G1 X-4.348 Y21.189 E482.77849
G0 F18000 X-26.999 Y20.598
G0 X-26.999 Y20.598
G1 F2400 X-27 Y-28.597 E484.82378
G0 F18000 X-27.5 Y-28.597
G1 F2400 X-27.499 Y20.599 E486.86911
G0 F18000 X-27.999 Y20.599
G1 F2400 X-28 Y-28.598 E488.91449
G0 F18000 X-26 Y-15.487
G0 X-26 Y-15.487
G1 F2400 X-26 Y7.485 E489.86955
G0 F18000 X-25.5 Y5.598
G0 X-25.5 Y5.598
G1 F2400 X-25.5 Y-13.597 E490.66759
G0 F18000 X-25 Y-12.391
G1 F2400 X-25 Y4.392 E491.36534
G0 F18000 X-24.5 Y3.63
G1 F2400 X-24.5 Y-11.629 E491.99974
G0 F18000 X-24 Y-10.976
G1 F2400 X-24 Y2.977 E492.57984
G0 F18000 X-23.5 Y2.324
G1 F2400 X-23.5 Y-10.323 E493.10564
G0 F18000 X-23 Y-9.864
G1 F2400 X-23 Y1.865 E493.59327
G0 F18000 X-22.5 Y1.481
G1 F2400 X-22.5 Y-9.48 E494.04898
G0 F18000 X-22 Y-9.097
G1 F2400 X-22 Y1.098 E494.47284
G0 F18000 X-21.5 Y0.715
G1 F2400 X-21.5 Y-8.714 E494.86485
G0 F18000 X-21 Y-8.452
G1 F2400 X-21 Y0.453 E495.23508
G0 F18000 X-20.5 Y0.246
G1 F2400 X-20.5 Y-8.245 E495.58809
G0 F18000 X-20 Y-8.038
G1 F2400 X-20 Y0.039 E495.9239
G0 F18000 X-19.5 Y-0.167
G1 F2400 X-19.5 Y-7.831 E496.24253
G0 F18000 X-19 Y-7.626
G1 F2400 X-19 Y-0.371 E496.54416
G0 F18000 X-18.5 Y-0.437
G1 F2400 X-18.5 Y-7.56 E496.8403
G0 F18000 X-18 Y-7.495
G1 F2400 X-18 Y-0.503 E497.13099
G0 F18000 X-17.5 Y-0.568
G1 F2400 X-17.5 Y-7.429 E497.41624
G0 F18000 X-17 Y-7.364
G1 F2400 X-17 Y-0.634 E497.69604
G1 F6600 E490.89604
G1 Z0.8
G0 F18000 X-13.525 Y-8.417
G0 X-11.898 Y-9.027
G0 X-9.99 Y-10.49
G0 X-8.527 Y-12.398
G0 X-7.608 Y-14.618
G0 X-7.295 Y-16.999
G0 X-7.608 Y-19.379
G0 X-8.13 Y-20.504
G0 X-4.349 Y-28.975
G0 X-4.186 Y-29.341
G0 X-4.291 Y-29.108
G0 X-4.291 Y-29.108
G1 Z0.5
G1 F6600 E497.79604
G1 F2400 X-4.301 Y-29.161 E497.79794
G1 X-4.33 Y-29.223 E497.79858
G0 F18000 X5.75 Y49.75
G0 X6.25 Y49.25
; TYPE:WALL-INNER
G1 F2400 X6.25 Y49.25 E497.79858
G1 X6.25 Y-49.249 E501.89369
G1 X28.75 Y-49.249 E502.82913
G1 X28.75 Y49.25 E506.92424
G1 X6.25 Y49.25 E507.85968
G0 F18000 X5.75 Y49.75
; TYPE:WALL-OUTER
G1 F2100 X5.75 Y49.75 E507.85968
G1 X5.75 Y-49.749 E511.99637
G1 X29.25 Y-49.749 E512.97339
G1 X29.25 Y49.75 E517.11008
G1 X5.75 Y49.75 E518.08709
G0 F18000 X6.01 Y49.4
G0 X7 Y48.81
G0 X7 Y48.81
; TYPE:FILL
G1 F2400 X6.999 Y-48.809 E522.14562
G0 F18000 X7.499 Y-48.809
G1 F2400 X7.5 Y48.81 E526.20414
G0 F18000 X8 Y48.81
G1 F2400 X7.999 Y-48.809 E530.26267
G0 F18000 X8.499 Y-48.809
G1 F2400 X8.5 Y48.81 E534.3212
G0 F18000 X9 Y48.81
G1 F2400 X8.999 Y-48.809 E538.37972
G0 F18000 X9.499 Y-48.809
G1 F2400 X9.5 Y48.81 E542.43825
G0 F18000 X10 Y48.81
G1 F2400 X9.999 Y-48.809 E546.49678
G0 F18000 X10.499 Y-48.809
G1 F2400 X10.5 Y48.81 E550.5553
G0 F18000 X11 Y48.81
G1 F2400 X10.999 Y-48.809 E554.61383
G0 F18000 X11.499 Y-48.809
G1 F2400 X11.5 Y48.81 E558.67236
G0 F18000 X12 Y48.81
G1 F2400 X11.999 Y-48.809 E562.73088
G0 F18000 X12.499 Y-48.809
G1 F2400 X12.5 Y48.81 E566.78941
G0 F18000 X13 Y48.81
G1 F2400 X12.999 Y-48.809 E570.84794
G0 F18000 X13.499 Y-48.809
G1 F2400 X13.5 Y48.81 E574.90646
G0 F18000 X14 Y48.81
G1 F2400 X13.999 Y-48.809 E578.96499
G0 F18000 X14.499 Y-48.809
G1 F2400 X14.5 Y48.81 E583.02351
G0 F18000 X15 Y48.81
G1 F2400 X14.999 Y-48.809 E587.08204
G0 F18000 X15.499 Y-48.809
G1 F2400 X15.5 Y48.81 E591.14057
G0 F18000 X16 Y48.81
G1 F2400 X15.999 Y-48.809 E595.19909
G0 F18000 X16.499 Y-48.809
G1 F2400 X16.5 Y48.81 E599.25762
G0 F18000 X17 Y48.81
G1 F2400 X16.999 Y-48.809 E603.31615
G0 F18000 X17.499 Y-48.809
G1 F2400 X17.5 Y48.81 E607.37467
G0 F18000 X18 Y48.81
G1 F2400 X17.999 Y-48.809 E611.4332
G0 F18000 X18.499 Y-48.809
G1 F2400 X18.5 Y48.81 E615.49173
G0 F18000 X19 Y48.81
G1 F2400 X18.999 Y-48.809 E619.55025
G0 F18000 X19.499 Y-48.809
G1 F2400 X19.5 Y48.81 E623.60878
G0 F18000 X20 Y48.81
G1 F2400 X19.999 Y-48.809 E627.6673
G0 F18000 X20.499 Y-48.809
G1 F2400 X20.5 Y48.81 E631.72583
G0 F18000 X21 Y48.81
G1 F2400 X20.999 Y-48.809 E635.78436
G0 F18000 X21.499 Y-48.809
G1 F2400 X21.5 Y48.81 E639.84288
G0 F18000 X22 Y48.81
G1 F2400 X21.999 Y-48.809 E643.90141
G0 F18000 X22.499 Y-48.809
G1 F2400 X22.5 Y48.81 E647.95994
G0 F18000 X23 Y48.81
G1 F2400 X22.999 Y-48.809 E652.01846
G0 F18000 X23.499 Y-48.809
G1 F2400 X23.5 Y48.81 E656.07699
G0 F18000 X24 Y48.81
G1 F2400 X23.999 Y-48.809 E660.13552
G0 F18000 X24.499 Y-48.809
G1 F2400 X24.5 Y48.81 E664.19404
G0 F18000 X25 Y48.81
G1 F2400 X24.999 Y-48.809 E668.25257
G0 F18000 X25.499 Y-48.809
G1 F2400 X25.5 Y48.81 E672.3111
G0 F18000 X26 Y48.81
G1 F2400 X25.999 Y-48.809 E676.36962
G0 F18000 X26.499 Y-48.809
G1 F2400 X26.5 Y48.81 E680.42815
G0 F18000 X27 Y48.81
G1 F2400 X26.999 Y-48.809 E684.48667
G0 F18000 X27.499 Y-48.809
G1 F2400 X27.5 Y48.81 E688.5452
G0 F18000 X28 Y48.81
G1 F2400 X27.999 Y-48.809 E692.60373
G0 F18000 X27.999 Y-48.809 Z0.8
; Layer Change GCode
; LAYER:2
G4 P0
M106 S255
G1 F6600 E685.80373
G1 Z1.1
G0 F18000 X-29.249 Y21.657 Z1
G0 X-28.749 Y21.157
; TYPE:WALL-INNER
G1 Z0.7
G1 F6600 E692.70373
G1 F2400 X-28.749 Y21.157 E692.70373
G1 X-28.749 Y-29.156 E694.7955
G1 X-4.553 Y-29.156 E695.80145
G1 X-4.448 Y-29.141 E695.80586
G1 X-4.388 Y-29.108 E695.80871
G1 X-4.354 Y-29.037 E695.81198
G1 X-4.341 Y-28.945 E695.81584
G1 X-4.341 Y20.946 E697.89007
G1 X-4.371 Y21.085 E697.89598
G1 X-4.463 Y21.151 E697.90069
G1 X-28.749 Y21.157 E698.91038
G0 F18000 X-29.249 Y21.657
; TYPE:WALL-OUTER
G1 F2100 X-29.249 Y21.657 E698.91038
G1 X-29.249 Y-29.656 E701.04373
G1 X-4.52 Y-29.656 E702.07184
G1 X-4.285 Y-29.623 E702.08171
G1 X-4.078 Y-29.507 E702.09157
G1 X-3.97 Y-29.391 E702.09816
G1 X-3.87 Y-29.185 E702.10768
G1 X-3.841 Y-28.978 E702.11637
G1 X-3.841 Y20.979 E704.19335
G1 X-3.87 Y21.191 E704.20224
G1 X-3.946 Y21.359 E704.20991
G1 X-4.082 Y21.51 E704.21836
G1 X-4.29 Y21.627 E704.22828
G1 X-4.416 Y21.651 E704.23361
G1 X-29.249 Y21.657 E705.26605
G0 F18000 X-28.899 Y21.397
G0 X-23.044 Y15.545
G0 X-23.044 Y15.545
; TYPE:WALL-INNER
G1 F2400 X-23.044 Y15.545 E705.26605
G1 X-21.127 Y17.016 E705.36651
G1 X-18.894 Y17.941 E705.46699
G1 X-16.499 Y18.256 E705.56742
G1 X-14.103 Y17.941 E705.6679
G1 X-11.871 Y17.016 E705.76834
G1 X-9.953 Y15.545 E705.86884
G1 X-8.482 Y13.628 E705.9693
G1 X-7.557 Y11.395 E706.06979
G1 X-7.243 Y9 E706.17021
G1 X-7.557 Y6.604 E706.27068
G1 X-8.482 Y4.372 E706.37112
G1 X-9.953 Y2.454 E706.47162
G1 X-11.871 Y0.983 E706.57211
G1 X-14.103 Y0.058 E706.67256
G1 X-16.499 Y-0.257 E706.77303
G1 X-18.894 Y0.058 E706.87346
G1 X-21.127 Y0.983 E706.97395
G1 X-23.044 Y2.454 E707.07441
G1 X-24.515 Y4.372 E707.1749
G1 X-25.44 Y6.604 E707.27535
G1 X-25.755 Y9 E707.37582
G1 X-25.44 Y11.395 E707.47625
G1 X-24.515 Y13.628 E707.57674
G1 X-23.044 Y15.545 E707.6772
G0 F18000 X-22.389 Y15.801
G0 X-21.1 Y16.971
G0 X-18.88 Y17.89
G0 X-16.743 Y18.019
G0 X-16.545 Y18.098
G0 X-16.545 Y18.098
G0 X-16.499 Y17.752
; TYPE:WALL-OUTER
G1 F2100 X-16.499 Y17.752 E707.6772
G1 X-14.234 Y17.454 E707.77218
G1 X-12.123 Y16.579 E707.86718
G1 X-10.31 Y15.188 E707.96219
G1 X-8.919 Y13.376 E708.05716
G1 X-8.044 Y11.264 E708.15221
G1 X-7.747 Y9 E708.24714
G1 X-8.044 Y6.735 E708.34211
G1 X-8.919 Y4.624 E708.43712
G1 X-10.31 Y2.811 E708.53212
G1 X-12.123 Y1.42 E708.62713
G1 X-14.234 Y0.545 E708.72213
G1 X-16.499 Y0.247 E708.81711
G1 X-18.763 Y0.545 E708.91205
G1 X-20.875 Y1.42 E709.0071
G1 X-22.687 Y2.811 E709.10207
G1 X-24.078 Y4.624 E709.19707
G1 X-24.953 Y6.735 E709.29208
G1 X-25.251 Y9 E709.38706
G1 X-24.953 Y11.264 E709.482
G1 X-24.078 Y13.376 E709.57704
G1 X-22.687 Y15.188 E709.67201
G1 X-20.875 Y16.579 E709.76698
G1 X-18.763 Y17.454 E709.86203
G1 X-16.499 Y17.752 E709.95697
G1 F6600 E703.15697
G1 Z1
G0 F18000 X-16.545 Y18.098
G0 X-16.544 Y18.209
G0 X-14.117 Y17.89
G0 X-11.898 Y16.971
G0 X-9.99 Y15.508
G0 X-8.527 Y13.601
G0 X-7.608 Y11.38
G0 X-7.295 Y9
G0 X-7.608 Y6.619
G0 X-8.527 Y4.399
G0 X-9.99 Y2.491
G0 X-11.898 Y1.028
G0 X-14.117 Y0.109
G0 X-16.511 Y-0.206
G0 X-16.499 Y-7.743
G0 X-16.499 Y-7.743
; TYPE:WALL-INNER
G1 Z0.7
G1 F6600 E710.05697
G1 F2400 X-16.499 Y-7.743 E710.05697
G1 X-14.103 Y-8.057 E710.15743
G1 X-11.871 Y-8.982 E710.25788
G1 X-9.953 Y-10.453 E710.35837
G1 X-8.482 Y-12.371 E710.45887
G1 X-7.557 Y-14.603 E710.55932
G1 X-7.243 Y-16.999 E710.65978
G1 X-7.557 Y-19.394 E710.76021
G1 X-8.482 Y-21.627 E710.86069
G1 X-9.953 Y-23.544 E710.96115
G1 X-11.871 Y-25.015 E711.06165
G1 X-14.103 Y-25.94 E711.1621
G1 X-16.499 Y-26.255 E711.26257
G1 X-18.894 Y-25.94 E711.363
G1 X-21.127 Y-25.015 E711.46348
G1 X-23.044 Y-23.544 E711.56394
G1 X-24.515 Y-21.627 E711.6644
G1 X-25.44 Y-19.394 E711.76489
G1 X-25.755 Y-16.999 E711.86532
G1 X-25.44 Y-14.603 E711.96579
G1 X-24.515 Y-12.371 E712.06624
G1 X-23.044 Y-10.453 E712.16673
G1 X-21.127 Y-8.982 E712.26719
G1 X-18.894 Y-8.057 E712.36768
G1 X-16.499 Y-7.743 E712.46811
G0 F18000 X-16.499 Y-8.247
; TYPE:WALL-OUTER
G1 F2100 X-16.499 Y-8.247 E712.46811
G1 X-14.234 Y-8.544 E712.56308
G1 X-12.123 Y-9.419 E712.65809
G1 X-10.31 Y-10.81 E712.75309
G1 X-8.919 Y-12.623 E712.8481
G1 X-8.044 Y-14.734 E712.9431
G1 X-7.747 Y-16.999 E713.03808
G1 X-8.044 Y-19.263 E713.13301
G1 X-8.919 Y-21.375 E713.22805
G1 X-10.31 Y-23.187 E713.32302
G1 X-12.123 Y-24.578 E713.41803
G1 X-14.234 Y-25.453 E713.51304
G1 X-16.499 Y-25.751 E713.60802
G1 X-18.763 Y-25.453 E713.70295
G1 X-20.875 Y-24.578 E713.798
G1 X-22.687 Y-23.187 E713.89297
G1 X-24.078 Y-21.375 E713.98794
G1 X-24.953 Y-19.263 E714.08299
G1 X-25.251 Y-16.999 E714.17792
G1 X-24.953 Y-14.734 E714.2729
G1 X-24.078 Y-12.623 E714.36791
G1 X-22.687 Y-10.81 E714.46291
G1 X-20.875 Y-9.419 E714.55789
G1 X-18.763 Y-8.544 E714.65293
G1 X-16.499 Y-8.247 E714.74786
G0 F18000 X-16.545 Y-7.901
G0 X-18.032 Y-7.499
G0 X-18.032 Y-7.499
; TYPE:FILL
G1 F2400 X-28.309 Y-7.499 E715.17513
G0 F18000 X-28.309 Y-7.999
G1 F2400 X-19.906 Y-7.999 E715.52449
G0 F18000 X-21.113 Y-8.499
G1 F2400 X-28.309 Y-8.499 E715.82366
G0 F18000 X-28.309 Y-8.999
G1 F2400 X-21.872 Y-8.999 E716.09128
G0 F18000 X-22.524 Y-9.499
G1 F2400 X-28.309 Y-9.499 E716.33179
G0 F18000 X-28.309 Y-9.999
G1 F2400 X-23.177 Y-9.999 E716.54516
G0 F18000 X-23.635 Y-10.499
G1 F2400 X-28.309 Y-10.499 E716.73948
G0 F18000 X-28.309 Y-10.999
G1 F2400 X-24.018 Y-10.999 E716.91788
G0 F18000 X-24.401 Y-11.499
G1 F2400 X-28.309 Y-11.499 E717.08035
G0 F18000 X-28.309 Y-11.999
G1 F2400 X-24.784 Y-11.999 E717.22691
G0 F18000 X-25.045 Y-12.499
G1 F2400 X-28.309 Y-12.499 E717.36261
G0 F18000 X-28.309 Y-12.999
G1 F2400 X-25.252 Y-12.999 E717.4897
G0 F18000 X-25.459 Y-13.499
G1 F2400 X-28.309 Y-13.499 E717.60819
G0 F18000 X-28.309 Y-13.999
G1 F2400 X-25.667 Y-13.999 E717.71803
G0 F18000 X-25.871 Y-14.499
G1 F2400 X-28.309 Y-14.499 E717.81939
G0 F18000 X-28.309 Y-14.999
G1 F2400 X-25.936 Y-14.999 E717.91805
G0 F18000 X-26.002 Y-15.499
G1 F2400 X-28.309 Y-15.499 E718.01397
G0 F18000 X-28.309 Y-15.999
G1 F2400 X-26.068 Y-15.999 E718.10714
G0 F18000 X-26.133 Y-16.5
G1 F2400 X-28.309 Y-16.5 E718.1976
G0 F18000 X-28.309 Y-17
G1 F2400 X-26.199 Y-17 E718.28533
G0 F18000 X-26.133 Y-17.5
G1 F2400 X-28.309 Y-17.5 E718.37579
G0 F18000 X-28.309 Y-18
G1 F2400 X-26.067 Y-18 E718.46901
G0 F18000 X-26.002 Y-18.5
G1 F2400 X-28.309 Y-18.5 E718.56492
G0 F18000 X-28.309 Y-19
G1 F2400 X-25.936 Y-19 E718.66358
G0 F18000 X-25.87 Y-19.5
G1 F2400 X-28.309 Y-19.5 E718.76498
G0 F18000 X-28.309 Y-20
G1 F2400 X-25.666 Y-20 E718.87486
G0 F18000 X-25.458 Y-20.5
G1 F2400 X-28.309 Y-20.5 E718.99339
G0 F18000 X-28.309 Y-21
G1 F2400 X-25.251 Y-21 E719.12053
G0 F18000 X-25.044 Y-21.5
G1 F2400 X-28.309 Y-21.5 E719.25627
G0 F18000 X-28.309 Y-22
G1 F2400 X-24.782 Y-22 E719.40291
G0 F18000 X-24.399 Y-22.5
G1 F2400 X-28.309 Y-22.5 E719.56547
G0 F18000 X-28.309 Y-23
G1 F2400 X-24.016 Y-23 E719.74395
G0 F18000 X-23.632 Y-23.5
G1 F2400 X-28.309 Y-23.5 E719.9384
G0 F18000 X-28.309 Y-24
G1 F2400 X-23.173 Y-24 E720.15193
G0 F18000 X-22.52 Y-24.5
G1 F2400 X-28.309 Y-24.5 E720.39261
G0 F18000 X-28.309 Y-25
G1 F2400 X-21.868 Y-25 E720.66039
G0 F18000 X-21.106 Y-25.5
G1 F2400 X-28.309 Y-25.5 E720.95986
G0 F18000 X-28.309 Y-26
G1 F2400 X-19.899 Y-26 E721.30951
G0 F18000 X-18.013 Y-26.5
G0 X-18.013 Y-26.5
G1 F2400 X-28.309 Y-26.5 E721.73756
G0 F18000 X-28.309 Y-27
G1 F2400 X-4.78 Y-27 E722.71579
G0 F18000 X-4.78 Y-26.5
G1 F2400 X-14.984 Y-26.5 E723.14002
G0 F18000 X-13.097 Y-26
G0 X-13.097 Y-26
G1 F2400 X-4.78 Y-26 E723.4858
G0 F18000 X-4.78 Y-25.5
G1 F2400 X-11.891 Y-25.5 E723.78144
G0 F18000 X-11.129 Y-25
G1 F2400 X-4.78 Y-25 E724.0454
G0 F18000 X-4.78 Y-24.5
G1 F2400 X-10.476 Y-24.5 E724.28221
G0 F18000 X-9.823 Y-24
G1 F2400 X-4.78 Y-24 E724.49188
G0 F18000 X-4.78 Y-23.5
G1 F2400 X-9.364 Y-23.5 E724.68246
G0 F18000 X-8.98 Y-23
G1 F2400 X-4.78 Y-23 E724.85707
G0 F18000 X-4.78 Y-22.5
G1 F2400 X-8.597 Y-22.5 E725.01577
G0 F18000 X-8.214 Y-22
G1 F2400 X-4.78 Y-22 E725.15853
G0 F18000 X-4.78 Y-21.5
G1 F2400 X-7.952 Y-21.5 E725.29041
G0 F18000 X-7.745 Y-21
G1 F2400 X-4.78 Y-21 E725.41368
G0 F18000 X-4.78 Y-20.5
G1 F2400 X-7.538 Y-20.5 E725.52835
G0 F18000 X-7.331 Y-20
G1 F2400 X-4.78 Y-20 E725.6344
G0 F18000 X-4.78 Y-19.5
G1 F2400 X-7.126 Y-19.5 E725.73194
G0 F18000 X-7.06 Y-19
G1 F2400 X-4.78 Y-19 E725.82673
G0 F18000 X-4.78 Y-18.5
G1 F2400 X-6.995 Y-18.5 E725.91882
G0 F18000 X-6.929 Y-18
G1 F2400 X-4.78 Y-18 E726.00816
G0 F18000 X-4.78 Y-17.5
G1 F2400 X-6.864 Y-17.5 E726.09481
G0 F18000 X-6.798 Y-17
G1 F2400 X-4.78 Y-17 E726.17871
G0 F18000 X-4.78 Y-16.5
G1 F2400 X-6.863 Y-16.5 E726.26531
G0 F18000 X-6.929 Y-16
G1 F2400 X-4.78 Y-16 E726.35465
G0 F18000 X-4.78 Y-15.5
G1 F2400 X-6.994 Y-15.5 E726.4467
G0 F18000 X-7.06 Y-15
G1 F2400 X-4.78 Y-15 E726.54149
G0 F18000 X-4.78 Y-14.5
G1 F2400 X-7.126 Y-14.5 E726.63903
G0 F18000 X-7.33 Y-14
G1 F2400 X-4.78 Y-14 E726.74504
G0 F18000 X-4.78 Y-13.5
G1 F2400 X-7.537 Y-13.5 E726.85967
G0 F18000 X-7.744 Y-13
G1 F2400 X-4.78 Y-13 E726.98289
G0 F18000 X-4.78 Y-12.5
G1 F2400 X-7.951 Y-12.5 E727.11473
G0 F18000 X-8.212 Y-12
G1 F2400 X-4.78 Y-12 E727.25741
G0 F18000 X-4.78 Y-11.5
G1 F2400 X-8.596 Y-11.5 E727.41607
G0 F18000 X-8.979 Y-11
G1 F2400 X-4.78 Y-11 E727.59064
G0 F18000 X-4.78 Y-10.5
G1 F2400 X-9.362 Y-10.5 E727.78114
G0 F18000 X-9.82 Y-10
G1 F2400 X-4.78 Y-10 E727.99068
G0 F18000 X-4.78 Y-9.5
G1 F2400 X-10.473 Y-9.5 E728.22736
G0 F18000 X-11.126 Y-9
G1 F2400 X-4.78 Y-9 E728.4912
G0 F18000 X-4.78 Y-8.5
G1 F2400 X-11.885 Y-8.5 E728.78659
G0 F18000 X-13.091 Y-7.999
G1 F2400 X-4.78 Y-8 E729.13212
G0 F18000 X-4.78 Y-7.5
G1 F2400 X-14.966 Y-7.499 E729.55561
G0 F18000 X-14.97 Y-0.499
G0 X-14.97 Y-0.499
G1 F2400 X-4.781 Y-0.499 E729.97922
G0 F18000 X-4.781 Y0
G1 F2400 X-13.092 Y0 E730.32475
G0 F18000 X-11.885 Y0.5
G1 F2400 X-4.781 Y0.5 E730.6201
G0 F18000 X-4.781 Y1
G1 F2400 X-11.126 Y1 E730.88389
G0 F18000 X-10.473 Y1.5
G1 F2400 X-4.781 Y1.5 E731.12054
G0 F18000 X-4.781 Y2
G1 F2400 X-9.82 Y2 E731.33004
G0 F18000 X-9.362 Y2.5
G1 F2400 X-4.781 Y2.5 E731.52049
G0 F18000 X-4.781 Y3
G1 F2400 X-8.979 Y3 E731.69502
G0 F18000 X-8.596 Y3.5
G1 F2400 X-4.781 Y3.5 E731.85363
G0 F18000 X-4.781 Y4
G1 F2400 X-8.213 Y4 E731.99632
G0 F18000 X-7.952 Y4.5
G1 F2400 X-4.781 Y4.5 E732.12815
G0 F18000 X-4.781 Y5
G1 F2400 X-7.745 Y5 E732.25138
G0 F18000 X-7.538 Y5.5
G1 F2400 X-4.781 Y5.5 E732.36601
G0 F18000 X-4.781 Y6
G1 F2400 X-7.331 Y6 E732.47202
G0 F18000 X-7.127 Y6.5
G1 F2400 X-4.781 Y6.5 E732.56956
G0 F18000 X-4.781 Y7
G1 F2400 X-7.061 Y7 E732.66435
G0 F18000 X-6.995 Y7.5
G1 F2400 X-4.78 Y7.5 E732.75644
G0 F18000 X-4.78 Y8
G1 F2400 X-6.929 Y8 E732.84578
G0 F18000 X-6.864 Y8.5
G1 F2400 X-4.78 Y8.5 E732.93243
G0 F18000 X-4.78 Y9
G1 F2400 X-6.798 Y9 E733.01632
G0 F18000 X-6.864 Y9.5
G1 F2400 X-4.78 Y9.5 E733.10297
G0 F18000 X-4.78 Y10
G1 F2400 X-6.929 Y10 E733.19231
G0 F18000 X-6.995 Y10.5
G1 F2400 X-4.78 Y10.5 E733.2844
G0 F18000 X-4.78 Y11
G1 F2400 X-7.06 Y11 E733.37919
G0 F18000 X-7.126 Y11.5
G1 F2400 X-4.78 Y11.5 E733.47673
G0 F18000 X-4.78 Y12
G1 F2400 X-7.33 Y12 E733.58274
G0 F18000 X-7.537 Y12.5
G1 F2400 X-4.78 Y12.5 E733.69737
G0 F18000 X-4.78 Y13
G1 F2400 X-7.745 Y13 E733.82064
G0 F18000 X-7.952 Y13.5
G1 F2400 X-4.78 Y13.5 E733.95251
G0 F18000 X-4.78 Y14
G1 F2400 X-8.214 Y14 E734.09528
G0 F18000 X-8.597 Y14.5
G1 F2400 X-4.78 Y14.5 E734.25398
G0 F18000 X-4.78 Y15
G1 F2400 X-8.98 Y15 E734.42859
G0 F18000 X-9.363 Y15.5
G1 F2400 X-4.78 Y15.5 E734.61913
G0 F18000 X-4.78 Y16
G1 F2400 X-9.822 Y16 E734.82875
G0 F18000 X-10.475 Y16.5
G1 F2400 X-4.78 Y16.5 E735.06552
G0 F18000 X-4.78 Y17
G1 F2400 X-11.127 Y17 E735.3294
G0 F18000 X-11.888 Y17.5
G1 F2400 X-4.78 Y17.5 E735.62492
G0 F18000 X-4.78 Y18
G1 F2400 X-13.094 Y18 E735.97057
G0 F18000 X-14.976 Y18.5
G0 X-14.976 Y18.5
G1 F2400 X-4.78 Y18.5 E736.39447
G0 F18000 X-4.78 Y19
G1 F2400 X-28.309 Y19 E737.3727
G0 F18000 X-28.309 Y18.5
G1 F2400 X-18.02 Y18.5 E737.80046
G0 F18000 X-19.902 Y18
G0 X-19.902 Y18
G1 F2400 X-28.309 Y18 E738.14998
G0 F18000 X-28.309 Y17.5
G1 F2400 X-21.109 Y17.5 E738.44933
G0 F18000 X-21.869 Y17
G1 F2400 X-28.309 Y17 E738.71707
G0 F18000 X-28.309 Y16.5
G1 F2400 X-22.521 Y16.5 E738.95771
G0 F18000 X-23.173 Y16
G1 F2400 X-28.309 Y16 E739.17124
G0 F18000 X-28.309 Y15.5
G1 F2400 X-23.632 Y15.5 E739.36568
G0 F18000 X-24.016 Y15
G1 F2400 X-28.309 Y15 E739.54417
G0 F18000 X-28.309 Y14.5
G1 F2400 X-24.399 Y14.5 E739.70673
G0 F18000 X-24.782 Y14
G1 F2400 X-28.309 Y14 E739.85336
G0 F18000 X-28.309 Y13.5
G1 F2400 X-25.044 Y13.5 E739.9891
G0 F18000 X-25.251 Y13
G1 F2400 X-28.309 Y13 E740.11624
G0 F18000 X-28.309 Y12.5
G1 F2400 X-25.458 Y12.5 E740.23477
G0 F18000 X-25.666 Y12
G1 F2400 X-28.309 Y12 E740.34465
G0 F18000 X-28.309 Y11.5
G1 F2400 X-25.87 Y11.5 E740.44606
G0 F18000 X-25.936 Y11
G1 F2400 X-28.309 Y11 E740.54471
G0 F18000 X-28.309 Y10.5
G1 F2400 X-26.002 Y10.5 E740.64063
G0 F18000 X-26.067 Y10
G1 F2400 X-28.309 Y10 E740.73384
G0 F18000 X-28.309 Y9.5
G1 F2400 X-26.133 Y9.5 E740.82431
G0 F18000 X-26.199 Y9
G1 F2400 X-28.309 Y9 E740.91203
G0 F18000 X-28.309 Y8.5
G1 F2400 X-26.133 Y8.5 E741.0025
G0 F18000 X-26.068 Y8
G1 F2400 X-28.309 Y8 E741.09567
G0 F18000 X-28.309 Y7.5
G1 F2400 X-26.002 Y7.5 E741.19158
G0 F18000 X-25.936 Y7
G1 F2400 X-28.309 Y7 E741.29024
G0 F18000 X-28.309 Y6.5
G1 F2400 X-25.871 Y6.5 E741.3916
G0 F18000 X-25.667 Y6
G1 F2400 X-28.309 Y6 E741.50144
G0 F18000 X-28.309 Y5.5
G1 F2400 X-25.459 Y5.5 E741.61993
G0 F18000 X-25.252 Y5
G1 F2400 X-28.309 Y5 E741.74703
G0 F18000 X-28.309 Y4.5
G1 F2400 X-25.045 Y4.5 E741.88273
G0 F18000 X-24.784 Y4
G1 F2400 X-28.309 Y4 E742.02928
G0 F18000 X-28.309 Y3.5
G1 F2400 X-24.401 Y3.5 E742.19176
G0 F18000 X-24.018 Y3
G1 F2400 X-28.309 Y3 E742.37016
G0 F18000 X-28.309 Y2.5
G1 F2400 X-23.635 Y2.5 E742.56448
G0 F18000 X-23.177 Y2
G1 F2400 X-28.309 Y2 E742.77784
G0 F18000 X-28.309 Y1.5
G1 F2400 X-22.524 Y1.5 E743.01835
G0 F18000 X-21.872 Y1
G1 F2400 X-28.309 Y1 E743.28597
G0 F18000 X-28.309 Y0.5
G1 F2400 X-21.113 Y0.5 E743.58515
G0 F18000 X-19.905 Y0
G1 F2400 X-28.309 Y0 E743.93455
G0 F18000 X-28.309 Y-0.499
G1 F2400 X-18.028 Y-0.499 E744.36198
G0 F18000 X-28.309 Y-0.999
G0 X-28.309 Y-0.999
G1 F2400 X-4.781 Y-0.999 E745.34016
G0 F18000 X-4.781 Y-1.499
G1 F2400 X-28.309 Y-1.499 E746.31834
G0 F18000 X-28.309 Y-1.999
G1 F2400 X-4.781 Y-1.999 E747.29652
G0 F18000 X-4.781 Y-2.499
G1 F2400 X-28.309 Y-2.499 E748.2747
G0 F18000 X-28.309 Y-2.999
G1 F2400 X-4.781 Y-2.999 E749.25288
G0 F18000 X-4.781 Y-3.499
G1 F2400 X-28.309 Y-3.499 E750.23106
G0 F18000 X-28.309 Y-3.999
G1 F2400 X-4.781 Y-3.999 E751.20924
G0 F18000 X-4.78 Y-4.5
G1 F2400 X-28.309 Y-4.499 E752.18747
G0 F18000 X-28.309 Y-4.999
G1 F2400 X-4.78 Y-5 E753.16569
G0 F18000 X-4.78 Y-5.5
G1 F2400 X-28.309 Y-5.499 E754.14391
G0 F18000 X-28.309 Y-5.999
G1 F2400 X-4.78 Y-6 E755.12213
G0 F18000 X-4.78 Y-6.5
G1 F2400 X-28.309 Y-6.499 E756.10035
G0 F18000 X-28.309 Y-6.999
G1 F2400 X-4.78 Y-7 E757.07858
G0 F18000 X-4.78 Y-27.5
G0 X-4.78 Y-27.5
G1 F2400 X-28.309 Y-27.5 E758.0568
G0 F18000 X-28.309 Y-28
G1 F2400 X-4.78 Y-28 E759.03502
G0 F18000 X-4.78 Y-28.5
G1 F2400 X-28.309 Y-28.5 E760.01324
G0 F18000 X-4.342 Y-29.169
G0 X-3.943 Y-29.181
G0 X-4.229 Y-29.174
G0 X-4.229 Y-29.174
G1 F2400 X-4.158 Y-29.195 E760.01603
G1 X-4.16 Y-29.136 E760.01683
G0 F18000 X-4.78 Y19.5
G0 X-4.78 Y19.5
G1 F2400 X-28.309 Y19.5 E760.99505
G0 F18000 X-28.309 Y20
G1 F2400 X-4.78 Y20 E761.97328
G0 F18000 X-4.78 Y20.5
G1 F2400 X-28.309 Y20.5 E762.9515
G0 F18000 X-4.509 Y21.343
G0 X-4.109 Y21.357
G0 X-4.309 Y21.351
G0 X-4.309 Y21.351
G1 F2400 X-4.271 Y21.283 E762.95314
G1 X-4.167 Y21.219 E762.95517
G1 X-4.164 Y21.139 E762.95596
G1 F6600 E756.15596
G1 Z1
G0 F18000 X5.75 Y49.75
G0 X6.25 Y49.25
; TYPE:WALL-INNER
G1 Z0.7
G1 F6600 E763.05596
G1 F2400 X6.25 Y49.25 E763.05596
G1 X6.25 Y-49.249 E767.15107
G1 X28.75 Y-49.249 E768.08651
G1 X28.75 Y49.25 E772.18163
G1 X6.25 Y49.25 E773.11707
G0 F18000 X5.75 Y49.75
; TYPE:WALL-OUTER
G1 F2100 X5.75 Y49.75 E773.11707
G1 X5.75 Y-49.749 E777.25375
G1 X29.25 Y-49.749 E778.23077
G1 X29.25 Y49.75 E782.36746
G1 X5.75 Y49.75 E783.34448
G0 F18000 X6.01 Y49.4
G0 X6.689 Y48.5
G0 X6.689 Y48.5
; TYPE:FILL
G1 F2400 X28.309 Y48.5 E784.24333
G0 F18000 X28.309 Y48
G1 F2400 X6.689 Y48 E785.14219
G0 F18000 X6.689 Y47.5
G1 F2400 X28.309 Y47.5 E786.04104
G0 F18000 X28.309 Y47
G1 F2400 X6.689 Y47 E786.9399
G0 F18000 X6.689 Y46.5
G1 F2400 X28.309 Y46.5 E787.83875
G0 F18000 X28.309 Y46
G1 F2400 X6.689 Y46 E788.73761
G0 F18000 X6.689 Y45.5
G1 F2400 X28.309 Y45.5 E789.63646
G0 F18000 X28.309 Y45
G1 F2400 X6.689 Y45 E790.53532
G0 F18000 X6.689 Y44.5
G1 F2400 X28.309 Y44.5 E791.43417
G0 F18000 X28.309 Y44
G1 F2400 X6.689 Y44 E792.33303
G0 F18000 X6.689 Y43.5
G1 F2400 X28.309 Y43.5 E793.23188
G0 F18000 X28.309 Y43
G1 F2400 X6.689 Y43 E794.13074
G0 F18000 X6.689 Y42.5
G1 F2400 X28.309 Y42.5 E795.02959
G0 F18000 X28.309 Y42
G1 F2400 X6.689 Y42 E795.92845
G0 F18000 X6.689 Y41.5
G1 F2400 X28.309 Y41.5 E796.8273
G0 F18000 X28.309 Y41
G1 F2400 X6.689 Y41 E797.72616
G0 F18000 X6.689 Y40.5
G1 F2400 X28.309 Y40.5 E798.62501
G0 F18000 X28.309 Y40
G1 F2400 X6.689 Y40 E799.52387
G0 F18000 X6.689 Y39.5
G1 F2400 X28.309 Y39.5 E800.42272
G0 F18000 X28.309 Y39
G1 F2400 X6.689 Y39 E801.32158
G0 F18000 X6.689 Y38.5
G1 F2400 X28.309 Y38.5 E802.22043
G0 F18000 X28.309 Y38
G1 F2400 X6.689 Y38 E803.11929
G0 F18000 X6.689 Y37.5
G1 F2400 X28.309 Y37.5 E804.01814
G0 F18000 X28.309 Y37
G1 F2400 X6.689 Y37 E804.917
G0 F18000 X6.689 Y36.5
G1 F2400 X28.309 Y36.5 E805.81585
G0 F18000 X28.309 Y36
G1 F2400 X6.689 Y36 E806.71471
G0 F18000 X6.689 Y35.5
G1 F2400 X28.309 Y35.5 E807.61356
G0 F18000 X28.309 Y35
G1 F2400 X6.689 Y35 E808.51242
G0 F18000 X6.689 Y34.5
G1 F2400 X28.309 Y34.5 E809.41127
G0 F18000 X28.309 Y34
G1 F2400 X6.689 Y34 E810.31013
G0 F18000 X6.689 Y33.5
G1 F2400 X28.309 Y33.5 E811.20898
G0 F18000 X28.309 Y33
G1 F2400 X6.689 Y33 E812.10784
G0 F18000 X6.689 Y32.5
G1 F2400 X28.309 Y32.5 E813.0067
G0 F18000 X28.309 Y32
G1 F2400 X6.689 Y32 E813.90555
G0 F18000 X6.689 Y31.5
G1 F2400 X28.309 Y31.5 E814.80441
G0 F18000 X28.309 Y31
G1 F2400 X6.689 Y31 E815.70326
G0 F18000 X6.689 Y30.5
G1 F2400 X28.309 Y30.5 E816.60212
G0 F18000 X28.309 Y30
G1 F2400 X6.689 Y30 E817.50097
G0 F18000 X6.689 Y29.5
G1 F2400 X28.309 Y29.5 E818.39983
G0 F18000 X28.309 Y29
G1 F2400 X6.689 Y29 E819.29868
G0 F18000 X6.689 Y28.5
G1 F2400 X28.309 Y28.5 E820.19754
G0 F18000 X28.309 Y28
G1 F2400 X6.689 Y28 E821.09639
G0 F18000 X6.689 Y27.5
G1 F2400 X28.309 Y27.5 E821.99525
G0 F18000 X28.309 Y27
G1 F2400 X6.689 Y27 E822.8941
G0 F18000 X6.689 Y26.5
G1 F2400 X28.309 Y26.5 E823.79296
G0 F18000 X28.309 Y26
G1 F2400 X6.689 Y26 E824.69181
G0 F18000 X6.689 Y25.5
G1 F2400 X28.309 Y25.5 E825.59067
G0 F18000 X28.309 Y25
G1 F2400 X6.689 Y25 E826.48952
G0 F18000 X6.689 Y24.5
G1 F2400 X28.309 Y24.5 E827.38838
G0 F18000 X28.309 Y24
G1 F2400 X6.689 Y24 E828.28723
G0 F18000 X6.689 Y23.5
G1 F2400 X28.309 Y23.5 E829.18609
G0 F18000 X28.309 Y23
G1 F2400 X6.689 Y23 E830.08494
G0 F18000 X6.689 Y22.5
G1 F2400 X28.309 Y22.5 E830.9838
G0 F18000 X28.309 Y22
G1 F2400 X6.689 Y22 E831.88265
G0 F18000 X6.689 Y21.5
G1 F2400 X28.309 Y21.5 E832.78151
G0 F18000 X28.309 Y21
G1 F2400 X6.689 Y21 E833.68036
G0 F18000 X6.689 Y20.5
G1 F2400 X28.309 Y20.5 E834.57922
G0 F18000 X28.309 Y20
G1 F2400 X6.689 Y20 E835.47807
G0 F18000 X6.689 Y19.5
G1 F2400 X28.309 Y19.5 E836.37693
G0 F18000 X28.309 Y19
G1 F2400 X6.689 Y19 E837.27578
G0 F18000 X6.689 Y18.5
G1 F2400 X28.309 Y18.5 E838.17464
G0 F18000 X28.309 Y18
G1 F2400 X6.689 Y18 E839.07349
G0 F18000 X6.689 Y17.5
G1 F2400 X28.309 Y17.5 E839.97235
G0 F18000 X28.309 Y17
G1 F2400 X6.689 Y17 E840.8712
G0 F18000 X6.689 Y16.5
G1 F2400 X28.309 Y16.5 E841.77006
G0 F18000 X28.309 Y15.999
G1 F2400 X6.689 Y16 E842.66892
G0 F18000 X6.689 Y15.5
G1 F2400 X28.309 Y15.499 E843.56777
G0 F18000 X28.309 Y14.999
G1 F2400 X6.689 Y15 E844.46663
G0 F18000 X6.689 Y14.5
G1 F2400 X28.309 Y14.499 E845.36548
G0 F18000 X28.309 Y13.999
G1 F2400 X6.689 Y14 E846.26434
G0 F18000 X6.689 Y13.5
G1 F2400 X28.309 Y13.499 E847.16319
G0 F18000 X28.309 Y12.999
G1 F2400 X6.689 Y13 E848.06205
G0 F18000 X6.689 Y12.5
G1 F2400 X28.309 Y12.499 E848.9609
G0 F18000 X28.309 Y11.999
G1 F2400 X6.689 Y12 E849.85976
G0 F18000 X6.689 Y11.5
G1 F2400 X28.309 Y11.499 E850.75861
G0 F18000 X28.309 Y10.999
G1 F2400 X6.689 Y11 E851.65747
G0 F18000 X6.689 Y10.5
G1 F2400 X28.309 Y10.499 E852.55632
G0 F18000 X28.309 Y9.999
G1 F2400 X6.689 Y10 E853.45518
G0 F18000 X6.689 Y9.5
G1 F2400 X28.309 Y9.499 E854.35403
G0 F18000 X28.309 Y8.999
G1 F2400 X6.689 Y9 E855.25289
G0 F18000 X6.689 Y8.5
G1 F2400 X28.309 Y8.499 E856.15174
G0 F18000 X28.309 Y7.999
G1 F2400 X6.689 Y8 E857.0506
G0 F18000 X6.689 Y7.5
G1 F2400 X28.309 Y7.499 E857.94945
G0 F18000 X28.309 Y6.999
G1 F2400 X6.689 Y7 E858.84831
G0 F18000 X6.689 Y6.5
G1 F2400 X28.309 Y6.499 E859.74716
G0 F18000 X28.309 Y5.999
G1 F2400 X6.689 Y6 E860.64602
G0 F18000 X6.689 Y5.5
G1 F2400 X28.309 Y5.499 E861.54487
G0 F18000 X28.309 Y4.999
G1 F2400 X6.689 Y5 E862.44373
G0 F18000 X6.689 Y4.5
G1 F2400 X28.309 Y4.499 E863.34258
G0 F18000 X28.309 Y3.999
G1 F2400 X6.689 Y3.999 E864.24144
G0 F18000 X6.689 Y3.499
G1 F2400 X28.309 Y3.499 E865.14029
G0 F18000 X28.309 Y2.999
G1 F2400 X6.689 Y2.999 E866.03915
G0 F18000 X6.689 Y2.499
G1 F2400 X28.309 Y2.499 E866.938
G0 F18000 X28.309 Y1.999
G1 F2400 X6.689 Y1.999 E867.83686
G0 F18000 X6.689 Y1.499
G1 F2400 X28.309 Y1.499 E868.73571
G0 F18000 X28.309 Y0.999
G1 F2400 X6.689 Y0.999 E869.63457
G0 F18000 X6.689 Y0.499
G1 F2400 X28.309 Y0.499 E870.53342
G0 F18000 X28.31 Y0
G1 F2400 X6.69 Y0 E871.43228
G0 F18000 X6.69 Y-0.5
G1 F2400 X28.31 Y-0.5 E872.33113
G0 F18000 X28.31 Y-1
G1 F2400 X6.69 Y-1 E873.22999
G0 F18000 X6.69 Y-1.5
G1 F2400 X28.31 Y-1.5 E874.12885
G0 F18000 X28.31 Y-2
G1 F2400 X6.69 Y-2 E875.0277
G0 F18000 X6.69 Y-2.5
G1 F2400 X28.31 Y-2.5 E875.92656
G0 F18000 X28.31 Y-3
G1 F2400 X6.69 Y-3 E876.82541
G0 F18000 X6.69 Y-3.5
G1 F2400 X28.31 Y-3.5 E877.72427
G0 F18000 X28.31 Y-4
G1 F2400 X6.69 Y-4 E878.62312
G0 F18000 X6.69 Y-4.5
G1 F2400 X28.31 Y-4.5 E879.52198
G0 F18000 X28.31 Y-5
G1 F2400 X6.69 Y-5 E880.42083
G0 F18000 X6.69 Y-5.5
G1 F2400 X28.31 Y-5.5 E881.31969
G0 F18000 X28.31 Y-6
G1 F2400 X6.69 Y-6 E882.21854
G0 F18000 X6.69 Y-6.5
G1 F2400 X28.31 Y-6.5 E883.1174
G0 F18000 X28.31 Y-7
G1 F2400 X6.69 Y-7 E884.01625
G0 F18000 X6.689 Y-7.5
G1 F2400 X28.31 Y-7.5 E884.91515
G0 F18000 X28.31 Y-8
G1 F2400 X6.689 Y-8 E885.81405
G0 F18000 X6.689 Y-8.5
G1 F2400 X28.31 Y-8.5 E886.71294
G0 F18000 X28.31 Y-9
G1 F2400 X6.689 Y-9 E887.61184
G0 F18000 X6.689 Y-9.5
G1 F2400 X28.31 Y-9.5 E888.51074
G0 F18000 X28.31 Y-10
G1 F2400 X6.689 Y-10 E889.40963
G0 F18000 X6.689 Y-10.5
G1 F2400 X28.31 Y-10.5 E890.30853
G0 F18000 X28.31 Y-11
G1 F2400 X6.689 Y-11 E891.20743
G0 F18000 X6.689 Y-11.5
G1 F2400 X28.31 Y-11.5 E892.10632
G0 F18000 X28.31 Y-12
G1 F2400 X6.689 Y-12 E893.00522
G0 F18000 X6.689 Y-12.5
G1 F2400 X28.31 Y-12.5 E893.90412
G0 F18000 X28.31 Y-13
G1 F2400 X6.689 Y-13 E894.80301
G0 F18000 X6.689 Y-13.5
G1 F2400 X28.31 Y-13.5 E895.70191
G0 F18000 X28.31 Y-14
G1 F2400 X6.689 Y-14 E896.60081
G0 F18000 X6.689 Y-14.5
G1 F2400 X28.31 Y-14.5 E897.4997
G0 F18000 X28.31 Y-15
G1 F2400 X6.689 Y-15 E898.3986
G0 F18000 X6.689 Y-15.5
G1 F2400 X28.31 Y-15.5 E899.2975
G0 F18000 X28.31 Y-16
G1 F2400 X6.689 Y-16 E900.19639
G0 F18000 X6.689 Y-16.5
G1 F2400 X28.31 Y-16.5 E901.09529
G0 F18000 X28.31 Y-17
G1 F2400 X6.689 Y-17 E901.99419
G0 F18000 X6.689 Y-17.5
G1 F2400 X28.31 Y-17.5 E902.89308
G0 F18000 X28.31 Y-18
G1 F2400 X6.689 Y-18 E903.79198
G0 F18000 X6.689 Y-18.5
G1 F2400 X28.31 Y-18.5 E904.69088
G0 F18000 X28.31 Y-19
G1 F2400 X6.689 Y-19 E905.58977
G0 F18000 X6.689 Y-19.5
G1 F2400 X28.31 Y-19.5 E906.48867
G0 F18000 X28.31 Y-20
G1 F2400 X6.689 Y-20 E907.38757
G0 F18000 X6.689 Y-20.5
G1 F2400 X28.31 Y-20.5 E908.28646
G0 F18000 X28.31 Y-21
G1 F2400 X6.689 Y-21 E909.18536
G0 F18000 X6.689 Y-21.5
G1 F2400 X28.31 Y-21.5 E910.08426
G0 F18000 X28.31 Y-22
G1 F2400 X6.689 Y-22 E910.98315
G0 F18000 X6.689 Y-22.5
G1 F2400 X28.31 Y-22.5 E911.88205
G0 F18000 X28.31 Y-23
G1 F2400 X6.689 Y-23 E912.78095
G0 F18000 X6.689 Y-23.5
G1 F2400 X28.31 Y-23.5 E913.67984
G0 F18000 X28.31 Y-24
G1 F2400 X6.689 Y-24 E914.57874
G0 F18000 X6.689 Y-24.5
G1 F2400 X28.31 Y-24.5 E915.47764
G0 F18000 X28.31 Y-25
G1 F2400 X6.689 Y-25 E916.37653
G0 F18000 X6.689 Y-25.5
G1 F2400 X28.31 Y-25.5 E917.27543
G0 F18000 X28.31 Y-26
G1 F2400 X6.689 Y-26 E918.17433
G0 F18000 X6.689 Y-26.5
G1 F2400 X28.31 Y-26.5 E919.07322
G0 F18000 X28.31 Y-27
G1 F2400 X6.689 Y-27 E919.97212
G0 F18000 X6.689 Y-27.5
G1 F2400 X28.31 Y-27.5 E920.87102
G0 F18000 X28.31 Y-28
G1 F2400 X6.689 Y-28 E921.76991
G0 F18000 X6.689 Y-28.5
G1 F2400 X28.31 Y-28.5 E922.66881
G0 F18000 X28.31 Y-29
G1 F2400 X6.689 Y-29 E923.56771
G0 F18000 X6.689 Y-29.5
G1 F2400 X28.31 Y-29.5 E924.4666
G0 F18000 X28.309 Y-30
G1 F2400 X6.689 Y-30 E925.36546
G0 F18000 X6.689 Y-30.5
G1 F2400 X28.309 Y-30.5 E926.26431
G0 F18000 X28.309 Y-31
G1 F2400 X6.689 Y-31 E927.16317
G0 F18000 X6.689 Y-31.5
G1 F2400 X28.309 Y-31.5 E928.06203
G0 F18000 X28.309 Y-32
G1 F2400 X6.689 Y-32 E928.96088
G0 F18000 X6.689 Y-32.5
G1 F2400 X28.309 Y-32.5 E929.85974
G0 F18000 X28.309 Y-33
G1 F2400 X6.689 Y-33 E930.75859
G0 F18000 X6.689 Y-33.5
G1 F2400 X28.309 Y-33.5 E931.65745
G0 F18000 X28.309 Y-34
G1 F2400 X6.689 Y-34 E932.5563
G0 F18000 X6.689 Y-34.5
G1 F2400 X28.309 Y-34.5 E933.45516
G0 F18000 X28.309 Y-35
G1 F2400 X6.689 Y-35 E934.35401
G0 F18000 X6.689 Y-35.5
G1 F2400 X28.309 Y-35.5 E935.25287
G0 F18000 X28.309 Y-36
G1 F2400 X6.689 Y-36 E936.15172
G0 F18000 X6.689 Y-36.5
G1 F2400 X28.309 Y-36.5 E937.05058
G0 F18000 X28.309 Y-37
G1 F2400 X6.689 Y-37 E937.94943
G0 F18000 X6.689 Y-37.5
G1 F2400 X28.309 Y-37.5 E938.84829
G0 F18000 X28.309 Y-38
G1 F2400 X6.689 Y-38 E939.74714
G0 F18000 X6.689 Y-38.5
G1 F2400 X28.309 Y-38.5 E940.646
G0 F18000 X28.309 Y-39
G1 F2400 X6.689 Y-39 E941.54485
G0 F18000 X6.689 Y-39.5
G1 F2400 X28.309 Y-39.5 E942.44371
G0 F18000 X28.309 Y-40
G1 F2400 X6.689 Y-40 E943.34256
G0 F18000 X6.689 Y-40.5
G1 F2400 X28.309 Y-40.5 E944.24142
G0 F18000 X28.309 Y-41
G1 F2400 X6.689 Y-41 E945.14027
G0 F18000 X6.689 Y-41.5
G1 F2400 X28.309 Y-41.5 E946.03913
G0 F18000 X28.309 Y-42
G1 F2400 X6.689 Y-42 E946.93798
G0 F18000 X6.689 Y-42.5
G1 F2400 X28.309 Y-42.5 E947.83684
G0 F18000 X28.309 Y-43
G1 F2400 X6.689 Y-43 E948.73569
G0 F18000 X6.689 Y-43.5
G1 F2400 X28.309 Y-43.5 E949.63455
G0 F18000 X28.309 Y-44
G1 F2400 X6.689 Y-44 E950.5334
G0 F18000 X6.689 Y-44.5
G1 F2400 X28.309 Y-44.5 E951.43226
G0 F18000 X28.309 Y-45
G1 F2400 X6.689 Y-45 E952.33111
G0 F18000 X6.689 Y-45.5
G1 F2400 X28.309 Y-45.5 E953.22997
G0 F18000 X28.309 Y-46
G1 F2400 X6.689 Y-46 E954.12882
G0 F18000 X6.689 Y-46.5
G1 F2400 X28.309 Y-46.5 E955.02768
G0 F18000 X28.309 Y-47
G1 F2400 X6.689 Y-47 E955.92653
G0 F18000 X6.689 Y-47.5
G1 F2400 X28.309 Y-47.5 E956.82539
G0 F18000 X28.309 Y-48
G1 F2400 X6.689 Y-48 E957.72425
G0 F18000 X6.689 Y-48.5
G1 F2400 X28.309 Y-48.5 E958.6231
G0 F18000 X28.309 Y-48.5 Z1
; Layer Change GCode
; LAYER:3
G1 F6600 E951.8231
G1 Z1.3
G0 F18000 X-29.249 Y21.716 Z1.2
G0 X-28.749 Y21.216
; TYPE:WALL-INNER
G1 Z0.9
G1 F6600 E958.7231
G1 F2400 X-28.749 Y21.216 E958.7231
G1 X-28.749 Y-29.222 E960.82007
G1 X-4.461 Y-29.214 E961.82985
G1 X-4.344 Y-29.157 E961.83526
G1 X-4.289 Y-29.054 E961.84011
G1 X-4.275 Y20.948 E963.91895
G1 X-4.305 Y21.099 E963.92535
G1 X-4.391 Y21.191 E963.93059
G1 X-4.46 Y21.215 E963.93363
G1 X-28.749 Y21.216 E964.94345
G0 F18000 X-29.249 Y21.716
; TYPE:WALL-OUTER
G1 F2100 X-29.249 Y21.716 E964.94345
G1 X-29.249 Y-29.722 E967.08199
G1 X-4.379 Y-29.714 E968.11596
G1 X-4.16 Y-29.64 E968.12558
G1 X-3.995 Y-29.522 E968.13401
G1 X-3.893 Y-29.393 E968.14085
G1 X-3.802 Y-29.188 E968.15017
G1 X-3.783 Y-29.041 E968.15633
G1 X-3.775 Y20.982 E970.23605
G1 X-3.803 Y21.193 E970.2449
G1 X-3.867 Y21.348 E970.25187
G1 X-3.999 Y21.526 E970.26108
G1 X-4.16 Y21.641 E970.26931
G1 X-4.379 Y21.715 E970.27892
G1 X-29.249 Y21.716 E971.31289
G0 F18000 X-28.899 Y21.456
G0 X-23.044 Y15.545
G0 X-23.044 Y15.545
; TYPE:WALL-INNER
G1 F2400 X-23.044 Y15.545 E971.31289
G1 X-21.127 Y17.016 E971.41335
G1 X-18.894 Y17.941 E971.51384
G1 X-16.499 Y18.256 E971.61427
G1 X-14.103 Y17.941 E971.71474
G1 X-11.871 Y17.016 E971.81519
G1 X-9.953 Y15.545 E971.91568
G1 X-8.482 Y13.628 E972.01614
G1 X-7.557 Y11.395 E972.11663
G1 X-7.243 Y9 E972.21706
G1 X-7.557 Y6.604 E972.31752
G1 X-8.482 Y4.372 E972.41797
G1 X-9.953 Y2.454 E972.51846
G1 X-11.871 Y0.983 E972.61896
G1 X-14.103 Y0.058 E972.71941
G1 X-16.499 Y-0.257 E972.81988
G1 X-18.894 Y0.058 E972.92031
G1 X-21.127 Y0.983 E973.02079
G1 X-23.044 Y2.454 E973.12125
G1 X-24.515 Y4.372 E973.22175
G1 X-25.44 Y6.604 E973.3222
G1 X-25.755 Y9 E973.42267
G1 X-25.44 Y11.395 E973.5231
G1 X-24.515 Y13.628 E973.62359
G1 X-23.044 Y15.545 E973.72405
G0 F18000 X-22.389 Y15.801
G0 X-21.1 Y16.971
G0 X-18.88 Y17.89
G0 X-16.743 Y18.019
G0 X-16.545 Y18.098
G0 X-16.545 Y18.098
G0 X-16.499 Y17.752
; TYPE:WALL-OUTER
G1 F2100 X-16.499 Y17.752 E973.72405
G1 X-14.234 Y17.454 E973.81902
G1 X-12.123 Y16.579 E973.91403
G1 X-10.31 Y15.188 E974.00904
G1 X-8.919 Y13.376 E974.10401
G1 X-8.044 Y11.264 E974.19905
G1 X-7.747 Y9 E974.29398
G1 X-8.044 Y6.735 E974.38896
G1 X-8.919 Y4.624 E974.48396
G1 X-10.31 Y2.811 E974.57897
G1 X-12.123 Y1.42 E974.67397
G1 X-14.234 Y0.545 E974.76898
G1 X-16.499 Y0.247 E974.86396
G1 X-18.763 Y0.545 E974.9589
G1 X-20.875 Y1.42 E975.05394
G1 X-22.687 Y2.811 E975.14891
G1 X-24.078 Y4.624 E975.24392
G1 X-24.953 Y6.735 E975.33892
G1 X-25.251 Y9 E975.4339
G1 X-24.953 Y11.264 E975.52884
G1 X-24.078 Y13.376 E975.62389
G1 X-22.687 Y15.188 E975.71886
G1 X-20.875 Y16.579 E975.81383
G1 X-18.763 Y17.454 E975.90887
G1 X-16.499 Y17.752 E976.00381
G1 F6600 E969.20381
G1 Z1.2
G0 F18000 X-16.545 Y18.098
G0 X-16.544 Y18.209
G0 X-14.117 Y17.89
G0 X-11.898 Y16.971
G0 X-9.99 Y15.508
G0 X-8.527 Y13.601
G0 X-7.608 Y11.38
G0 X-7.295 Y9
G0 X-7.608 Y6.619
G0 X-8.527 Y4.399
G0 X-9.99 Y2.491
G0 X-11.898 Y1.028
G0 X-14.117 Y0.109
G0 X-16.511 Y-0.206
G0 X-16.499 Y-7.743
G0 X-16.499 Y-7.743
; TYPE:WALL-INNER
G1 Z0.9
G1 F6600 E976.10381
G1 F2400 X-16.499 Y-7.743 E976.10381
G1 X-14.103 Y-8.057 E976.20428
G1 X-11.871 Y-8.982 E976.30473
G1 X-9.953 Y-10.453 E976.40522
G1 X-8.482 Y-12.371 E976.50571
G1 X-7.557 Y-14.603 E976.60616
G1 X-7.243 Y-16.999 E976.70663
G1 X-7.557 Y-19.394 E976.80705
G1 X-8.482 Y-21.627 E976.90754
G1 X-9.953 Y-23.544 E977.008
G1 X-11.871 Y-25.015 E977.10849
G1 X-14.103 Y-25.94 E977.20894
G1 X-16.499 Y-26.255 E977.30941
G1 X-18.894 Y-25.94 E977.40984
G1 X-21.127 Y-25.015 E977.51033
G1 X-23.044 Y-23.544 E977.61079
G1 X-24.515 Y-21.627 E977.71125
G1 X-25.44 Y-19.394 E977.81174
G1 X-25.755 Y-16.999 E977.91217
G1 X-25.44 Y-14.603 E978.01264
G1 X-24.515 Y-12.371 E978.11309
G1 X-23.044 Y-10.453 E978.21358
G1 X-21.127 Y-8.982 E978.31404
G1 X-18.894 Y-8.057 E978.41453
G1 X-16.499 Y-7.743 E978.51495
G0 F18000 X-16.499 Y-8.247
; TYPE:WALL-OUTER
G1 F2100 X-16.499 Y-8.247 E978.51495
G1 X-14.234 Y-8.544 E978.60993
G1 X-12.123 Y-9.419 E978.70493
G1 X-10.31 Y-10.81 E978.79994
G1 X-8.919 Y-12.623 E978.89494
G1 X-8.044 Y-14.734 E978.98995
G1 X-7.747 Y-16.999 E979.08492
G1 X-8.044 Y-19.263 E979.17985
G1 X-8.919 Y-21.375 E979.2749
G1 X-10.31 Y-23.187 E979.36987
G1 X-12.123 Y-24.578 E979.46488
G1 X-14.234 Y-25.453 E979.55988
G1 X-16.499 Y-25.751 E979.65486
G1 X-18.763 Y-25.453 E979.7498
G1 X-20.875 Y-24.578 E979.84484
G1 X-22.687 Y-23.187 E979.93982
G1 X-24.078 Y-21.375 E980.03479
G1 X-24.953 Y-19.263 E980.12983
G1 X-25.251 Y-16.999 E980.22477
G1 X-24.953 Y-14.734 E980.31975
G1 X-24.078 Y-12.623 E980.41475
G1 X-22.687 Y-10.81 E980.50976
G1 X-20.875 Y-9.419 E980.60473
G1 X-18.763 Y-8.544 E980.69978
G1 X-16.499 Y-8.247 E980.79471
G0 F18000 X-16.5 Y-7.298
; TYPE:FILL
G1 F2400 X-16.5 Y-0.7 E981.06902
G0 F18000 X-16 Y-0.634
G1 F2400 X-16 Y-7.363 E981.34878
G0 F18000 X-15.5 Y-7.429
G1 F2400 X-15.5 Y-0.569 E981.63399
G0 F18000 X-15 Y-0.503
G1 F2400 X-15 Y-7.494 E981.92464
G0 F18000 X-14.5 Y-7.56
G1 F2400 X-14.5 Y-0.437 E982.22078
G0 F18000 X-14 Y-0.372
G1 F2400 X-14 Y-7.625 E982.52232
G0 F18000 X-13.5 Y-7.829
G1 F2400 X-13.5 Y-0.168 E982.84083
G0 F18000 X-13 Y0.038
G1 F2400 X-13 Y-8.036 E983.17651
G0 F18000 X-12.5 Y-8.244
G1 F2400 X-12.5 Y0.245 E983.52944
G0 F18000 X-12 Y0.452
G1 F2400 X-12 Y-8.451 E983.89958
G0 F18000 X-11.5 Y-8.711
G1 F2400 X-11.5 Y0.713 E984.29139
G0 F18000 X-11 Y1.096
G1 F2400 X-11 Y-9.095 E984.71508
G0 F18000 X-10.5 Y-9.478
G1 F2400 X-10.5 Y1.479 E985.17062
G0 F18000 X-10 Y1.862
G1 F2400 X-10 Y-9.861 E985.65801
G0 F18000 X-9.5 Y-10.318
G1 F2400 X-9.5 Y2.32 E986.18343
G0 F18000 X-9 Y2.973
G1 F2400 X-9 Y-10.971 E986.76316
G0 F18000 X-8.5 Y-11.623
G1 F2400 X-8.5 Y3.626 E987.39714
G0 F18000 X-7.999 Y4.385
G1 F2400 X-8 Y-12.381 E988.09419
G0 F18000 X-7.5 Y-13.588
G1 F2400 X-7.499 Y5.591 E988.89156
G0 F18000 X-6.999 Y7.466
G0 X-6.999 Y7.466
G1 F2400 X-7 Y-15.458 E989.84462
G0 F18000 X-7 Y-18.539
G0 X-7 Y-18.539
G1 F2400 X-7 Y-28.775 E990.27019
G0 F18000 X-7.5 Y-28.775
G1 F2400 X-7.5 Y-20.409 E990.61801
G0 F18000 X-8 Y-21.616
G1 F2400 X-8 Y-28.775 E990.91564
G0 F18000 X-8.5 Y-28.775
G1 F2400 X-8.5 Y-22.373 E991.18181
G0 F18000 X-9 Y-23.026
G1 F2400 X-9 Y-28.775 E991.42082
G0 F18000 X-9.5 Y-28.776
G1 F2400 X-9.5 Y-23.678 E991.63277
G0 F18000 X-10 Y-24.135
G1 F2400 X-10 Y-28.776 E991.82572
G0 F18000 X-10.5 Y-28.776
G1 F2400 X-10.5 Y-24.518 E992.00275
G0 F18000 X-11 Y-24.901
G1 F2400 X-11 Y-28.776 E992.16385
G0 F18000 X-11.5 Y-28.776
G1 F2400 X-11.5 Y-25.285 E992.30899
G0 F18000 X-12 Y-25.545
G1 F2400 X-12 Y-28.776 E992.44332
G0 F18000 X-12.5 Y-28.777
G1 F2400 X-12.5 Y-25.753 E992.56905
G0 F18000 X-13 Y-25.96
G1 F2400 X-13 Y-28.777 E992.68616
G0 F18000 X-13.5 Y-28.777
G1 F2400 X-13.5 Y-26.167 E992.79467
G0 F18000 X-14 Y-26.371
G1 F2400 X-14 Y-28.777 E992.8947
G0 F18000 X-14.5 Y-28.777
G1 F2400 X-14.5 Y-26.436 E992.99203
G0 F18000 X-15 Y-26.501
G1 F2400 X-15 Y-28.776 E993.08662
G0 F18000 X-15.5 Y-28.777
G1 F2400 X-15.5 Y-26.567 E993.1785
G0 F18000 X-16 Y-26.633
G1 F2400 X-16 Y-28.777 E993.26763
G0 F18000 X-16.5 Y-28.777
G1 F2400 X-16.5 Y-26.698 E993.35407
G0 F18000 X-17 Y-26.632
G1 F2400 X-17 Y-28.777 E993.44325
G0 F18000 X-17.5 Y-28.777
G1 F2400 X-17.5 Y-26.566 E993.53517
G0 F18000 X-18 Y-26.501
G1 F2400 X-18 Y-28.778 E993.62984
G0 F18000 X-18.5 Y-28.778
G1 F2400 X-18.5 Y-26.435 E993.72725
G0 F18000 X-19 Y-26.369
G1 F2400 X-19 Y-28.778 E993.8274
G0 F18000 X-19.5 Y-28.778
G1 F2400 X-19.5 Y-26.164 E993.93608
G0 F18000 X-20 Y-25.957
G1 F2400 X-20 Y-28.778 E994.05336
G0 F18000 X-20.5 Y-28.778
G1 F2400 X-20.5 Y-25.75 E994.17925
G0 F18000 X-21 Y-25.543
G1 F2400 X-21 Y-28.779 E994.31379
G0 F18000 X-21.5 Y-28.779
G1 F2400 X-21.5 Y-25.28 E994.45926
G0 F18000 X-22 Y-24.897
G1 F2400 X-22 Y-28.779 E994.62066
G0 F18000 X-22.5 Y-28.779
G1 F2400 X-22.5 Y-24.514 E994.79797
G0 F18000 X-23 Y-24.131
G1 F2400 X-23 Y-28.779 E994.99122
G0 F18000 X-23.5 Y-28.779
G1 F2400 X-23.5 Y-23.67 E995.20362
G0 F18000 X-24 Y-23.018
G1 F2400 X-24 Y-28.78 E995.44318
G0 F18000 X-24.5 Y-28.78
G1 F2400 X-24.5 Y-22.366 E995.70984
G0 F18000 X-25 Y-21.603
G1 F2400 X-25 Y-28.78 E996.00823
G0 F18000 X-25.5 Y-28.78
G1 F2400 X-25.5 Y-20.396 E996.35679
G0 F18000 X-26 Y-18.504
G0 X-26 Y-18.504
G1 F2400 X-26 Y-28.78 E996.78402
G0 F18000 X-26.5 Y-28.78
G1 F2400 X-26.499 Y20.775 E998.84428
G0 F18000 X-25.999 Y20.775
G1 F2400 X-26 Y10.513 E999.27092
G0 F18000 X-25.5 Y12.399
G0 X-25.5 Y12.399
G1 F2400 X-25.499 Y20.775 E999.61916
G0 F18000 X-24.999 Y20.775
G1 F2400 X-25 Y13.606 E999.91721
G0 F18000 X-24.5 Y14.368
G1 F2400 X-24.499 Y20.775 E1000.18358
G0 F18000 X-23.999 Y20.775
G1 F2400 X-23.999 Y15.02 E1000.42284
G0 F18000 X-23.499 Y15.673
G1 F2400 X-23.499 Y20.775 E1000.63496
G0 F18000 X-22.999 Y20.775
G1 F2400 X-22.999 Y16.132 E1000.82799
G0 F18000 X-22.499 Y16.516
G1 F2400 X-22.499 Y20.775 E1001.00506
G0 F18000 X-21.999 Y20.775
G1 F2400 X-21.999 Y16.899 E1001.16621
G0 F18000 X-21.499 Y17.282
G1 F2400 X-21.499 Y20.775 E1001.31143
G0 F18000 X-20.999 Y20.775
G1 F2400 X-20.999 Y17.544 E1001.44576
G0 F18000 X-20.499 Y17.751
G1 F2400 X-20.499 Y20.775 E1001.57148
G0 F18000 X-19.999 Y20.775
G1 F2400 X-19.999 Y17.958 E1001.6886
G0 F18000 X-19.499 Y18.166
G1 F2400 X-19.499 Y20.775 E1001.79707
G0 F18000 X-18.999 Y20.775
G1 F2400 X-18.999 Y18.37 E1001.89706
G0 F18000 X-18.499 Y18.436
G1 F2400 X-18.499 Y20.775 E1001.9943
G0 F18000 X-17.999 Y20.775
G1 F2400 X-17.999 Y18.502 E1002.0888
G0 F18000 X-17.499 Y18.567
G1 F2400 X-17.499 Y20.775 E1002.1806
G0 F18000 X-16.999 Y20.775
G1 F2400 X-16.999 Y18.633 E1002.26966
G0 F18000 X-16.499 Y18.699
G1 F2400 X-16.499 Y20.775 E1002.35597
G0 F18000 X-15.999 Y20.775
G1 F2400 X-15.999 Y18.634 E1002.44498
G0 F18000 X-15.499 Y18.568
G1 F2400 X-15.499 Y20.775 E1002.53673
G0 F18000 X-14.999 Y20.775
G1 F2400 X-14.999 Y18.503 E1002.63119
G0 F18000 X-14.499 Y18.437
G1 F2400 X-14.499 Y20.775 E1002.7284
G0 F18000 X-13.999 Y20.775
G1 F2400 X-13.999 Y18.372 E1002.8283
G0 F18000 X-13.499 Y18.168
G1 F2400 X-13.499 Y20.775 E1002.93669
G0 F18000 X-12.999 Y20.775
G1 F2400 X-12.999 Y17.96 E1003.05372
G0 F18000 X-12.499 Y17.753
G1 F2400 X-12.499 Y20.775 E1003.17936
G0 F18000 X-11.999 Y20.775
G1 F2400 X-11.999 Y17.546 E1003.31361
G0 F18000 X-11.499 Y17.285
G1 F2400 X-11.499 Y20.775 E1003.45871
G0 F18000 X-10.999 Y20.775
G1 F2400 X-10.999 Y16.901 E1003.61977
G0 F18000 X-10.499 Y16.518
G1 F2400 X-10.499 Y20.775 E1003.79675
G0 F18000 X-9.999 Y20.775
G1 F2400 X-9.999 Y16.135 E1003.98966
G0 F18000 X-9.499 Y15.677
G1 F2400 X-9.499 Y20.775 E1004.20161
G0 F18000 X-8.999 Y20.775
G1 F2400 X-8.999 Y15.024 E1004.44071
G0 F18000 X-8.499 Y14.372
G1 F2400 X-8.499 Y20.775 E1004.70692
G0 F18000 X-7.999 Y20.775
G1 F2400 X-7.999 Y13.613 E1005.00468
G0 F18000 X-7.499 Y12.407
G1 F2400 X-7.499 Y20.775 E1005.35258
G0 F18000 X-6.999 Y20.775
G1 F2400 X-6.999 Y10.533 E1005.77839
G0 F18000 X-6.499 Y20.775
G0 X-6.499 Y20.775
G1 F2400 X-6.5 Y-28.775 E1007.83844
G0 F18000 X-6 Y-28.774
G1 F2400 X-5.999 Y20.775 E1009.89845
G0 F18000 X-5.499 Y20.775
G1 F2400 X-5.5 Y-28.774 E1011.95846
G0 F18000 X-5 Y-28.774
G1 F2400 X-4.999 Y20.775 E1014.01847
G0 F18000 X-4.252 Y21.345
G1 F2400 X-4.193 Y21.327 E1014.02031
G1 X-4.099 Y21.231 E1014.02164
G1 X-4.1 Y21.155 E1014.0223
G0 F18000 X-26.999 Y20.775
G0 X-26.999 Y20.775
G1 F2400 X-27 Y-28.781 E1016.0826
G0 F18000 X-27.5 Y-28.781
G1 F2400 X-27.499 Y20.775 E1018.1429
G0 F18000 X-27.999 Y20.775
G1 F2400 X-28 Y-28.781 E1020.2032
G0 F18000 X-26 Y-15.487
G0 X-26 Y-15.487
G1 F2400 X-26 Y7.485 E1021.15826
G0 F18000 X-25.5 Y5.598
G0 X-25.5 Y5.598
G1 F2400 X-25.5 Y-13.597 E1021.9563
G0 F18000 X-25 Y-12.391
G1 F2400 X-25 Y4.392 E1022.65405
G0 F18000 X-24.5 Y3.63
G1 F2400 X-24.5 Y-11.629 E1023.28845
G0 F18000 X-24 Y-10.976
G1 F2400 X-24 Y2.977 E1023.86855
G0 F18000 X-23.5 Y2.324
G1 F2400 X-23.5 Y-10.323 E1024.39435
G0 F18000 X-23 Y-9.864
G1 F2400 X-23 Y1.865 E1024.88198
G0 F18000 X-22.5 Y1.481
G1 F2400 X-22.5 Y-9.48 E1025.33769
G0 F18000 X-22 Y-9.097
G1 F2400 X-22 Y1.098 E1025.76155
G0 F18000 X-21.5 Y0.715
G1 F2400 X-21.5 Y-8.714 E1026.15356
G0 F18000 X-21 Y-8.452
G1 F2400 X-21 Y0.453 E1026.52379
G0 F18000 X-20.5 Y0.246
G1 F2400 X-20.5 Y-8.245 E1026.8768
G0 F18000 X-20 Y-8.038
G1 F2400 X-20 Y0.039 E1027.2126
G0 F18000 X-19.5 Y-0.167
G1 F2400 X-19.5 Y-7.831 E1027.53123
G0 F18000 X-19 Y-7.626
G1 F2400 X-19 Y-0.371 E1027.83286
G0 F18000 X-18.5 Y-0.437
G1 F2400 X-18.5 Y-7.56 E1028.129
G0 F18000 X-18 Y-7.495
G1 F2400 X-18 Y-0.503 E1028.4197
G0 F18000 X-17.5 Y-0.568
G1 F2400 X-17.5 Y-7.429 E1028.70494
G0 F18000 X-17 Y-7.364
G1 F2400 X-17 Y-0.634 E1028.98474
G1 F6600 E1022.18474
G1 Z1.2
G0 F18000 X-13.473 Y-8.439
G0 X-11.898 Y-9.027
G0 X-9.99 Y-10.49
G0 X-8.527 Y-12.398
G0 X-7.608 Y-14.618
G0 X-7.295 Y-16.999
G0 X-7.608 Y-19.379
G0 X-8.078 Y-20.379
G0 X-4.145 Y-29.084
G0 X-3.981 Y-29.449
G0 X-4.102 Y-29.182
G0 X-4.102 Y-29.182
G1 Z0.9
G1 F6600 E1029.08474
G1 F2400 X-4.118 Y-29.23 E1029.08588
G1 X-4.18 Y-29.339 E1029.08747
G1 X-4.262 Y-29.361 E1029.08838
G0 F18000 X5.75 Y49.75
G0 X6.25 Y49.25
; TYPE:WALL-INNER
G1 F2400 X6.25 Y49.25 E1029.08838
G1 X6.25 Y-49.249 E1033.18349
G1 X28.75 Y-49.249 E1034.11893
G1 X28.75 Y49.25 E1038.21404
G1 X6.25 Y49.25 E1039.14948
G0 F18000 X5.75 Y49.75
; TYPE:WALL-OUTER
G1 F2100 X5.75 Y49.75 E1039.14948
G1 X5.75 Y-49.749 E1043.28617
G1 X29.25 Y-49.749 E1044.26319
G1 X29.25 Y49.75 E1048.39988
G1 X5.75 Y49.75 E1049.37689
G0 F18000 X6.01 Y49.4
G0 X7 Y48.81
G0 X7 Y48.81
; TYPE:FILL
G1 F2400 X6.999 Y-48.809 E1053.43542
G0 F18000 X7.499 Y-48.809
G1 F2400 X7.5 Y48.81 E1057.49394
G0 F18000 X8 Y48.81
G1 F2400 X7.999 Y-48.809 E1061.55247
G0 F18000 X8.499 Y-48.809
G1 F2400 X8.5 Y48.81 E1065.611
G0 F18000 X9 Y48.81
G1 F2400 X8.999 Y-48.809 E1069.66952
G0 F18000 X9.499 Y-48.809
G1 F2400 X9.5 Y48.81 E1073.72805
G0 F18000 X10 Y48.81
G1 F2400 X9.999 Y-48.809 E1077.78658
G0 F18000 X10.499 Y-48.809
G1 F2400 X10.5 Y48.81 E1081.8451
G0 F18000 X11 Y48.81
G1 F2400 X10.999 Y-48.809 E1085.90363
G0 F18000 X11.499 Y-48.809
G1 F2400 X11.5 Y48.81 E1089.96216
G0 F18000 X12 Y48.81
G1 F2400 X11.999 Y-48.809 E1094.02068
G0 F18000 X12.499 Y-48.809
G1 F2400 X12.5 Y48.81 E1098.07921
G0 F18000 X13 Y48.81
G1 F2400 X12.999 Y-48.809 E1102.13774
G0 F18000 X13.499 Y-48.809
G1 F2400 X13.5 Y48.81 E1106.19626
G0 F18000 X14 Y48.81
G1 F2400 X13.999 Y-48.809 E1110.25479
G0 F18000 X14.499 Y-48.809
G1 F2400 X14.5 Y48.81 E1114.31331
G0 F18000 X15 Y48.81
G1 F2400 X14.999 Y-48.809 E1118.37184
G0 F18000 X15.499 Y-48.809
G1 F2400 X15.5 Y48.81 E1122.43037
G0 F18000 X16 Y48.81
G1 F2400 X15.999 Y-48.809 E1126.48889
G0 F18000 X16.499 Y-48.809
G1 F2400 X16.5 Y48.81 E1130.54742
G0 F18000 X17 Y48.81
G1 F2400 X16.999 Y-48.809 E1134.60595
G0 F18000 X17.499 Y-48.809
G1 F2400 X17.5 Y48.81 E1138.66447
G0 F18000 X18 Y48.81
G1 F2400 X17.999 Y-48.809 E1142.723
G0 F18000 X18.499 Y-48.809
G1 F2400 X18.5 Y48.81 E1146.78153
G0 F18000 X19 Y48.81
G1 F2400 X18.999 Y-48.809 E1150.84005
G0 F18000 X19.499 Y-48.809
G1 F2400 X19.5 Y48.81 E1154.89858
G0 F18000 X20 Y48.81
G1 F2400 X19.999 Y-48.809 E1158.9571
G0 F18000 X20.499 Y-48.809
G1 F2400 X20.5 Y48.81 E1163.01563
G0 F18000 X21 Y48.81
G1 F2400 X20.999 Y-48.809 E1167.07416
G0 F18000 X21.499 Y-48.809
G1 F2400 X21.5 Y48.81 E1171.13268
G0 F18000 X22 Y48.81
G1 F2400 X21.999 Y-48.809 E1175.19121
G0 F18000 X22.499 Y-48.809
G1 F2400 X22.5 Y48.81 E1179.24974
G0 F18000 X23 Y48.81
G1 F2400 X22.999 Y-48.809 E1183.30826
G0 F18000 X23.499 Y-48.809
G1 F2400 X23.5 Y48.81 E1187.36679
G0 F18000 X24 Y48.81
G1 F2400 X23.999 Y-48.809 E1191.42532
G0 F18000 X24.499 Y-48.809
G1 F2400 X24.5 Y48.81 E1195.48384
G0 F18000 X25 Y48.81
G1 F2400 X24.999 Y-48.809 E1199.54237
G0 F18000 X25.499 Y-48.809
G1 F2400 X25.5 Y48.81 E1203.6009
G0 F18000 X26 Y48.81
G1 F2400 X25.999 Y-48.809 E1207.65942
G0 F18000 X26.499 Y-48.809
G1 F2400 X26.5 Y48.81 E1211.71795
G0 F18000 X27 Y48.81
G1 F2400 X26.999 Y-48.809 E1215.77647
G0 F18000 X27.499 Y-48.809
G1 F2400 X27.5 Y48.81 E1219.835
G0 F18000 X28 Y48.81
G1 F2400 X27.999 Y-48.809 E1223.89353
G0 F18000 X27.999 Y-48.809 Z1.2
; Layer Change GCode
; LAYER:4
G1 F6600 E1217.09353
G1 Z1.5
G0 F18000 X-29.249 Y21.75 Z1.4
G0 X-28.749 Y21.25
; TYPE:WALL-INNER
G1 Z1.1
G1 F6600 E1223.99353
G1 F2400 X-28.749 Y21.25 E1223.99353
G1 X-28.749 Y-29.249 E1226.09303
G1 X-4.547 Y-29.249 E1227.09923
G1 X-4.438 Y-29.234 E1227.10381
G1 X-4.326 Y-29.172 E1227.10913
G1 X-4.265 Y-29.065 E1227.11425
G1 X-4.249 Y-28.947 E1227.1192
G1 X-4.249 Y20.948 E1229.1936
G1 X-4.287 Y21.122 E1229.201
G1 X-4.374 Y21.209 E1229.20612
G1 X-4.438 Y21.235 E1229.20899
G1 X-4.547 Y21.25 E1229.21356
G1 X-28.749 Y21.25 E1230.21976
G0 F18000 X-29.249 Y21.75
; TYPE:WALL-OUTER
G1 F2100 X-29.249 Y21.75 E1230.21976
G1 X-29.249 Y-29.749 E1232.36084
G1 X-4.517 Y-29.749 E1233.38908
G1 X-4.304 Y-29.72 E1233.39802
G1 X-4.127 Y-29.647 E1233.40598
G1 X-3.967 Y-29.525 E1233.41434
G1 X-3.851 Y-29.374 E1233.42226
G1 X-3.777 Y-29.194 E1233.43035
G1 X-3.749 Y-28.981 E1233.43928
G1 X-3.749 Y20.982 E1235.5165
G1 X-3.777 Y21.195 E1235.52543
G1 X-3.851 Y21.375 E1235.53353
G1 X-3.967 Y21.526 E1235.54144
G1 X-4.127 Y21.648 E1235.54981
G1 X-4.304 Y21.721 E1235.55777
G1 X-4.517 Y21.75 E1235.5667
G1 X-29.249 Y21.75 E1236.59494
G0 F18000 X-28.989 Y21.4
G0 X-23.044 Y15.545
G0 X-23.044 Y15.545
; TYPE:WALL-INNER
G1 F2400 X-23.044 Y15.545 E1236.59494
G1 X-21.127 Y17.016 E1236.6954
G1 X-18.894 Y17.941 E1236.79589
G1 X-16.499 Y18.256 E1236.89632
G1 X-14.103 Y17.941 E1236.99679
G1 X-11.871 Y17.016 E1237.09724
G1 X-9.953 Y15.545 E1237.19773
G1 X-8.482 Y13.628 E1237.29819
G1 X-7.557 Y11.395 E1237.39868
G1 X-7.243 Y9 E1237.4991
G1 X-7.557 Y6.604 E1237.59957
G1 X-8.482 Y4.372 E1237.70002
G1 X-9.953 Y2.454 E1237.80051
G1 X-11.871 Y0.983 E1237.90101
G1 X-14.103 Y0.058 E1238.00145
G1 X-16.499 Y-0.257 E1238.10193
G1 X-18.894 Y0.058 E1238.20236
G1 X-21.127 Y0.983 E1238.30284
G1 X-23.044 Y2.454 E1238.4033
G1 X-24.515 Y4.372 E1238.5038
G1 X-25.44 Y6.604 E1238.60424
G1 X-25.755 Y9 E1238.70472
G1 X-25.44 Y11.395 E1238.80515
G1 X-24.515 Y13.628 E1238.90563
G1 X-23.044 Y15.545 E1239.00609
G0 F18000 X-22.389 Y15.801
G0 X-21.1 Y16.971
G0 X-18.88 Y17.89
G0 X-16.743 Y18.019
G0 X-16.545 Y18.098
G0 X-16.545 Y18.098
G0 X-16.499 Y17.752
; TYPE:WALL-OUTER
G1 F2100 X-16.499 Y17.752 E1239.00609
G1 X-14.234 Y17.454 E1239.10107
G1 X-12.123 Y16.579 E1239.19608
G1 X-10.31 Y15.188 E1239.29108
G1 X-8.919 Y13.376 E1239.38606
G1 X-8.044 Y11.264 E1239.4811
G1 X-7.747 Y9 E1239.57603
G1 X-8.044 Y6.735 E1239.67101
G1 X-8.919 Y4.624 E1239.76601
G1 X-10.31 Y2.811 E1239.86102
G1 X-12.123 Y1.42 E1239.95602
G1 X-14.234 Y0.545 E1240.05103
G1 X-16.499 Y0.247 E1240.14601
G1 X-18.763 Y0.545 E1240.24095
G1 X-20.875 Y1.42 E1240.33599
G1 X-22.687 Y2.811 E1240.43096
G1 X-24.078 Y4.624 E1240.52597
G1 X-24.953 Y6.735 E1240.62097
G1 X-25.251 Y9 E1240.71595
G1 X-24.953 Y11.264 E1240.81089
G1 X-24.078 Y13.376 E1240.90593
G1 X-22.687 Y15.188 E1241.00091
G1 X-20.875 Y16.579 E1241.09588
G1 X-18.763 Y17.454 E1241.19092
G1 X-16.499 Y17.752 E1241.28586
G1 F6600 E1234.48586
G1 Z1.4
G0 F18000 X-16.545 Y18.098
G0 X-16.544 Y18.209
G0 X-14.117 Y17.89
G0 X-11.898 Y16.971
G0 X-9.99 Y15.508
G0 X-8.527 Y13.601
G0 X-7.608 Y11.38
G0 X-7.295 Y9
G0 X-7.608 Y6.619
G0 X-8.527 Y4.399
G0 X-9.99 Y2.491
G0 X-11.898 Y1.028
G0 X-14.117 Y0.109
G0 X-16.511 Y-0.206
G0 X-16.499 Y-7.743
G0 X-16.499 Y-7.743
; TYPE:WALL-INNER
G1 Z1.1
G1 F6600 E1241.38586
G1 F2400 X-16.499 Y-7.743 E1241.38586
G1 X-14.103 Y-8.057 E1241.48633
G1 X-11.871 Y-8.982 E1241.58677
G1 X-9.953 Y-10.453 E1241.68727
G1 X-8.482 Y-12.371 E1241.78776
G1 X-7.557 Y-14.603 E1241.88821
G1 X-7.243 Y-16.999 E1241.98868
G1 X-7.557 Y-19.394 E1242.0891
G1 X-8.482 Y-21.627 E1242.18959
G1 X-9.953 Y-23.544 E1242.29005
G1 X-11.871 Y-25.015 E1242.39054
G1 X-14.103 Y-25.94 E1242.49099
G1 X-16.499 Y-26.255 E1242.59146
G1 X-18.894 Y-25.94 E1242.69189
G1 X-21.127 Y-25.015 E1242.79238
G1 X-23.044 Y-23.544 E1242.89284
G1 X-24.515 Y-21.627 E1242.9933
G1 X-25.44 Y-19.394 E1243.09379
G1 X-25.755 Y-16.999 E1243.19422
G1 X-25.44 Y-14.603 E1243.29469
G1 X-24.515 Y-12.371 E1243.39514
G1 X-23.044 Y-10.453 E1243.49563
G1 X-21.127 Y-8.982 E1243.59609
G1 X-18.894 Y-8.057 E1243.69658
G1 X-16.499 Y-7.743 E1243.797
G0 F18000 X-16.499 Y-8.247
; TYPE:WALL-OUTER
G1 F2100 X-16.499 Y-8.247 E1243.797
G1 X-14.234 Y-8.544 E1243.89198
G1 X-12.123 Y-9.419 E1243.98698
G1 X-10.31 Y-10.81 E1244.08199
G1 X-8.919 Y-12.623 E1244.17699
G1 X-8.044 Y-14.734 E1244.272
G1 X-7.747 Y-16.999 E1244.36697
G1 X-8.044 Y-19.263 E1244.4619
G1 X-8.919 Y-21.375 E1244.55695
G1 X-10.31 Y-23.187 E1244.65192
G1 X-12.123 Y-24.578 E1244.74692
G1 X-14.234 Y-25.453 E1244.84193
G1 X-16.499 Y-25.751 E1244.93691
G1 X-18.763 Y-25.453 E1245.03185
G1 X-20.875 Y-24.578 E1245.12689
G1 X-22.687 Y-23.187 E1245.22186
G1 X-24.078 Y-21.375 E1245.31684
G1 X-24.953 Y-19.263 E1245.41188
G1 X-25.251 Y-16.999 E1245.50682
G1 X-24.953 Y-14.734 E1245.6018
G1 X-24.078 Y-12.623 E1245.6968
G1 X-22.687 Y-10.81 E1245.79181
G1 X-20.875 Y-9.419 E1245.88678
G1 X-18.763 Y-8.544 E1245.98182
G1 X-16.499 Y-8.247 E1246.07676
G0 F18000 X-16.545 Y-7.901
G0 X-18.032 Y-7.499
G0 X-18.032 Y-7.499
; TYPE:FILL
G1 F2400 X-28.309 Y-7.499 E1246.50402
G0 F18000 X-28.309 Y-7.999
G1 F2400 X-19.906 Y-7.999 E1246.85338
G0 F18000 X-21.113 Y-8.499
G1 F2400 X-28.309 Y-8.499 E1247.15256
G0 F18000 X-28.309 Y-8.999
G1 F2400 X-21.872 Y-8.999 E1247.42018
G0 F18000 X-22.524 Y-9.499
G1 F2400 X-28.309 Y-9.499 E1247.66069
G0 F18000 X-28.309 Y-9.999
G1 F2400 X-23.177 Y-9.999 E1247.87405
G0 F18000 X-23.635 Y-10.499
G1 F2400 X-28.309 Y-10.499 E1248.06837
G0 F18000 X-28.309 Y-10.999
G1 F2400 X-24.018 Y-10.999 E1248.24677
G0 F18000 X-24.401 Y-11.499
G1 F2400 X-28.309 Y-11.499 E1248.40925
G0 F18000 X-28.309 Y-11.999
G1 F2400 X-24.784 Y-11.999 E1248.5558
G0 F18000 X-25.045 Y-12.499
G1 F2400 X-28.309 Y-12.499 E1248.6915
G0 F18000 X-28.309 Y-12.999
G1 F2400 X-25.252 Y-12.999 E1248.8186
G0 F18000 X-25.459 Y-13.499
G1 F2400 X-28.309 Y-13.499 E1248.93709
G0 F18000 X-28.309 Y-13.999
G1 F2400 X-25.667 Y-13.999 E1249.04693
G0 F18000 X-25.871 Y-14.499
G1 F2400 X-28.309 Y-14.499 E1249.14829
G0 F18000 X-28.309 Y-14.999
G1 F2400 X-25.936 Y-14.999 E1249.24695
G0 F18000 X-26.002 Y-15.499
G1 F2400 X-28.309 Y-15.499 E1249.34286
G0 F18000 X-28.309 Y-15.999
G1 F2400 X-26.068 Y-15.999 E1249.43603
G0 F18000 X-26.133 Y-16.5
G1 F2400 X-28.309 Y-16.5 E1249.5265
G0 F18000 X-28.309 Y-17
G1 F2400 X-26.199 Y-17 E1249.61422
G0 F18000 X-26.133 Y-17.5
G1 F2400 X-28.309 Y-17.5 E1249.70469
G0 F18000 X-28.309 Y-18
G1 F2400 X-26.067 Y-18 E1249.7979
G0 F18000 X-26.002 Y-18.5
G1 F2400 X-28.309 Y-18.5 E1249.89381
G0 F18000 X-28.309 Y-19
G1 F2400 X-25.936 Y-19 E1249.99247
G0 F18000 X-25.87 Y-19.5
G1 F2400 X-28.309 Y-19.5 E1250.09387
G0 F18000 X-28.309 Y-20
G1 F2400 X-25.666 Y-20 E1250.20376
G0 F18000 X-25.458 Y-20.5
G1 F2400 X-28.309 Y-20.5 E1250.32229
G0 F18000 X-28.309 Y-21
G1 F2400 X-25.251 Y-21 E1250.44943
G0 F18000 X-25.044 Y-21.5
G1 F2400 X-28.309 Y-21.5 E1250.58517
G0 F18000 X-28.309 Y-22
G1 F2400 X-24.782 Y-22 E1250.7318
G0 F18000 X-24.399 Y-22.5
G1 F2400 X-28.309 Y-22.5 E1250.89436
G0 F18000 X-28.309 Y-23
G1 F2400 X-24.016 Y-23 E1251.07284
G0 F18000 X-23.632 Y-23.5
G1 F2400 X-28.309 Y-23.5 E1251.26729
G0 F18000 X-28.309 Y-24
G1 F2400 X-23.173 Y-24 E1251.48082
G0 F18000 X-22.52 Y-24.5
G1 F2400 X-28.309 Y-24.5 E1251.7215
G0 F18000 X-28.309 Y-25
G1 F2400 X-21.868 Y-25 E1251.98929
G0 F18000 X-21.106 Y-25.5
G1 F2400 X-28.309 Y-25.5 E1252.28875
G0 F18000 X-28.309 Y-26
G1 F2400 X-19.899 Y-26 E1252.6384
G0 F18000 X-18.013 Y-26.5
G0 X-18.013 Y-26.5
G1 F2400 X-28.309 Y-26.5 E1253.06646
G0 F18000 X-28.309 Y-27
G1 F2400 X-4.688 Y-27 E1254.0485
G0 F18000 X-4.688 Y-26.5
G1 F2400 X-14.984 Y-26.5 E1254.47656
G0 F18000 X-13.097 Y-26
G0 X-13.097 Y-26
G1 F2400 X-4.688 Y-26 E1254.82617
G0 F18000 X-4.688 Y-25.5
G1 F2400 X-11.891 Y-25.5 E1255.12563
G0 F18000 X-11.129 Y-25
G1 F2400 X-4.688 Y-25 E1255.39342
G0 F18000 X-4.688 Y-24.5
G1 F2400 X-10.476 Y-24.5 E1255.63406
G0 F18000 X-9.823 Y-24
G1 F2400 X-4.688 Y-24 E1255.84755
G0 F18000 X-4.688 Y-23.5
G1 F2400 X-9.364 Y-23.5 E1256.04195
G0 F18000 X-8.98 Y-23
G1 F2400 X-4.688 Y-23 E1256.22039
G0 F18000 X-4.688 Y-22.5
G1 F2400 X-8.597 Y-22.5 E1256.38291
G0 F18000 X-8.214 Y-22
G1 F2400 X-4.688 Y-22 E1256.5295
G0 F18000 X-4.688 Y-21.5
G1 F2400 X-7.952 Y-21.5 E1256.6652
G0 F18000 X-7.745 Y-21
G1 F2400 X-4.688 Y-21 E1256.7923
G0 F18000 X-4.688 Y-20.5
G1 F2400 X-7.538 Y-20.5 E1256.91079
G0 F18000 X-7.331 Y-20
G1 F2400 X-4.688 Y-20 E1257.02067
G0 F18000 X-4.688 Y-19.5
G1 F2400 X-7.126 Y-19.5 E1257.12203
G0 F18000 X-7.06 Y-19
G1 F2400 X-4.688 Y-19 E1257.22065
G0 F18000 X-4.688 Y-18.5
G1 F2400 X-6.995 Y-18.5 E1257.31656
G0 F18000 X-6.929 Y-18
G1 F2400 X-4.688 Y-18 E1257.40973
G0 F18000 X-4.688 Y-17.5
G1 F2400 X-6.864 Y-17.5 E1257.5002
G0 F18000 X-6.798 Y-17
G1 F2400 X-4.688 Y-17 E1257.58792
G0 F18000 X-4.688 Y-16.5
G1 F2400 X-6.863 Y-16.5 E1257.67835
G0 F18000 X-6.929 Y-16
G1 F2400 X-4.688 Y-16 E1257.77152
G0 F18000 X-4.688 Y-15.5
