; Generated with MatterSlice 1.0
; filamentDiameter = 1.75
; extrusionWidth = 0.5
; firstLayerExtrusionWidth = 0.4
; layerThickness = 0.1
; firstLayerThickness = 0.3
; automatic settings before start_gcode
G21 ; set units to millimeters
M107 ; fan off
T0 ; set the active extruder to 0
; settings from start_gcode
M104 S190
M190 S60
M109 S190
G28
; automatic settings after start_gcode
T0 ; set the active extruder to 0
G90 ; use absolute coordinates
G92 E0 ; reset the expected extruder position
M82 ; use absolute distance for extrusion
; Layer count: 238
; Layer Change GCode
; LAYER:0
G4 P0
M107
G0 F18000 X14.6 Y26.6 Z0.6
; TYPE:SKIRT
G1 Z0.3
G1 F6600 E0
G1 F720 X-14.599 Y26.6 E1.45674
G1 X-14.599 Y-26.598 E4.1108
G1 X14.6 Y-26.598 E5.56755
G1 X14.6 Y26.6 E8.22161
G0 F18000 X14.2 Y26.2
G1 F720 X-14.199 Y26.2 E9.63844
G1 X-14.199 Y-26.198 E12.25258
G1 X14.2 Y-26.198 E13.66942
G1 X14.2 Y26.2 E16.28356
G1 F6600 E9.48356
G1 Z0.6
G0 F18000 X-10.799 Y22.8
; TYPE:WALL-OUTER
G1 Z0.3
G1 F6600 E16.38356
G1 F720 X-10.799 Y22.8 E16.38356
G1 X-10.799 Y-22.798 E18.65846
G1 X10.8 Y-22.798 E19.73604
G1 X10.8 Y22.8 E22.01093
G1 X-10.799 Y22.8 E23.08851
G0 F18000 X-10.399 Y22.4
; TYPE:WALL-INNER
G1 F720 X-10.399 Y22.4 E23.08851
G1 X-10.399 Y-22.398 E25.32349
G1 X10.4 Y-22.398 E26.36115
G1 X10.4 Y22.4 E28.59614
G1 X-10.399 Y22.4 E29.6338
G0 F18000 X-1.559 Y21.692
G0 X-1.161 Y21.66
G0 X0.874 Y21.498
G0 X0.874 Y21.498
G0 X0.915 Y21.202
; TYPE:WALL-OUTER
G1 F720 X0.915 Y21.202 E29.6338
G1 X3.04 Y20.944 E29.7406
G1 X5.027 Y20.146 E29.84743
G1 X6.739 Y18.859 E29.95428
G1 X8.06 Y17.175 E30.06106
G1 X8.899 Y15.205 E30.16789
G1 X9.201 Y13.085 E30.27472
G1 X8.943 Y10.96 E30.38152
G1 X8.145 Y8.973 E30.48834
G1 X6.858 Y7.261 E30.5952
G1 X5.174 Y5.94 E30.70198
G1 X3.204 Y5.101 E30.80881
G1 X1.084 Y4.799 E30.91564
G1 X-1.04 Y5.057 E31.02239
G1 X-3.027 Y5.855 E31.12921
G1 X-4.739 Y7.142 E31.23607
G1 X-6.06 Y8.826 E31.34285
G1 X-6.899 Y10.796 E31.44967
G1 X-7.201 Y12.916 E31.55651
G1 X-6.943 Y15.041 E31.6633
G1 X-6.145 Y17.028 E31.77013
G1 X-4.858 Y18.74 E31.87699
G1 X-3.174 Y20.061 E31.98377
G1 X-1.204 Y20.9 E32.09059
G1 X0.915 Y21.202 E32.19738
G0 F18000 X0.911 Y21.605
; TYPE:WALL-INNER
G1 F720 X0.911 Y21.605 E32.19738
G1 X3.141 Y21.335 E32.30945
G1 X5.225 Y20.497 E32.42151
G1 X7.022 Y19.147 E32.53364
G1 X8.407 Y17.38 E32.64565
G1 X9.288 Y15.314 E32.7577
G1 X9.604 Y13.089 E32.86982
G1 X9.334 Y10.859 E32.98189
G1 X8.496 Y8.775 E33.09395
G1 X7.146 Y6.978 E33.20609
G1 X5.379 Y5.593 E33.3181
G1 X3.313 Y4.712 E33.43015
G1 X1.088 Y4.396 E33.54227
G1 X-1.141 Y4.666 E33.65429
G1 X-3.225 Y5.504 E33.76635
G1 X-5.022 Y6.854 E33.87848
G1 X-6.407 Y8.621 E33.99049
G1 X-7.288 Y10.687 E34.10254
G1 X-7.604 Y12.912 E34.21466
G1 X-7.334 Y15.142 E34.32673
G1 X-6.496 Y17.226 E34.43879
G1 X-5.146 Y19.023 E34.55093
G1 X-3.379 Y20.408 E34.66294
G1 X-1.313 Y21.289 E34.77499
G1 X0.911 Y21.605 E34.88706
G1 F6600 E28.08706
G1 Z0.6
G0 F18000 X0.91 Y21.603
G0 X0.911 Y21.603
G0 X-1.311 Y21.287
G0 X-3.377 Y20.406
G0 X-5.144 Y19.021
G0 X-6.494 Y17.225
G0 X-7.332 Y15.14
G0 X-7.602 Y12.912
G0 X-7.286 Y10.689
G0 X-6.405 Y8.623
G0 X-5.02 Y6.856
G0 X-3.224 Y5.506
G0 X-1.139 Y4.668
G0 X0.486 Y4.469
G0 X0.266 Y-4.419
G0 X0.256 Y-4.819
G0 X0.265 Y-4.532
G0 X0.265 Y-4.532
G0 X0.328 Y-4.824
; TYPE:WALL-OUTER
G1 Z0.3
G1 F6600 E34.98706
G1 F720 X0.328 Y-4.824 E34.98706
G1 X2.466 Y-4.93 E35.09386
G1 X4.505 Y-5.584 E35.20069
G1 X6.304 Y-6.744 E35.30748
G1 X7.743 Y-8.33 E35.41432
G1 X8.721 Y-10.234 E35.52111
G1 X9.174 Y-12.327 E35.62795
G1 X9.068 Y-14.465 E35.73474
G1 X8.414 Y-16.504 E35.84158
G1 X7.254 Y-18.303 E35.94837
G1 X5.668 Y-19.742 E36.05521
G1 X3.764 Y-20.72 E36.162
G1 X1.671 Y-21.173 E36.26884
G1 X-0.466 Y-21.067 E36.37558
G1 X-2.505 Y-20.413 E36.48241
G1 X-4.304 Y-19.253 E36.58921
G1 X-5.743 Y-17.667 E36.69605
G1 X-6.721 Y-15.763 E36.80284
G1 X-7.174 Y-13.67 E36.90968
G1 X-7.068 Y-11.532 E37.01647
G1 X-6.414 Y-9.493 E37.1233
G1 X-5.254 Y-7.694 E37.2301
G1 X-3.668 Y-6.255 E37.33694
G1 X-1.764 Y-5.277 E37.44373
G1 X0.328 Y-4.824 E37.55051
G0 F18000 X0.295 Y-4.422
; TYPE:WALL-INNER
G1 F720 X0.295 Y-4.422 E37.55051
G1 X2.538 Y-4.533 E37.66256
G1 X4.678 Y-5.219 E37.77467
G1 X6.565 Y-6.437 E37.88672
G1 X8.075 Y-8.1 E37.99879
G1 X9.101 Y-10.098 E38.11084
G1 X9.576 Y-12.294 E38.22294
G1 X9.465 Y-14.537 E38.33498
G1 X8.779 Y-16.677 E38.44709
G1 X7.561 Y-18.564 E38.55915
G1 X5.898 Y-20.074 E38.67121
G1 X3.9 Y-21.1 E38.78327
G1 X1.704 Y-21.575 E38.89536
G1 X-0.538 Y-21.464 E39.00735
G1 X-2.678 Y-20.778 E39.11947
G1 X-4.565 Y-19.56 E39.23152
G1 X-6.075 Y-17.897 E39.34358
G1 X-7.101 Y-15.899 E39.45564
G1 X-7.576 Y-13.703 E39.56773
G1 X-7.465 Y-11.46 E39.67977
G1 X-6.779 Y-9.32 E39.79189
G1 X-5.561 Y-7.433 E39.90394
G1 X-3.898 Y-5.923 E40.01601
G1 X-1.9 Y-4.897 E40.12806
G1 X0.295 Y-4.422 E40.2401
G0 F18000 X-1.21 Y-4.4
G0 X-1.21 Y-4.4
; TYPE:BOTTOM-FILL
G1 F720 X-10.058 Y-4.399 E40.68153
G0 F18000 X-10.058 Y-3.999
G1 F720 X10.06 Y-4 E41.68522
G0 F18000 X10.06 Y-4.4
G1 F720 X3.236 Y-4.4 E42.02567
G0 F18000 X4.487 Y-4.8
G1 F720 X10.06 Y-4.8 E42.30371
G0 F18000 X10.06 Y-5.2
G1 F720 X5.276 Y-5.2 E42.54239
G0 F18000 X5.896 Y-5.6
G1 F720 X10.06 Y-5.6 E42.75013
G0 F18000 X10.06 Y-6
G1 F720 X6.515 Y-6 E42.92699
G0 F18000 X6.992 Y-6.4
G1 F720 X10.06 Y-6.4 E43.08005
G0 F18000 X10.06 Y-6.8
G1 F720 X7.355 Y-6.8 E43.21501
G0 F18000 X7.719 Y-7.2
G1 F720 X10.06 Y-7.2 E43.3318
G0 F18000 X10.06 Y-7.6
G1 F720 X8.082 Y-7.6 E43.43048
G0 F18000 X8.408 Y-8
G1 F720 X10.06 Y-8 E43.5129
G0 F18000 X10.06 Y-8.4
G1 F720 X8.613 Y-8.4 E43.58509
G0 F18000 X8.818 Y-8.8
G1 F720 X10.06 Y-8.8 E43.64706
G0 F18000 X10.06 Y-9.2
G1 F720 X9.023 Y-9.2 E43.69879
G0 F18000 X9.229 Y-9.6
G1 F720 X10.06 Y-9.6 E43.74025
G0 F18000 X10.06 Y-10
G1 F720 X9.471 Y-10.2 E43.77175
G1 X10.06 Y-10.6 E43.79901
G1 X9.644 Y-11 E43.8219
G1 X10.06 Y-11.4 E43.84047
G1 X9.817 Y-11.8 E43.85472
G1 X10.06 Y-12.2 E43.86464
G1 X9.901 Y-12.6 E43.87205
G1 X10.06 Y-13 E43.88048
G1 X9.862 Y-13.4 E43.88983
G1 X10.06 Y-13.8 E43.90018
G1 X9.822 Y-14.2 E43.91156
G1 X10.06 Y-14.6 E43.92393
G1 X9.673 Y-15 E43.93996
G1 X10.059 Y-15.4 E43.96243
G1 X9.416 Y-15.8 E43.99123
G1 X10.059 Y-16 E44.02483
G0 F18000 X10.059 Y-16.4
G1 F720 X9.224 Y-16.4 E44.06649
G0 F18000 X9.096 Y-16.8
G1 F720 X10.059 Y-16.8 E44.11453
G0 F18000 X10.059 Y-17.2
G1 F720 X8.846 Y-17.2 E44.17505
G0 F18000 X8.587 Y-17.6
G1 F720 X10.059 Y-17.6 E44.24849
G0 F18000 X10.059 Y-18
G1 F720 X8.329 Y-18 E44.3348
G0 F18000 X8.071 Y-18.4
G1 F720 X10.059 Y-18.4 E44.43398
G0 F18000 X10.059 Y-18.8
G1 F720 X7.807 Y-18.8 E44.54633
G0 F18000 X7.366 Y-19.2
G1 F720 X10.059 Y-19.2 E44.68069
G0 F18000 X10.059 Y-19.6
G1 F720 X6.926 Y-19.6 E44.83699
G0 F18000 X6.486 Y-20
G1 F720 X10.059 Y-20 E45.01525
G0 F18000 X10.059 Y-20.4
G1 F720 X6.009 Y-20.4 E45.21731
G0 F18000 X5.23 Y-20.8
G1 F720 X10.059 Y-20.8 E45.45823
G0 F18000 X10.059 Y-21.2
G1 F720 X4.451 Y-21.2 E45.73801
G0 F18000 X3.195 Y-21.6
G1 F720 X10.059 Y-21.6 E46.08046
G0 F18000 X10.059 Y-22
G1 F720 X-10.058 Y-22 E47.0841
G0 F18000 X-10.058 Y-21.6
G1 F720 X-1.227 Y-21.6 E47.52468
G0 F18000 X-2.476 Y-21.2
G1 F720 X-10.058 Y-21.2 E47.90295
G0 F18000 X-10.058 Y-20.8
G1 F720 X-3.271 Y-20.8 E48.24155
G0 F18000 X-3.89 Y-20.4
G1 F720 X-10.058 Y-20.4 E48.54927
G0 F18000 X-10.058 Y-20
G1 F720 X-4.51 Y-20 E48.82606
G0 F18000 X-4.988 Y-19.6
G1 F720 X-10.058 Y-19.6 E49.07901
G0 F18000 X-10.058 Y-19.2
G1 F720 X-5.351 Y-19.2 E49.31384
G0 F18000 X-5.715 Y-18.8
G1 F720 X-10.058 Y-18.8 E49.53051
G0 F18000 X-10.058 Y-18.4
G1 F720 X-6.078 Y-18.4 E49.72908
G0 F18000 X-6.405 Y-18
G1 F720 X-10.058 Y-18 E49.91133
G0 F18000 X-10.058 Y-17.6
G1 F720 X-6.61 Y-17.6 E50.08335
G0 F18000 X-6.815 Y-17.2
G1 F720 X-10.058 Y-17.2 E50.24514
G0 F18000 X-10.058 Y-16.8
G1 F720 X-7.021 Y-16.8 E50.39666
G0 F18000 X-7.226 Y-16.4
G1 F720 X-10.058 Y-16.4 E50.53795
G0 F18000 X-10.058 Y-16
G1 F720 X-7.426 Y-16 E50.66926
G0 F18000 X-7.512 Y-15.6
G1 F720 X-10.058 Y-15.6 E50.79628
G0 F18000 X-10.058 Y-15.2
G1 F720 X-7.599 Y-15.2 E50.91896
G0 F18000 X-7.686 Y-14.8
G1 F720 X-10.058 Y-14.8 E51.0373
G0 F18000 X-10.058 Y-14.4
G1 F720 X-7.772 Y-14.4 E51.15135
G0 F18000 X-7.859 Y-14
G1 F720 X-10.058 Y-14 E51.26105
G0 F18000 X-10.058 Y-13.6
G1 F720 X-7.911 Y-13.6 E51.36817
G0 F18000 X-7.891 Y-13.2
G1 F720 X-10.058 Y-13.2 E51.47628
G0 F18000 X-10.058 Y-12.8
G1 F720 X-7.871 Y-12.8 E51.58539
G0 F18000 X-7.851 Y-12.4
G1 F720 X-10.058 Y-12.4 E51.6955
G0 F18000 X-10.058 Y-12
G1 F720 X-7.831 Y-12 E51.8066
G0 F18000 X-7.811 Y-11.6
G1 F720 X-10.058 Y-11.6 E51.91871
G0 F18000 X-10.058 Y-11.2
G1 F720 X-7.738 Y-11.2 E52.03445
G0 F18000 X-7.61 Y-10.8
G1 F720 X-10.058 Y-10.8 E52.15658
G0 F18000 X-10.058 Y-10.4
G1 F720 X-7.481 Y-10.4 E52.28515
G0 F18000 X-7.353 Y-10
G1 F720 X-10.058 Y-10 E52.4201
G0 F18000 X-10.058 Y-9.6
G1 F720 X-7.225 Y-9.6 E52.56144
G0 F18000 X-7.097 Y-9.2
G1 F720 X-10.058 Y-9.2 E52.70917
G0 F18000 X-10.058 Y-8.8
G1 F720 X-6.848 Y-8.8 E52.86932
G0 F18000 X-6.59 Y-8.4
G1 F720 X-10.058 Y-8.4 E53.04233
G0 F18000 X-10.058 Y-7.999
G1 F720 X-6.332 Y-8 E53.22823
G0 F18000 X-6.074 Y-7.6
G1 F720 X-10.058 Y-7.599 E53.42699
G0 F18000 X-10.058 Y-7.199
G1 F720 X-5.811 Y-7.2 E53.63887
G0 F18000 X-5.37 Y-6.8
G1 F720 X-10.058 Y-6.799 E53.87276
G0 F18000 X-10.058 Y-6.399
G1 F720 X-4.93 Y-6.4 E54.12859
G0 F18000 X-4.489 Y-6
G1 F720 X-10.058 Y-5.999 E54.40643
G0 F18000 X-10.058 Y-5.599
G1 F720 X-4.015 Y-5.6 E54.70792
G0 F18000 X-3.236 Y-5.2
G1 F720 X-10.058 Y-5.199 E55.04827
G0 F18000 X-10.058 Y-4.799
G1 F720 X-2.456 Y-4.8 E55.42754
G0 F18000 X-10.058 Y-3.599
G0 X-10.058 Y-3.599
G1 F720 X10.06 Y-3.6 E56.43123
G0 F18000 X10.06 Y-3.2
G1 F720 X-10.058 Y-3.199 E57.43492
G0 F18000 X-10.058 Y-2.799
G1 F720 X10.06 Y-2.8 E58.43861
G0 F18000 X10.06 Y-2.4
G1 F720 X-10.058 Y-2.399 E59.4423
G0 F18000 X-10.058 Y-1.999
G1 F720 X10.06 Y-2 E60.44599
G0 F18000 X10.06 Y-1.6
G1 F720 X-10.058 Y-1.599 E61.44968
G0 F18000 X-10.058 Y-1.199
G1 F720 X10.06 Y-1.2 E62.45337
G0 F18000 X10.06 Y-0.8
G1 F720 X-10.058 Y-0.799 E63.45706
G0 F18000 X-10.058 Y-0.399
G1 F720 X10.06 Y-0.4 E64.46076
G0 F18000 X10.06 Y0
G1 F720 X-10.058 Y0 E65.46445
G0 F18000 X-10.059 Y0.4
G1 F720 X10.06 Y0.399 E66.46819
G0 F18000 X10.06 Y0.799
G1 F720 X-10.059 Y0.8 E67.47193
G0 F18000 X-10.059 Y1.2
G1 F720 X10.06 Y1.199 E68.47567
G0 F18000 X10.06 Y1.599
G1 F720 X-10.059 Y1.6 E69.47941
G0 F18000 X-10.059 Y2
G1 F720 X10.06 Y1.999 E70.48315
G0 F18000 X10.06 Y2.399
G1 F720 X-10.059 Y2.4 E71.48689
G0 F18000 X-10.059 Y2.8
G1 F720 X10.06 Y2.799 E72.49063
G0 F18000 X10.06 Y3.199
G1 F720 X-10.059 Y3.2 E73.49437
G0 F18000 X-10.059 Y3.6
G1 F720 X10.06 Y3.599 E74.49812
G0 F18000 X10.06 Y3.999
G1 F720 X-10.059 Y4 E75.50186
G0 F18000 X-10.059 Y4.4
G1 F720 X-1.39 Y4.4 E75.93435
G0 F18000 X-2.384 Y4.8
G1 F720 X-10.059 Y4.8 E76.31726
G0 F18000 X-10.059 Y5.2
G1 F720 X-3.378 Y5.2 E76.65058
G0 F18000 X-3.917 Y5.6
G1 F720 X-10.059 Y5.6 E76.957
G0 F18000 X-10.059 Y6
G1 F720 X-4.45 Y6 E77.23684
G0 F18000 X-4.983 Y6.4
G1 F720 X-10.059 Y6.4 E77.49008
G0 F18000 X-10.059 Y6.8
G1 F720 X-5.411 Y6.8 E77.72197
G0 F18000 X-5.725 Y7.2
G1 F720 X-10.059 Y7.2 E77.93819
G0 F18000 X-10.059 Y7.6
G1 F720 X-6.037 Y7.6 E78.13885
G0 F18000 X-6.351 Y8
G1 F720 X-10.059 Y8 E78.32385
G0 F18000 X-10.059 Y8.4
G1 F720 X-6.665 Y8.4 E78.49317
G0 F18000 X-6.852 Y8.8
G1 F720 X-10.059 Y8.8 E78.65317
G0 F18000 X-10.059 Y9.2
G1 F720 X-7.022 Y9.2 E78.80469
G0 F18000 X-7.193 Y9.6
G1 F720 X-10.059 Y9.6 E78.94767
G0 F18000 X-10.059 Y10
G1 F720 X-7.363 Y10 E79.08218
G0 F18000 X-7.534 Y10.4
G1 F720 X-10.059 Y10.4 E79.20815
G0 F18000 X-10.059 Y10.8
G1 F720 X-7.647 Y10.8 E79.32848
G0 F18000 X-7.703 Y11.2
G1 F720 X-10.059 Y11.2 E79.44603
G0 F18000 X-10.059 Y11.6
G1 F720 X-7.76 Y11.6 E79.56072
G0 F18000 X-7.817 Y12
G1 F720 X-10.059 Y12 E79.67258
G0 F18000 X-10.059 Y12.4
G1 F720 X-7.873 Y12.4 E79.78164
G0 F18000 X-7.93 Y12.8
G1 F720 X-10.059 Y12.8 E79.88785
G0 F18000 X-10.059 Y13.2
G1 F720 X-7.909 Y13.2 E79.99512
G0 F18000 X-7.861 Y13.6
G1 F720 X-10.059 Y13.6 E80.10478
G0 F18000 X-10.059 Y14
G1 F720 X-7.813 Y14 E80.21683
G0 F18000 X-7.765 Y14.4
G1 F720 X-10.059 Y14.4 E80.33128
G0 F18000 X-10.059 Y14.8
G1 F720 X-7.717 Y14.8 E80.44812
G0 F18000 X-7.668 Y15.2
G1 F720 X-10.058 Y15.2 E80.56736
G0 F18000 X-10.058 Y15.6
G1 F720 X-7.515 Y15.6 E80.69423
G0 F18000 X-7.354 Y16
G1 F720 X-10.058 Y16 E80.82913
G0 F18000 X-10.058 Y16.4
G1 F720 X-7.193 Y16.4 E80.97207
G0 F18000 X-7.032 Y16.8
G1 F720 X-10.058 Y16.8 E81.12304
G0 F18000 X-10.058 Y17.2
G1 F720 X-6.871 Y17.2 E81.28204
G0 F18000 X-6.639 Y17.6
G1 F720 X-10.058 Y17.6 E81.45261
G0 F18000 X-10.058 Y18
G1 F720 X-6.338 Y18 E81.6382
G0 F18000 X-6.038 Y18.4
G1 F720 X-10.058 Y18.4 E81.83876
G0 F18000 X-10.058 Y18.8
G1 F720 X-5.737 Y18.8 E82.05434
G0 F18000 X-5.436 Y19.2
G1 F720 X-10.058 Y19.2 E82.28493
G0 F18000 X-10.058 Y19.6
G1 F720 X-4.959 Y19.6 E82.53932
G0 F18000 X-4.449 Y20
G1 F720 X-10.058 Y20 E82.81915
G0 F18000 X-10.058 Y20.4
G1 F720 X-3.939 Y20.4 E83.12443
G0 F18000 X-3.325 Y20.8
G1 F720 X-10.058 Y20.8 E83.46034
G0 F18000 X-10.058 Y21.2
G1 F720 X-2.387 Y21.2 E83.84305
G0 F18000 X-1.449 Y21.6
G1 F720 X-10.058 Y21.6 E84.27255
G0 F18000 X-10.058 Y22
G1 F720 X0.91 Y22 E84.81975
G0 F18000 X0.912 Y22
G1 F720 X10.059 Y22 E85.2761
G0 F18000 X10.059 Y21.6
G1 F720 X3.393 Y21.6 E85.60866
G0 F18000 X4.387 Y21.2
G1 F720 X10.059 Y21.2 E85.89164
G0 F18000 X10.059 Y20.8
G1 F720 X5.381 Y20.8 E86.12503
G0 F18000 X5.919 Y20.4
G1 F720 X10.059 Y20.4 E86.33157
G0 F18000 X10.059 Y20
G1 F720 X6.451 Y20 E86.51158
G0 F18000 X6.983 Y19.6
G1 F720 X10.059 Y19.6 E86.66504
G0 F18000 X10.059 Y19.2
G1 F720 X7.411 Y19.2 E86.79715
G0 F18000 X7.725 Y18.8
G1 F720 X10.059 Y18.8 E86.91359
G0 F18000 X10.059 Y18.4
G1 F720 X8.038 Y18.4 E87.01442
G0 F18000 X8.352 Y18
G1 F720 X10.059 Y18 E87.09958
G0 F18000 X10.059 Y17.6
G1 F720 X8.666 Y17.6 E87.16908
G0 F18000 X8.852 Y17.2
G1 F720 X10.06 Y17.2 E87.22935
G0 F18000 X10.06 Y16.8
G1 F720 X9.023 Y16.8 E87.28108
G0 F18000 X9.193 Y16.4
G1 F720 X10.06 Y16.4 E87.32434
G0 F18000 X10.06 Y16
G1 F720 X9.449 Y15.8 E87.35906
G1 X10.06 Y15.4 E87.38529
G1 X9.675 Y15 E87.40586
G1 X10.06 Y14.6 E87.42358
G1 X9.788 Y14.2 E87.43855
G1 X10.06 Y13.8 E87.45067
G1 X9.902 Y13.4 E87.45995
G1 X10.06 Y13 E87.46639
G1 X9.887 Y12.6 E87.47384
G1 X10.06 Y12.2 E87.48367
G1 X9.79 Y11.8 E87.49595
G1 X10.06 Y11.4 E87.51058
G1 X9.693 Y11 E87.52764
G1 X10.06 Y10.6 E87.54714
G1 X9.435 Y10.2 E87.57426
G1 X10.06 Y10 E87.607
G0 F18000 X10.06 Y9.6
G1 F720 X9.194 Y9.6 E87.6502
G0 F18000 X9.033 Y9.2
G1 F720 X10.06 Y9.2 E87.70144
G0 F18000 X10.06 Y8.8
G1 F720 X8.872 Y8.8 E87.76071
G0 F18000 X8.639 Y8.4
G1 F720 X10.06 Y8.4 E87.8316
G0 F18000 X10.06 Y7.999
G1 F720 X8.339 Y7.999 E87.91747
G0 F18000 X8.038 Y7.599
G1 F720 X10.06 Y7.599 E88.01834
G0 F18000 X10.06 Y7.199
G1 F720 X7.737 Y7.199 E88.13424
G0 F18000 X7.437 Y6.799
G1 F720 X10.06 Y6.799 E88.2651
G0 F18000 X10.06 Y6.399
G1 F720 X6.959 Y6.4 E88.41981
G0 F18000 X6.449 Y6
G1 F720 X10.06 Y5.999 E88.59996
G0 F18000 X10.06 Y5.599
G1 F720 X5.939 Y5.6 E88.80556
G0 F18000 X5.324 Y5.2
G1 F720 X10.06 Y5.199 E89.04184
G0 F18000 X10.06 Y4.799
G1 F720 X4.385 Y4.8 E89.32497
G0 F18000 X3.447 Y4.4
G1 F720 X10.06 Y4.399 E89.65489
; Layer Change GCode
; LAYER:1
G1 F6600 E82.85489
G1 Z0.6
G0 F18000 X7.203 Y6.9 Z0.7
G0 X5.429 Y5.508
G0 X3.339 Y4.617
G0 X1.089 Y4.297
G0 X-1.164 Y4.571
G0 X-3.274 Y5.418
G0 X-5.09 Y6.784
G0 X-6.492 Y8.571
G0 X-7.383 Y10.661
G0 X-7.703 Y12.911
G0 X-7.429 Y15.165
G0 X-6.582 Y17.275
G0 X-5.81 Y18.3
G0 X-10.348 Y22.276
G0 X-10.649 Y22.539
G0 X-10.489 Y22.4
G0 X-10.489 Y22.4
G0 X-10.749 Y22.75
G0 X-10.749 Y22.75
G0 X-10.249 Y22.25
; TYPE:WALL-INNER
G1 Z0.4
G1 F6600 E89.75489
G1 F1776 X-10.249 Y22.25 E89.75489
G1 X-10.249 Y-22.248 E90.6799
G1 X10.25 Y-22.248 E91.10602
G1 X10.25 Y22.25 E92.03103
G1 X-10.249 Y22.25 E92.45715
G0 F18000 X-10.749 Y22.75
; TYPE:WALL-OUTER
G1 F1554 X-10.749 Y22.75 E92.45715
G1 X-10.749 Y-22.748 E93.40295
G1 X10.75 Y-22.748 E93.84986
G1 X10.75 Y22.75 E94.79565
G1 X-10.749 Y22.75 E95.24256
G0 F18000 X-10.489 Y22.4
G0 X-5.254 Y19.128
G0 X-5.254 Y19.128
; TYPE:WALL-INNER
G1 F1776 X-5.254 Y19.128 E95.24256
G1 X-3.456 Y20.538 E95.29006
G1 X-1.353 Y21.435 E95.33759
G1 X0.909 Y21.756 E95.38508
G1 X3.178 Y21.482 E95.43259
G1 X5.299 Y20.629 E95.48011
G1 X7.127 Y19.255 E95.52765
G1 X8.537 Y17.457 E95.57515
G1 X9.434 Y15.354 E95.62268
G1 X9.755 Y13.091 E95.67019
G1 X9.481 Y10.822 E95.7177
G1 X8.628 Y8.701 E95.76522
G1 X7.254 Y6.873 E95.81276
G1 X5.456 Y5.463 E95.86026
G1 X3.353 Y4.566 E95.90778
G1 X1.09 Y4.245 E95.9553
G1 X-1.178 Y4.519 E96.00279
G1 X-3.299 Y5.372 E96.05031
G1 X-5.127 Y6.746 E96.09785
G1 X-6.537 Y8.544 E96.14534
G1 X-7.434 Y10.647 E96.19287
G1 X-7.755 Y12.91 E96.24038
G1 X-7.481 Y15.179 E96.28789
G1 X-6.628 Y17.3 E96.33542
G1 X-5.254 Y19.128 E96.38295
G0 F18000 X-4.608 Y19.387
G0 X-3.429 Y20.493
G0 X-1.339 Y21.384
G0 X0.665 Y21.516
G0 X0.864 Y21.598
G0 X0.864 Y21.598
G0 X0.914 Y21.252
; TYPE:WALL-OUTER
G1 F1554 X0.914 Y21.252 E96.38295
G1 X3.053 Y20.993 E96.42774
G1 X5.052 Y20.19 E96.47252
G1 X6.774 Y18.895 E96.51731
G1 X8.103 Y17.2 E96.56209
G1 X8.948 Y15.219 E96.60686
G1 X9.251 Y13.086 E96.65164
G1 X8.992 Y10.947 E96.69643
G1 X8.189 Y8.948 E96.74121
G1 X6.894 Y7.226 E96.786
G1 X5.199 Y5.897 E96.83078
G1 X3.218 Y5.052 E96.87555
G1 X1.085 Y4.749 E96.92033
G1 X-1.053 Y5.008 E96.9651
G1 X-3.052 Y5.811 E97.00988
G1 X-4.774 Y7.106 E97.05467
G1 X-6.103 Y8.801 E97.09945
G1 X-6.948 Y10.782 E97.14422
G1 X-7.251 Y12.915 E97.189
G1 X-6.992 Y15.054 E97.23379
G1 X-6.189 Y17.053 E97.27857
G1 X-4.894 Y18.775 E97.32336
G1 X-3.199 Y20.104 E97.36814
G1 X-1.218 Y20.949 E97.41291
G1 X0.914 Y21.252 E97.45767
G1 F6600 E90.65767
G1 Z0.7
G0 F18000 X0.864 Y21.598
G0 X0.865 Y21.709
G0 X0.91 Y21.704
G0 X-1.339 Y21.384
G0 X-3.429 Y20.493
G0 X-5.216 Y19.091
G0 X-6.582 Y17.275
G0 X-7.429 Y15.165
G0 X-7.703 Y12.911
G0 X-7.383 Y10.661
G0 X-6.492 Y8.571
G0 X-5.09 Y6.784
G0 X-3.274 Y5.418
G0 X-1.164 Y4.571
G0 X0.476 Y4.369
G0 X0.283 Y-4.271
G0 X0.283 Y-4.271
; TYPE:WALL-INNER
G1 Z0.4
G1 F6600 E97.55767
G1 F1776 X0.283 Y-4.271 E97.55767
G1 X2.565 Y-4.384 E97.60517
G1 X4.742 Y-5.082 E97.65269
G1 X6.663 Y-6.321 E97.70021
G1 X8.199 Y-8.014 E97.74773
G1 X9.243 Y-10.047 E97.79524
G1 X9.727 Y-12.282 E97.84277
G1 X9.614 Y-14.564 E97.89027
G1 X8.916 Y-16.741 E97.93779
G1 X7.677 Y-18.662 E97.98531
G1 X5.984 Y-20.198 E98.03283
G1 X3.951 Y-21.242 E98.08034
G1 X1.716 Y-21.726 E98.12787
G1 X-0.565 Y-21.613 E98.17535
G1 X-2.742 Y-20.915 E98.22287
G1 X-4.663 Y-19.676 E98.27039
G1 X-6.199 Y-17.983 E98.31791
G1 X-7.243 Y-15.95 E98.36542
G1 X-7.727 Y-13.715 E98.41296
G1 X-7.614 Y-11.433 E98.46045
G1 X-6.916 Y-9.256 E98.50797
G1 X-5.677 Y-7.335 E98.55549
G1 X-3.984 Y-5.799 E98.60301
G1 X-1.951 Y-4.755 E98.65052
G1 X0.283 Y-4.271 E98.69804
G0 F18000 X0.324 Y-4.774
; TYPE:WALL-OUTER
G1 F1554 X0.324 Y-4.774 E98.69804
G1 X2.475 Y-4.88 E98.74281
G1 X4.527 Y-5.538 E98.7876
G1 X6.337 Y-6.706 E98.83238
G1 X7.784 Y-8.301 E98.87715
G1 X8.768 Y-10.217 E98.92192
G1 X9.224 Y-12.323 E98.96672
G1 X9.118 Y-14.474 E99.01148
G1 X8.46 Y-16.526 E99.05628
G1 X7.292 Y-18.336 E99.10106
G1 X5.697 Y-19.783 E99.14583
G1 X3.781 Y-20.767 E99.1906
G1 X1.675 Y-21.223 E99.23539
G1 X-0.475 Y-21.117 E99.28014
G1 X-2.527 Y-20.459 E99.32494
G1 X-4.337 Y-19.291 E99.36972
G1 X-5.784 Y-17.696 E99.41448
G1 X-6.768 Y-15.78 E99.45926
G1 X-7.224 Y-13.674 E99.50405
G1 X-7.118 Y-11.523 E99.54882
G1 X-6.46 Y-9.471 E99.59361
G1 X-5.292 Y-7.661 E99.63839
G1 X-3.697 Y-6.214 E99.68316
G1 X-1.781 Y-5.23 E99.72794
G1 X0.324 Y-4.774 E99.77271
G0 F18000 X0 Y-3.882
; TYPE:FILL
G1 F1776 X0 Y3.934 E99.93518
G0 F18000 X-0.499 Y3.995
G1 F1776 X-0.5 Y-3.99 E100.10117
G0 F18000 X-1 Y-4.099
G1 F1776 X-0.999 Y4.055 E100.27068
G0 F18000 X-1.499 Y4.175
G1 F1776 X-1.5 Y-4.207 E100.44492
G0 F18000 X-2 Y-4.316
G1 F1776 X-1.999 Y4.376 E100.6256
G0 F18000 X-2.499 Y4.577
G1 F1776 X-2.5 Y-4.542 E100.81516
G0 F18000 X-3 Y-4.798
G1 F1776 X-2.999 Y4.778 E101.01423
G0 F18000 X-3.499 Y4.979
G1 F1776 X-3.5 Y-5.055 E101.22281
G0 F18000 X-4 Y-5.311
G1 F1776 X-3.999 Y5.348 E101.44438
G0 F18000 X-4.499 Y5.724
G1 F1776 X-4.5 Y-5.672 E101.68128
G0 F18000 X-5 Y-6.126
G1 F1776 X-4.999 Y6.1 E101.93543
G0 F18000 X-5.499 Y6.508
G1 F1776 X-5.5 Y-6.579 E102.20748
G0 F18000 X-6 Y-7.033
G1 F1776 X-5.999 Y7.145 E102.5022
G0 F18000 X-6.499 Y7.783
G1 F1776 X-6.5 Y-7.799 E102.82611
G0 F18000 X-7 Y-8.575
G1 F1776 X-6.999 Y8.507 E103.18121
G0 F18000 X-7.499 Y9.679
G1 F1776 X-7.5 Y-9.637 E103.58274
G0 F18000 X-8 Y-11.199
G0 X-8 Y-11.199
G1 F1776 X-7.999 Y11.503 E104.05466
G0 F18000 X-7.999 Y14.543
G0 X-7.999 Y14.543
G1 F1776 X-7.999 Y21.81 E104.20572
G0 F18000 X-7.499 Y21.81
G1 F1776 X-7.499 Y16.309 E104.32008
G0 F18000 X-6.999 Y17.538
G1 F1776 X-6.999 Y21.81 E104.40888
G0 F18000 X-6.499 Y21.81
G1 F1776 X-6.499 Y18.202 E104.48388
G0 F18000 X-5.999 Y18.867
G1 F1776 X-5.999 Y21.81 E104.54506
G0 F18000 X-5.499 Y21.81
G1 F1776 X-5.499 Y19.494 E104.5932
G0 F18000 X-4.999 Y19.886
G1 F1776 X-4.999 Y21.81 E104.6332
G0 F18000 X-4.499 Y21.81
G1 F1776 X-4.499 Y20.279 E104.66503
G0 F18000 X-3.999 Y20.671
G1 F1776 X-3.999 Y21.81 E104.6887
G0 F18000 X-3.499 Y21.81
G1 F1776 X-3.249 Y21.104 E104.70558
G1 X-2.749 Y21.81 E104.71802
G1 X-2.249 Y21.531 E104.72605
G1 X-1.999 Y21.81 E104.73383
G0 F18000 X4 Y21.81
G0 X4 Y21.81
G1 F1776 X4.25 Y21.717 E104.73768
G1 X4.75 Y21.323 E104.7457
G1 X5.25 Y21.81 E104.75792
G1 X5.5 Y21.022 E104.7751
G0 F18000 X6 Y20.652
G1 F1776 X6 Y21.81 E104.79918
G0 F18000 X6.5 Y21.81
G1 F1776 X6.5 Y20.276 E104.83106
G0 F18000 X7 Y19.9
G1 F1776 X7 Y21.81 E104.87077
G0 F18000 X7.5 Y21.81
G1 F1776 X7.5 Y19.491 E104.91897
G0 F18000 X8 Y18.854
G1 F1776 X8 Y21.81 E104.98042
G0 F18000 X8.5 Y21.81
G1 F1776 X8.5 Y18.217 E105.05511
G0 F18000 X9 Y17.492
G1 F1776 X9 Y21.81 E105.14487
G0 F18000 X9.5 Y21.81
G1 F1776 X9.5 Y16.318 E105.25904
G0 F18000 X9.5 Y13.264
G0 X9.5 Y12.864
G0 X9.5 Y9.692
G0 X9.5 Y9.692
G1 F1776 X9.499 Y-9.581 E105.65968
G0 F18000 X8.999 Y-8.607
G1 F1776 X9 Y8.464 E106.01454
G0 F18000 X8.5 Y7.799
G1 F1776 X8.499 Y-7.688 E106.33648
G0 F18000 X7.999 Y-7.138
G1 F1776 X8 Y7.134 E106.63316
G0 F18000 X7.5 Y6.507
G1 F1776 X7.499 Y-6.587 E106.90535
G0 F18000 X6.999 Y-6.036
G1 F1776 X7 Y6.114 E107.15792
G0 F18000 X6.5 Y5.722
G1 F1776 X6.499 Y-5.691 E107.39517
G0 F18000 X5.999 Y-5.368
G1 F1776 X6 Y5.33 E107.61756
G0 F18000 X5.5 Y5.002
G1 F1776 X5.499 Y-5.046 E107.82643
G0 F18000 X4.999 Y-4.723
G1 F1776 X5 Y4.789 E108.02416
G0 F18000 X4.5 Y4.576
G1 F1776 X4.499 Y-4.541 E108.21368
G0 F18000 X3.999 Y-4.381
G1 F1776 X4 Y4.363 E108.39545
G0 F18000 X3.5 Y4.151
G1 F1776 X3.499 Y-4.221 E108.56948
G0 F18000 X2.999 Y-4.061
G1 F1776 X3 Y4.07 E108.73851
G0 F18000 X2.5 Y4
G1 F1776 X2.499 Y-3.94 E108.90356
G0 F18000 X1.999 Y-3.915
G1 F1776 X2 Y3.929 E109.06662
G0 F18000 X1.5 Y3.859
G1 F1776 X1.499 Y-3.89 E109.2277
G0 F18000 X0.999 Y-3.865
G1 F1776 X1 Y3.814 E109.38733
G0 F18000 X0.5 Y3.874
G1 F1776 X0.499 Y-3.841 E109.5477
G0 F18000 X0.009 Y-4.456
G0 X-1.933 Y-4.804
G0 X-3.953 Y-5.842
G0 X-5.637 Y-7.369
G0 X-6.868 Y-9.278
G0 X-7.562 Y-11.443
G0 X-7.675 Y-13.71
G0 X-7.571 Y-13.989
G0 X-8 Y-14.529
G0 X-8 Y-14.529
G1 F1776 X-8 Y-21.808 E109.69902
G0 F18000 X-7.5 Y-21.808
G1 F1776 X-7.5 Y-16.413 E109.81117
G0 F18000 X-7 Y-17.387
G1 F1776 X-7 Y-21.808 E109.90307
G0 F18000 X-6.5 Y-21.808
G1 F1776 X-6.5 Y-18.307 E109.97584
G0 F18000 X-6 Y-18.857
G1 F1776 X-6 Y-21.808 E110.03719
G0 F18000 X-5.5 Y-21.808
G1 F1776 X-5.5 Y-19.408 E110.08708
G0 F18000 X-5 Y-19.959
G1 F1776 X-5 Y-21.808 E110.12552
G0 F18000 X-4.5 Y-21.808
G1 F1776 X-4.5 Y-20.304 E110.15678
G0 F18000 X-4 Y-20.627
G1 F1776 X-4 Y-21.808 E110.18133
G0 F18000 X-3.5 Y-21.808
G1 F1776 X-3.25 Y-21.111 E110.19915
G1 X-2.75 Y-21.808 E110.21028
G1 X-2.25 Y-21.535 E110.21762
G1 X-2 Y-21.808 E110.22532
G0 F18000 X3.999 Y-21.808
G0 X3.999 Y-21.808
G1 F1776 X4.249 Y-21.745 E110.22794
G1 X4.749 Y-21.327 E110.23526
G1 X5.249 Y-21.808 E110.24792
G1 X5.499 Y-20.942 E110.26666
G0 F18000 X5.999 Y-20.686
G1 F1776 X5.999 Y-21.808 E110.28998
G0 F18000 X6.499 Y-21.808
G1 F1776 X6.499 Y-20.325 E110.32081
G0 F18000 X6.999 Y-19.871
G1 F1776 X6.999 Y-21.808 E110.36108
G0 F18000 X7.499 Y-21.808
G1 F1776 X7.499 Y-19.417 E110.41078
G0 F18000 X7.999 Y-18.964
G1 F1776 X7.999 Y-21.808 E110.4699
G0 F18000 X8.499 Y-21.808
G1 F1776 X8.499 Y-18.198 E110.54494
G0 F18000 X8.999 Y-17.424
G1 F1776 X8.999 Y-21.808 E110.63608
G0 F18000 X9.499 Y-21.808
G1 F1776 X9.499 Y-16.362 E110.74929
G0 F18000 X8.9 Y-16.542
G0 X7.637 Y-18.628
G0 X5.953 Y-20.155
G0 X3.933 Y-21.193
G0 X1.711 Y-21.674
G0 X-0.555 Y-21.561
G0 X-2.72 Y-20.867
G0 X-3.515 Y-20.299
G0 X-8.5 Y-21.808
G0 X-8.5 Y-21.808
G1 F1776 X-8.499 Y21.81 E111.656
G0 F18000 X-8.999 Y21.81
G1 F1776 X-9 Y-21.808 E112.56271
G0 F18000 X-9.5 Y-21.808
G1 F1776 X-9.499 Y21.81 E113.46942
; Layer Change GCode
; LAYER:2
G4 P0
M106 S255
G0 F18000 X-10.327 Y22.303 Z0.5
G0 X-10.67 Y22.507
G0 X-10.489 Y22.4
G0 X-10.489 Y22.4
G0 X-10.749 Y22.75
G0 X-10.749 Y22.75
G0 X-10.249 Y22.25
; TYPE:WALL-INNER
G1 F1776 X-10.249 Y22.25 E113.46942
G1 X-10.249 Y-22.248 E114.39443
G1 X10.25 Y-22.248 E114.82056
G1 X10.25 Y22.25 E115.74556
G1 X-10.249 Y22.25 E116.17169
G0 F18000 X-10.749 Y22.75
; TYPE:WALL-OUTER
G1 F1554 X-10.749 Y22.75 E116.17169
G1 X-10.749 Y-22.748 E117.11748
G1 X10.75 Y-22.748 E117.56439
G1 X10.75 Y22.75 E118.51019
G1 X-10.749 Y22.75 E118.9571
G0 F18000 X-10.489 Y22.4
G0 X-5.254 Y19.128
G0 X-5.254 Y19.128
; TYPE:WALL-INNER
G1 F1776 X-5.254 Y19.128 E118.9571
G1 X-3.456 Y20.538 E119.0046
G1 X-1.353 Y21.435 E119.05212
G1 X0.909 Y21.756 E119.09962
G1 X3.178 Y21.482 E119.14712
G1 X5.299 Y20.629 E119.19465
G1 X7.127 Y19.255 E119.24218
G1 X8.537 Y17.457 E119.28968
G1 X9.434 Y15.354 E119.33721
G1 X9.755 Y13.091 E119.38472
G1 X9.481 Y10.822 E119.43223
G1 X8.628 Y8.701 E119.47975
G1 X7.254 Y6.873 E119.52729
G1 X5.456 Y5.463 E119.57479
G1 X3.353 Y4.566 E119.62232
G1 X1.09 Y4.245 E119.66983
G1 X-1.178 Y4.519 E119.71732
G1 X-3.299 Y5.372 E119.76484
G1 X-5.127 Y6.746 E119.81238
G1 X-6.537 Y8.544 E119.85988
G1 X-7.434 Y10.647 E119.9074
G1 X-7.755 Y12.91 E119.95492
G1 X-7.481 Y15.179 E120.00243
G1 X-6.628 Y17.3 E120.04995
G1 X-5.254 Y19.128 E120.09749
G0 F18000 X-4.608 Y19.387
G0 X-3.429 Y20.493
G0 X-1.339 Y21.384
G0 X0.665 Y21.516
G0 X0.864 Y21.598
G0 X0.864 Y21.598
G0 X0.914 Y21.252
; TYPE:WALL-OUTER
G1 F1554 X0.914 Y21.252 E120.09749
G1 X3.053 Y20.993 E120.14228
G1 X5.052 Y20.19 E120.18706
G1 X6.774 Y18.895 E120.23185
G1 X8.103 Y17.2 E120.27662
G1 X8.948 Y15.219 E120.32139
G1 X9.251 Y13.086 E120.36618
G1 X8.992 Y10.947 E120.41097
G1 X8.189 Y8.948 E120.45575
G1 X6.894 Y7.226 E120.50054
G1 X5.199 Y5.897 E120.54531
G1 X3.218 Y5.052 E120.59008
G1 X1.085 Y4.749 E120.63487
G1 X-1.053 Y5.008 E120.67963
G1 X-3.052 Y5.811 E120.72442
G1 X-4.774 Y7.106 E120.7692
G1 X-6.103 Y8.801 E120.81398
G1 X-6.948 Y10.782 E120.85875
G1 X-7.251 Y12.915 E120.90353
G1 X-6.992 Y15.054 E120.94832
G1 X-6.189 Y17.053 E120.99311
G1 X-4.894 Y18.775 E121.03789
G1 X-3.199 Y20.104 E121.08267
G1 X-1.218 Y20.949 E121.12744
G1 X0.914 Y21.252 E121.1722
G1 F6600 E114.3722
G1 Z0.8
G0 F18000 X0.864 Y21.598
G0 X0.865 Y21.709
G0 X0.91 Y21.704
G0 X-1.339 Y21.384
G0 X-3.429 Y20.493
G0 X-5.216 Y19.091
G0 X-6.582 Y17.275
G0 X-7.429 Y15.165
G0 X-7.703 Y12.911
G0 X-7.383 Y10.661
G0 X-6.492 Y8.571
G0 X-5.09 Y6.784
G0 X-3.274 Y5.418
G0 X-1.164 Y4.571
G0 X0.476 Y4.369
G0 X0.283 Y-4.271
G0 X0.283 Y-4.271
; TYPE:WALL-INNER
G1 Z0.5
G1 F6600 E121.2722
G1 F1776 X0.283 Y-4.271 E121.2722
G1 X2.565 Y-4.384 E121.3197
G1 X4.742 Y-5.082 E121.36722
G1 X6.663 Y-6.321 E121.41474
G1 X8.199 Y-8.014 E121.46226
G1 X9.243 Y-10.047 E121.50977
G1 X9.727 Y-12.282 E121.5573
G1 X9.614 Y-14.564 E121.6048
G1 X8.916 Y-16.741 E121.65232
G1 X7.677 Y-18.662 E121.69984
G1 X5.984 Y-20.198 E121.74736
G1 X3.951 Y-21.242 E121.79487
G1 X1.716 Y-21.726 E121.84241
G1 X-0.565 Y-21.613 E121.88988
G1 X-2.742 Y-20.915 E121.93741
G1 X-4.663 Y-19.676 E121.98492
G1 X-6.199 Y-17.983 E122.03244
G1 X-7.243 Y-15.95 E122.07995
G1 X-7.727 Y-13.715 E122.12749
G1 X-7.614 Y-11.433 E122.17498
G1 X-6.916 Y-9.256 E122.22251
G1 X-5.677 Y-7.335 E122.27003
G1 X-3.984 Y-5.799 E122.31754
G1 X-1.951 Y-4.755 E122.36505
G1 X0.283 Y-4.271 E122.41257
G0 F18000 X0.324 Y-4.774
; TYPE:WALL-OUTER
G1 F1554 X0.324 Y-4.774 E122.41257
G1 X2.475 Y-4.88 E122.45734
G1 X4.527 Y-5.538 E122.50213
G1 X6.337 Y-6.706 E122.54691
G1 X7.784 Y-8.301 E122.59168
G1 X8.768 Y-10.217 E122.63645
G1 X9.224 Y-12.323 E122.68125
G1 X9.118 Y-14.474 E122.72602
G1 X8.46 Y-16.526 E122.77081
G1 X7.292 Y-18.336 E122.81559
G1 X5.697 Y-19.783 E122.86036
G1 X3.781 Y-20.767 E122.90513
G1 X1.675 Y-21.223 E122.94993
G1 X-0.475 Y-21.117 E122.99467
G1 X-2.527 Y-20.459 E123.03947
G1 X-4.337 Y-19.291 E123.08425
G1 X-5.784 Y-17.696 E123.12902
G1 X-6.768 Y-15.78 E123.17379
G1 X-7.224 Y-13.674 E123.21858
G1 X-7.118 Y-11.523 E123.26335
G1 X-6.46 Y-9.471 E123.30815
G1 X-5.292 Y-7.661 E123.35293
G1 X-3.697 Y-6.214 E123.39769
G1 X-1.781 Y-5.23 E123.44247
G1 X0.324 Y-4.774 E123.48724
G0 F18000 X-0.545 Y-4
; TYPE:FILL
G1 F1776 X-9.808 Y-3.999 E123.6798
G0 F18000 X-9.808 Y-3.499
G1 F1776 X9.81 Y-3.5 E124.08761
G0 F18000 X9.81 Y-4
G1 F1776 X2.806 Y-4 E124.2332
G0 F18000 X4.37 Y-4.5
G0 X4.37 Y-4.5
G1 F1776 X9.81 Y-4.5 E124.34629
G0 F18000 X9.81 Y-5
G1 F1776 X5.428 Y-5 E124.43738
G0 F18000 X6.203 Y-5.5
G1 F1776 X9.81 Y-5.5 E124.51236
G0 F18000 X9.81 Y-6
G1 F1776 X6.966 Y-6 E124.57148
G0 F18000 X7.421 Y-6.5
G1 F1776 X9.81 Y-6.5 E124.62114
G0 F18000 X9.81 Y-7
G1 F1776 X7.875 Y-7 E124.66137
G0 F18000 X8.329 Y-7.5
G1 F1776 X9.81 Y-7.5 E124.69215
G0 F18000 X9.81 Y-8
G1 F1776 X8.688 Y-8 E124.71548
G0 F18000 X8.945 Y-8.5
G1 F1776 X9.81 Y-8.75 E124.73344
G1 X9.329 Y-9.25 E124.74611
G1 X9.81 Y-9.75 E124.75341
G1 X9.683 Y-10 E124.75923
G0 F18000 X9.615 Y-16
G0 X9.615 Y-16
G1 F1776 X9.809 Y-16.25 E124.76326
G1 X9.363 Y-16.75 E124.77061
G1 X9.809 Y-17.25 E124.78176
G1 X8.95 Y-17.5 E124.80035
G0 F18000 X8.627 Y-18
G1 F1776 X9.809 Y-18 E124.82492
G0 F18000 X9.809 Y-18.5
G1 F1776 X8.304 Y-18.5 E124.85621
G0 F18000 X7.959 Y-19
G1 F1776 X9.809 Y-19 E124.89467
G0 F18000 X9.809 Y-19.5
G1 F1776 X7.408 Y-19.5 E124.94458
G0 F18000 X6.857 Y-20
G1 F1776 X9.809 Y-20 E125.00594
G0 F18000 X9.809 Y-20.5
G1 F1776 X6.307 Y-20.5 E125.07874
G0 F18000 X5.387 Y-21
G1 F1776 X9.809 Y-21 E125.17066
G0 F18000 X9.809 Y-21.5
G1 F1776 X4.413 Y-21.5 E125.28283
G0 F18000 X2.398 Y-21.5
G0 X1.711 Y-21.674
G0 X1.38 Y-21.5
G0 X-2.36 Y-21.5
G0 X-2.36 Y-21.5
G1 F1776 X-9.808 Y-21.5 E125.43766
G0 F18000 X-9.808 Y-21
G1 F1776 X-3.422 Y-21 E125.57041
G0 F18000 X-4.197 Y-20.5
G1 F1776 X-9.808 Y-20.5 E125.68705
G0 F18000 X-9.808 Y-20
G1 F1776 X-4.963 Y-20 E125.78776
G0 F18000 X-5.417 Y-19.5
G1 F1776 X-9.808 Y-19.5 E125.87904
G0 F18000 X-9.808 Y-19
G1 F1776 X-5.87 Y-19 E125.9609
G0 F18000 X-6.324 Y-18.5
G1 F1776 X-9.808 Y-18.5 E126.03333
G0 F18000 X-9.808 Y-18
G1 F1776 X-6.685 Y-18 E126.09825
G0 F18000 X-6.942 Y-17.5
G1 F1776 X-9.808 Y-17.5 E126.15782
G0 F18000 X-9.808 Y-17
G1 F1776 X-7.199 Y-17 E126.21206
G0 F18000 X-7.455 Y-16.5
G1 F1776 X-9.808 Y-16.5 E126.26097
G0 F18000 X-9.808 Y-16
G1 F1776 X-7.681 Y-16 E126.30519
G0 F18000 X-7.79 Y-15.5
G1 F1776 X-9.808 Y-15.5 E126.34714
G0 F18000 X-9.808 Y-15
G1 F1776 X-7.898 Y-15 E126.38684
G0 F18000 X-8.006 Y-14.5
G1 F1776 X-9.808 Y-14.5 E126.4243
G0 F18000 X-9.808 Y-14
G1 F1776 X-8.115 Y-14 E126.45949
G0 F18000 X-8.156 Y-13.5
G1 F1776 X-9.808 Y-13.5 E126.49383
G0 F18000 X-9.808 Y-13
G1 F1776 X-8.131 Y-13 E126.5287
G0 F18000 X-8.106 Y-12.5
G1 F1776 X-9.808 Y-12.5 E126.56408
G0 F18000 X-9.808 Y-12
G1 F1776 X-8.081 Y-12 E126.59998
G0 F18000 X-8.056 Y-11.5
G1 F1776 X-9.808 Y-11.5 E126.6364
G0 F18000 X-9.808 Y-11
G1 F1776 X-7.936 Y-11 E126.67531
G0 F18000 X-7.776 Y-10.5
G1 F1776 X-9.808 Y-10.5 E126.71755
G0 F18000 X-9.808 Y-10
G1 F1776 X-7.616 Y-10 E126.76312
G0 F18000 X-7.456 Y-9.5
G1 F1776 X-9.808 Y-9.5 E126.81201
G0 F18000 X-9.808 Y-9
G1 F1776 X-7.274 Y-9 E126.86469
G0 F18000 X-6.952 Y-8.5
G1 F1776 X-9.808 Y-8.5 E126.92405
G0 F18000 X-9.808 Y-7.999
G1 F1776 X-6.63 Y-8 E126.99012
G0 F18000 X-6.307 Y-7.5
G1 F1776 X-9.808 Y-7.499 E127.0629
G0 F18000 X-9.808 Y-6.999
G1 F1776 X-5.963 Y-7 E127.14282
G0 F18000 X-5.412 Y-6.5
G1 F1776 X-9.808 Y-6.499 E127.23421
G0 F18000 X-9.808 Y-5.999
G1 F1776 X-4.862 Y-6 E127.33702
G0 F18000 X-4.311 Y-5.5
G1 F1776 X-9.808 Y-5.499 E127.45129
G0 F18000 X-9.808 Y-4.999
G1 F1776 X-3.393 Y-5 E127.58464
G0 F18000 X-2.419 Y-4.5
G1 F1776 X-9.808 Y-4.499 E127.73824
G0 F18000 X-9.808 Y-2.999
G1 F1776 X9.81 Y-3 E128.14605
G0 F18000 X9.81 Y-2.5
G1 F1776 X-9.808 Y-2.499 E128.55386
G0 F18000 X-9.808 Y-1.999
G1 F1776 X9.81 Y-2 E128.96167
G0 F18000 X9.81 Y-1.5
G1 F1776 X-9.808 Y-1.499 E129.36949
G0 F18000 X-9.808 Y-0.999
G1 F1776 X9.81 Y-1 E129.7773
G0 F18000 X9.81 Y-0.5
G1 F1776 X-9.808 Y-0.499 E130.18511
G0 F18000 X-9.808 Y0
G1 F1776 X9.81 Y0 E130.59292
G0 F18000 X9.81 Y0.499
G1 F1776 X-9.809 Y0.5 E131.00075
G0 F18000 X-9.809 Y1
G1 F1776 X9.81 Y0.999 E131.40858
G0 F18000 X9.81 Y1.499
G1 F1776 X-9.809 Y1.5 E131.81641
G0 F18000 X-9.809 Y2
G1 F1776 X9.81 Y1.999 E132.22424
G0 F18000 X9.81 Y2.499
G1 F1776 X-9.809 Y2.5 E132.63208
G0 F18000 X-9.809 Y3
G1 F1776 X9.81 Y2.999 E133.03991
G0 F18000 X9.81 Y3.499
G1 F1776 X-9.809 Y3.5 E133.44774
G0 F18000 X-9.809 Y4
G1 F1776 X-0.542 Y4 E133.64038
G0 F18000 X-2.308 Y4.5
G0 X-2.308 Y4.5
G1 F1776 X-9.809 Y4.5 E133.79631
G0 F18000 X-9.809 Y5
G1 F1776 X-3.536 Y5 E133.92671
G0 F18000 X-4.201 Y5.5
G1 F1776 X-9.809 Y5.5 E134.04328
G0 F18000 X-9.809 Y6
G1 F1776 X-4.866 Y6 E134.14604
G0 F18000 X-5.493 Y6.5
G1 F1776 X-9.809 Y6.5 E134.23576
G0 F18000 X-9.809 Y7
G1 F1776 X-5.885 Y7 E134.31733
G0 F18000 X-6.277 Y7.5
G1 F1776 X-9.809 Y7.5 E134.39075
G0 F18000 X-9.809 Y8
G1 F1776 X-6.669 Y8 E134.45602
G0 F18000 X-6.996 Y8.5
G1 F1776 X-9.809 Y8.5 E134.5145
G0 F18000 X-9.809 Y9
G1 F1776 X-7.209 Y9 E134.56854
G0 F18000 X-7.422 Y9.5
G1 F1776 X-9.809 Y9.5 E134.61816
G0 F18000 X-9.809 Y10
G1 F1776 X-7.635 Y10 E134.66336
G0 F18000 X-7.849 Y10.5
G1 F1776 X-9.809 Y10.5 E134.7041
G0 F18000 X-9.809 Y11
G1 F1776 X-7.928 Y11 E134.7432
G0 F18000 X-7.998 Y11.5
G1 F1776 X-9.809 Y11.5 E134.78085
G0 F18000 X-9.809 Y12
G1 F1776 X-8.069 Y12 E134.81702
G0 F18000 X-8.14 Y12.5
G1 F1776 X-9.809 Y12.5 E134.85171
G0 F18000 X-9.809 Y13
G1 F1776 X-8.185 Y13 E134.88547
G0 F18000 X-8.125 Y13.5
G1 F1776 X-9.809 Y13.5 E134.92048
G0 F18000 X-9.809 Y14
G1 F1776 X-8.065 Y14 E134.95673
G0 F18000 X-8.004 Y14.5
G1 F1776 X-9.809 Y14.5 E134.99425
G0 F18000 X-9.808 Y15
G1 F1776 X-7.944 Y15 E135.033
G0 F18000 X-7.825 Y15.5
G1 F1776 X-9.808 Y15.5 E135.07422
G0 F18000 X-9.808 Y16
G1 F1776 X-7.624 Y16 E135.11962
G0 F18000 X-7.423 Y16.5
G1 F1776 X-9.808 Y16.5 E135.1692
G0 F18000 X-9.808 Y17
G1 F1776 X-7.222 Y17 E135.22296
G0 F18000 X-7.021 Y17.5
G1 F1776 X-9.808 Y17.5 E135.28089
G0 F18000 X-9.808 Y18
G1 F1776 X-6.651 Y18 E135.34652
G0 F18000 X-6.275 Y18.5
G1 F1776 X-9.808 Y18.5 E135.41996
G0 F18000 X-9.808 Y19
G1 F1776 X-5.899 Y19 E135.50122
G0 F18000 X-5.491 Y19.5
G1 F1776 X-9.808 Y19.5 E135.59096
G0 F18000 X-9.808 Y20
G1 F1776 X-4.854 Y20 E135.69394
G0 F18000 X-4.217 Y20.5
G1 F1776 X-9.808 Y20.5 E135.81017
G0 F18000 X-9.808 Y21
G1 F1776 X-3.494 Y21 E135.94142
G0 F18000 X-2.322 Y21.5
G1 F1776 X-9.808 Y21.5 E136.09703
G0 F18000 X0.745 Y21.5
G0 X1.145 Y21.5
G0 X4.311 Y21.5
G0 X4.311 Y21.5
G1 F1776 X9.809 Y21.5 E136.21132
G0 F18000 X9.809 Y21
G1 F1776 X5.537 Y21 E136.30013
G0 F18000 X6.202 Y20.5
G1 F1776 X9.809 Y20.5 E136.37511
G0 F18000 X9.809 Y20
G1 F1776 X6.867 Y20 E136.43627
G0 F18000 X7.493 Y19.5
G1 F1776 X9.809 Y19.5 E136.48441
G0 F18000 X9.809 Y19
G1 F1776 X7.885 Y19 E136.52441
G0 F18000 X8.278 Y18.5
G1 F1776 X9.809 Y18.5 E136.55623
G0 F18000 X9.809 Y18
G1 F1776 X8.67 Y18 E136.57991
G0 F18000 X8.996 Y17.5
G1 F1776 X9.809 Y17.25 E136.59681
G1 X9.316 Y16.75 E136.60925
G1 X9.809 Y16.25 E136.61725
G1 X9.636 Y16 E136.62357
G0 F18000 X9.625 Y10
G0 X9.625 Y10
G1 F1776 X9.81 Y9.75 E136.62741
G1 X9.322 Y9.25 E136.63545
G1 X9.81 Y8.75 E136.64768
G1 X9.021 Y8.5 E136.66489
G0 F18000 X8.651 Y7.999
G1 F1776 X9.81 Y7.999 E136.68898
G0 F18000 X9.81 Y7.499
G1 F1776 X8.275 Y7.499 E136.72089
G0 F18000 X7.899 Y6.999
G1 F1776 X9.81 Y6.999 E136.76061
G0 F18000 X9.81 Y6.499
G1 F1776 X7.491 Y6.499 E136.80882
G0 F18000 X6.854 Y6
G1 F1776 X9.81 Y5.999 E136.87027
G0 F18000 X9.81 Y5.499
G1 F1776 X6.217 Y5.5 E136.94496
G0 F18000 X5.493 Y5
G1 F1776 X9.81 Y4.999 E137.0347
G0 F18000 X9.81 Y4.499
G1 F1776 X4.32 Y4.5 E137.14882
G0 F18000 X2.495 Y4
G0 X2.495 Y4
G1 F1776 X9.81 Y3.999 E137.30088
; Layer Change GCode
; LAYER:3
G1 F6600 E130.50088
G1 Z0.8
G0 F18000 X6.884 Y6.65 Z0.9
G0 X5.429 Y5.508
G0 X3.339 Y4.617
G0 X1.089 Y4.297
G0 X-1.164 Y4.571
G0 X-3.274 Y5.418
G0 X-5.09 Y6.784
G0 X-6.492 Y8.571
G0 X-7.383 Y10.661
G0 X-7.703 Y12.911
G0 X-7.429 Y15.165
G0 X-6.582 Y17.275
G0 X-5.874 Y18.216
G0 X-10.351 Y22.275
G0 X-10.648 Y22.543
G0 X-10.489 Y22.4
G0 X-10.489 Y22.4
G0 X-10.749 Y22.75
G0 X-10.749 Y22.75
G0 X-10.249 Y22.25
; TYPE:WALL-INNER
G1 Z0.6
G1 F6600 E137.40088
G1 F1776 X-10.249 Y22.25 E137.40088
G1 X-10.249 Y-22.248 E138.32589
G1 X10.25 Y-22.248 E138.75201
G1 X10.25 Y22.25 E139.67702
G1 X-10.249 Y22.25 E140.10314
G0 F18000 X-10.749 Y22.75
; TYPE:WALL-OUTER
G1 F1554 X-10.749 Y22.75 E140.10314
G1 X-10.749 Y-22.748 E141.04894
G1 X10.75 Y-22.748 E141.49585
G1 X10.75 Y22.75 E142.44164
G1 X-10.749 Y22.75 E142.88856
G0 F18000 X-10.489 Y22.4
G0 X-5.254 Y19.128
G0 X-5.254 Y19.128
; TYPE:WALL-INNER
G1 F1776 X-5.254 Y19.128 E142.88856
G1 X-3.456 Y20.538 E142.93605
G1 X-1.353 Y21.435 E142.98358
G1 X0.909 Y21.756 E143.03107
G1 X3.178 Y21.482 E143.07858
G1 X5.299 Y20.629 E143.12611
G1 X7.127 Y19.255 E143.17364
G1 X8.537 Y17.457 E143.22114
G1 X9.434 Y15.354 E143.26867
G1 X9.755 Y13.091 E143.31618
G1 X9.481 Y10.822 E143.36369
G1 X8.628 Y8.701 E143.41121
G1 X7.254 Y6.873 E143.45875
G1 X5.456 Y5.463 E143.50625
G1 X3.353 Y4.566 E143.55378
G1 X1.09 Y4.245 E143.60129
G1 X-1.178 Y4.519 E143.64878
G1 X-3.299 Y5.372 E143.6963
G1 X-5.127 Y6.746 E143.74384
G1 X-6.537 Y8.544 E143.79134
G1 X-7.434 Y10.647 E143.83886
G1 X-7.755 Y12.91 E143.88638
G1 X-7.481 Y15.179 E143.93389
G1 X-6.628 Y17.3 E143.98141
G1 X-5.254 Y19.128 E144.02895
G0 F18000 X-4.608 Y19.387
G0 X-3.429 Y20.493
G0 X-1.339 Y21.384
G0 X0.665 Y21.516
G0 X0.864 Y21.598
G0 X0.864 Y21.598
G0 X0.914 Y21.252
; TYPE:WALL-OUTER
G1 F1554 X0.914 Y21.252 E144.02895
G1 X3.053 Y20.993 E144.07373
G1 X5.052 Y20.19 E144.11852
G1 X6.774 Y18.895 E144.16331
G1 X8.103 Y17.2 E144.20808
G1 X8.948 Y15.219 E144.25285
G1 X9.251 Y13.086 E144.29763
G1 X8.992 Y10.947 E144.34242
G1 X8.189 Y8.948 E144.38721
G1 X6.894 Y7.226 E144.43199
G1 X5.199 Y5.897 E144.47677
G1 X3.218 Y5.052 E144.52154
G1 X1.085 Y4.749 E144.56632
G1 X-1.053 Y5.008 E144.61109
G1 X-3.052 Y5.811 E144.65587
G1 X-4.774 Y7.106 E144.70066
G1 X-6.103 Y8.801 E144.74544
G1 X-6.948 Y10.782 E144.79021
G1 X-7.251 Y12.915 E144.83499
G1 X-6.992 Y15.054 E144.87978
G1 X-6.189 Y17.053 E144.92456
G1 X-4.894 Y18.775 E144.96935
G1 X-3.199 Y20.104 E145.01413
G1 X-1.218 Y20.949 E145.0589
G1 X0.914 Y21.252 E145.10366
G1 F6600 E138.30366
G1 Z0.9
G0 F18000 X0.864 Y21.598
G0 X0.865 Y21.709
G0 X0.91 Y21.704
G0 X-1.339 Y21.384
G0 X-3.429 Y20.493
G0 X-5.216 Y19.091
G0 X-6.582 Y17.275
G0 X-7.429 Y15.165
G0 X-7.703 Y12.911
G0 X-7.383 Y10.661
G0 X-6.492 Y8.571
G0 X-5.09 Y6.784
G0 X-3.274 Y5.418
G0 X-1.164 Y4.571
G0 X0.476 Y4.369
G0 X0.283 Y-4.271
G0 X0.283 Y-4.271
; TYPE:WALL-INNER
G1 Z0.6
G1 F6600 E145.20366
G1 F1776 X0.283 Y-4.271 E145.20366
G1 X2.565 Y-4.384 E145.25116
G1 X4.742 Y-5.082 E145.29868
G1 X6.663 Y-6.321 E145.3462
G1 X8.199 Y-8.014 E145.39372
G1 X9.243 Y-10.047 E145.44123
G1 X9.727 Y-12.282 E145.48876
G1 X9.614 Y-14.564 E145.53626
G1 X8.916 Y-16.741 E145.58378
G1 X7.677 Y-18.662 E145.6313
G1 X5.984 Y-20.198 E145.67882
G1 X3.951 Y-21.242 E145.72633
G1 X1.716 Y-21.726 E145.77387
G1 X-0.565 Y-21.613 E145.82134
G1 X-2.742 Y-20.915 E145.86886
G1 X-4.663 Y-19.676 E145.91638
G1 X-6.199 Y-17.983 E145.9639
G1 X-7.243 Y-15.95 E146.01141
G1 X-7.727 Y-13.715 E146.05895
G1 X-7.614 Y-11.433 E146.10644
G1 X-6.916 Y-9.256 E146.15397
G1 X-5.677 Y-7.335 E146.20148
G1 X-3.984 Y-5.799 E146.249
G1 X-1.951 Y-4.755 E146.29651
G1 X0.283 Y-4.271 E146.34403
G0 F18000 X0.324 Y-4.774
; TYPE:WALL-OUTER
G1 F1554 X0.324 Y-4.774 E146.34403
G1 X2.475 Y-4.88 E146.3888
G1 X4.527 Y-5.538 E146.43359
G1 X6.337 Y-6.706 E146.47837
G1 X7.784 Y-8.301 E146.52314
G1 X8.768 Y-10.217 E146.56791
G1 X9.224 Y-12.323 E146.61271
G1 X9.118 Y-14.474 E146.65747
G1 X8.46 Y-16.526 E146.70227
G1 X7.292 Y-18.336 E146.74705
G1 X5.697 Y-19.783 E146.79182
G1 X3.781 Y-20.767 E146.83659
G1 X1.675 Y-21.223 E146.88138
G1 X-0.475 Y-21.117 E146.92613
G1 X-2.527 Y-20.459 E146.97093
G1 X-4.337 Y-19.291 E147.01571
G1 X-5.784 Y-17.696 E147.06047
G1 X-6.768 Y-15.78 E147.10525
G1 X-7.224 Y-13.674 E147.15004
G1 X-7.118 Y-11.523 E147.19481
G1 X-6.46 Y-9.471 E147.23961
G1 X-5.292 Y-7.661 E147.28439
G1 X-3.697 Y-6.214 E147.32915
G1 X-1.781 Y-5.23 E147.37393
G1 X0.324 Y-4.774 E147.4187
G0 F18000 X0 Y-3.882
; TYPE:FILL
G1 F1776 X0 Y3.934 E147.58118
G0 F18000 X-0.499 Y3.995
G1 F1776 X-0.5 Y-3.99 E147.74716
G0 F18000 X-1 Y-4.099
G1 F1776 X-0.999 Y4.055 E147.91667
G0 F18000 X-1.499 Y4.175
G1 F1776 X-1.5 Y-4.207 E148.09091
G0 F18000 X-2 Y-4.316
G1 F1776 X-1.999 Y4.376 E148.27159
G0 F18000 X-2.499 Y4.577
G1 F1776 X-2.5 Y-4.542 E148.46116
G0 F18000 X-3 Y-4.798
G1 F1776 X-2.999 Y4.778 E148.66022
G0 F18000 X-3.499 Y4.979
G1 F1776 X-3.5 Y-5.055 E148.8688
G0 F18000 X-4 Y-5.311
G1 F1776 X-3.999 Y5.348 E149.09038
G0 F18000 X-4.499 Y5.724
G1 F1776 X-4.5 Y-5.672 E149.32727
G0 F18000 X-5 Y-6.126
G1 F1776 X-4.999 Y6.1 E149.58142
G0 F18000 X-5.499 Y6.508
G1 F1776 X-5.5 Y-6.579 E149.85347
G0 F18000 X-6 Y-7.033
G1 F1776 X-5.999 Y7.145 E150.14819
G0 F18000 X-6.499 Y7.783
G1 F1776 X-6.5 Y-7.799 E150.47211
G0 F18000 X-7 Y-8.575
G1 F1776 X-6.999 Y8.507 E150.8272
G0 F18000 X-7.499 Y9.679
G1 F1776 X-7.5 Y-9.637 E151.22873
G0 F18000 X-8 Y-11.199
G0 X-8 Y-11.199
G1 F1776 X-7.999 Y11.503 E151.70065
G0 F18000 X-7.999 Y14.543
G0 X-7.999 Y14.543
G1 F1776 X-7.999 Y21.81 E151.85172
G0 F18000 X-7.499 Y21.81
G1 F1776 X-7.499 Y16.309 E151.96607
G0 F18000 X-6.999 Y17.538
G1 F1776 X-6.999 Y21.81 E152.05487
G0 F18000 X-6.499 Y21.81
G1 F1776 X-6.499 Y18.202 E152.12987
G0 F18000 X-5.999 Y18.867
G1 F1776 X-5.999 Y21.81 E152.19105
G0 F18000 X-5.499 Y21.81
G1 F1776 X-5.499 Y19.494 E152.2392
G0 F18000 X-4.999 Y19.886
G1 F1776 X-4.999 Y21.81 E152.27919
G0 F18000 X-4.499 Y21.81
G1 F1776 X-4.499 Y20.279 E152.31102
G0 F18000 X-3.999 Y20.671
G1 F1776 X-3.999 Y21.81 E152.33469
G0 F18000 X-3.499 Y21.81
G1 F1776 X-3.499 Y20.998 E152.35157
G0 F18000 X-2.999 Y21.211
G1 F1776 X-2.749 Y21.81 E152.36401
G1 X-2.249 Y21.531 E152.37204
G1 X-1.999 Y21.81 E152.37982
G0 F18000 X4 Y21.81
G0 X4 Y21.81
G1 F1776 X4.25 Y21.717 E152.38367
G1 X4.75 Y21.323 E152.39169
G1 X5.25 Y21.81 E152.40391
G1 X5.5 Y21.022 E152.42109
G0 F18000 X6 Y20.652
G1 F1776 X6 Y21.81 E152.44516
G0 F18000 X6.5 Y21.81
G1 F1776 X6.5 Y20.276 E152.47705
G0 F18000 X7 Y19.9
G1 F1776 X7 Y21.81 E152.51676
G0 F18000 X7.5 Y21.81
G1 F1776 X7.5 Y19.491 E152.56496
G0 F18000 X8 Y18.854
G1 F1776 X8 Y21.81 E152.62641
G0 F18000 X8.5 Y21.81
G1 F1776 X8.5 Y18.217 E152.7011
G0 F18000 X9 Y17.492
G1 F1776 X9 Y21.81 E152.79086
G0 F18000 X9.5 Y21.81
G1 F1776 X9.5 Y16.318 E152.90503
G0 F18000 X9.5 Y13.264
G0 X9.5 Y12.864
G0 X9.5 Y9.692
G0 X9.5 Y9.692
G1 F1776 X9.499 Y-9.581 E153.30567
G0 F18000 X8.999 Y-8.607
G1 F1776 X9 Y8.464 E153.66053
G0 F18000 X8.5 Y7.799
G1 F1776 X8.499 Y-7.688 E153.98247
G0 F18000 X7.999 Y-7.138
G1 F1776 X8 Y7.134 E154.27915
G0 F18000 X7.5 Y6.507
G1 F1776 X7.499 Y-6.587 E154.55134
G0 F18000 X6.999 Y-6.036
G1 F1776 X7 Y6.114 E154.80391
G0 F18000 X6.5 Y5.722
G1 F1776 X6.499 Y-5.691 E155.04116
G0 F18000 X5.999 Y-5.368
G1 F1776 X6 Y5.33 E155.26355
G0 F18000 X5.5 Y5.002
G1 F1776 X5.499 Y-5.046 E155.47242
G0 F18000 X4.999 Y-4.723
G1 F1776 X5 Y4.789 E155.67015
G0 F18000 X4.5 Y4.576
G1 F1776 X4.499 Y-4.541 E155.85967
G0 F18000 X3.999 Y-4.381
G1 F1776 X4 Y4.363 E156.04144
G0 F18000 X3.5 Y4.151
G1 F1776 X3.499 Y-4.221 E156.21547
G0 F18000 X2.999 Y-4.061
G1 F1776 X3 Y4.07 E156.3845
G0 F18000 X2.5 Y4
G1 F1776 X2.499 Y-3.94 E156.54955
G0 F18000 X1.999 Y-3.915
G1 F1776 X2 Y3.929 E156.71261
G0 F18000 X1.5 Y3.859
G1 F1776 X1.499 Y-3.89 E156.87369
G0 F18000 X0.999 Y-3.865
G1 F1776 X1 Y3.814 E157.03332
G0 F18000 X0.5 Y3.874
G1 F1776 X0.499 Y-3.841 E157.19369
G0 F18000 X0.009 Y-4.456
G0 X-1.933 Y-4.804
G0 X-3.953 Y-5.842
G0 X-5.637 Y-7.369
G0 X-6.868 Y-9.278
G0 X-7.562 Y-11.443
G0 X-7.675 Y-13.71
G0 X-7.571 Y-13.989
G0 X-8 Y-14.529
G0 X-8 Y-14.529
G1 F1776 X-8 Y-21.808 E157.34501
G0 F18000 X-7.5 Y-21.808
G1 F1776 X-7.5 Y-16.413 E157.45716
G0 F18000 X-7 Y-17.387
G1 F1776 X-7 Y-21.808 E157.54906
G0 F18000 X-6.5 Y-21.808
G1 F1776 X-6.5 Y-18.307 E157.62183
G0 F18000 X-6 Y-18.857
G1 F1776 X-6 Y-21.808 E157.68318
G0 F18000 X-5.5 Y-21.808
G1 F1776 X-5.5 Y-19.408 E157.73307
G0 F18000 X-5 Y-19.959
G1 F1776 X-5 Y-21.808 E157.77151
G0 F18000 X-4.5 Y-21.808
G1 F1776 X-4.5 Y-20.304 E157.80277
G0 F18000 X-4 Y-20.627
G1 F1776 X-4 Y-21.808 E157.82732
G0 F18000 X-3.5 Y-21.808
G1 F1776 X-3.5 Y-20.95 E157.84516
G0 F18000 X-3 Y-21.272
G1 F1776 X-2.75 Y-21.808 E157.85629
G1 X-2.25 Y-21.535 E157.86364
G1 X-2 Y-21.808 E157.87133
G0 F18000 X3.999 Y-21.808
G0 X3.999 Y-21.808
G1 F1776 X4.249 Y-21.745 E157.87396
G1 X4.749 Y-21.327 E157.88127
G1 X5.249 Y-21.808 E157.89394
G1 X5.499 Y-20.942 E157.91267
G0 F18000 X5.999 Y-20.686
G1 F1776 X5.999 Y-21.808 E157.936
G0 F18000 X6.499 Y-21.808
G1 F1776 X6.499 Y-20.325 E157.96682
G0 F18000 X6.999 Y-19.871
G1 F1776 X6.999 Y-21.808 E158.00709
G0 F18000 X7.499 Y-21.808
G1 F1776 X7.499 Y-19.417 E158.05679
G0 F18000 X7.999 Y-18.964
G1 F1776 X7.999 Y-21.808 E158.11591
G0 F18000 X8.499 Y-21.808
G1 F1776 X8.499 Y-18.198 E158.19096
G0 F18000 X8.999 Y-17.424
G1 F1776 X8.999 Y-21.808 E158.28209
G0 F18000 X9.499 Y-21.808
G1 F1776 X9.499 Y-16.362 E158.3953
G0 F18000 X8.9 Y-16.542
G0 X7.637 Y-18.628
G0 X5.953 Y-20.155
G0 X3.933 Y-21.193
G0 X1.711 Y-21.674
G0 X-0.555 Y-21.561
G0 X-2.72 Y-20.867
G0 X-3.515 Y-20.299
G0 X-8.5 Y-21.808
G0 X-8.5 Y-21.808
G1 F1776 X-8.499 Y21.81 E159.30201
G0 F18000 X-8.999 Y21.81
G1 F1776 X-9 Y-21.808 E160.20872
G0 F18000 X-9.5 Y-21.808
G1 F1776 X-9.499 Y21.81 E161.11544
; Layer Change GCode
; LAYER:4
G0 F18000 X-10.327 Y22.303 Z0.7
G0 X-10.67 Y22.507
G0 X-10.489 Y22.4
G0 X-10.489 Y22.4
G0 X-10.749 Y22.75
G0 X-10.749 Y22.75
G0 X-10.249 Y22.25
; TYPE:WALL-INNER
G1 F1776 X-10.249 Y22.25 E161.11544
G1 X-10.249 Y-22.248 E162.04044
G1 X10.25 Y-22.248 E162.46657
G1 X10.25 Y22.25 E163.39157
G1 X-10.249 Y22.25 E163.8177
G0 F18000 X-10.749 Y22.75
; TYPE:WALL-OUTER
G1 F1554 X-10.749 Y22.75 E163.8177
G1 X-10.749 Y-22.748 E164.76349
G1 X10.75 Y-22.748 E165.2104
G1 X10.75 Y22.75 E166.1562
G1 X-10.749 Y22.75 E166.60311
G0 F18000 X-10.489 Y22.4
G0 X-5.254 Y19.128
G0 X-5.254 Y19.128
; TYPE:WALL-INNER
G1 F1776 X-5.254 Y19.128 E166.60311
G1 X-3.456 Y20.538 E166.65061
G1 X-1.353 Y21.435 E166.69814
G1 X0.909 Y21.756 E166.74563
G1 X3.178 Y21.482 E166.79314
G1 X5.299 Y20.629 E166.84066
G1 X7.127 Y19.255 E166.8882
G1 X8.537 Y17.457 E166.9357
G1 X9.434 Y15.354 E166.98322
G1 X9.755 Y13.091 E167.03074
G1 X9.481 Y10.822 E167.07824
G1 X8.628 Y8.701 E167.12577
G1 X7.254 Y6.873 E167.1733
G1 X5.456 Y5.463 E167.2208
G1 X3.353 Y4.566 E167.26833
G1 X1.09 Y4.245 E167.31584
G1 X-1.178 Y4.519 E167.36333
G1 X-3.299 Y5.372 E167.41085
G1 X-5.127 Y6.746 E167.45839
G1 X-6.537 Y8.544 E167.50589
G1 X-7.434 Y10.647 E167.55342
G1 X-7.755 Y12.91 E167.60093
G1 X-7.481 Y15.179 E167.64844
G1 X-6.628 Y17.3 E167.69596
G1 X-5.254 Y19.128 E167.7435
G0 F18000 X-4.608 Y19.387
G0 X-3.429 Y20.493
G0 X-1.339 Y21.384
G0 X0.665 Y21.516
G0 X0.864 Y21.598
G0 X0.864 Y21.598
G0 X0.914 Y21.252
; TYPE:WALL-OUTER
G1 F1554 X0.914 Y21.252 E167.7435
G1 X3.053 Y20.993 E167.78829
G1 X5.052 Y20.19 E167.83307
G1 X6.774 Y18.895 E167.87786
G1 X8.103 Y17.2 E167.92263
G1 X8.948 Y15.219 E167.9674
G1 X9.251 Y13.086 E168.01219
G1 X8.992 Y10.947 E168.05698
G1 X8.189 Y8.948 E168.10176
G1 X6.894 Y7.226 E168.14655
G1 X5.199 Y5.897 E168.19132
G1 X3.218 Y5.052 E168.23609
G1 X1.085 Y4.749 E168.28088
G1 X-1.053 Y5.008 E168.32565
G1 X-3.052 Y5.811 E168.37043
G1 X-4.774 Y7.106 E168.41522
G1 X-6.103 Y8.801 E168.45999
G1 X-6.948 Y10.782 E168.50476
G1 X-7.251 Y12.915 E168.54955
G1 X-6.992 Y15.054 E168.59434
G1 X-6.189 Y17.053 E168.63912
G1 X-4.894 Y18.775 E168.68391
G1 X-3.199 Y20.104 E168.72868
G1 X-1.218 Y20.949 E168.77345
G1 X0.914 Y21.252 E168.81822
G1 F6600 E162.01822
G1 Z1
G0 F18000 X0.864 Y21.598
G0 X0.865 Y21.709
G0 X0.91 Y21.704
G0 X-1.339 Y21.384
G0 X-3.429 Y20.493
G0 X-5.216 Y19.091
G0 X-6.582 Y17.275
G0 X-7.429 Y15.165
G0 X-7.703 Y12.911
G0 X-7.383 Y10.661
G0 X-6.492 Y8.571
G0 X-5.09 Y6.784
G0 X-3.274 Y5.418
G0 X-1.164 Y4.571
G0 X0.476 Y4.369
G0 X0.283 Y-4.271
G0 X0.283 Y-4.271
; TYPE:WALL-INNER
G1 Z0.7
G1 F6600 E168.91822
G1 F1776 X0.283 Y-4.271 E168.91822
G1 X2.565 Y-4.384 E168.96571
G1 X4.742 Y-5.082 E169.01323
G1 X6.663 Y-6.321 E169.06075
G1 X8.199 Y-8.014 E169.10827
G1 X9.243 Y-10.047 E169.15578
G1 X9.727 Y-12.282 E169.20332
G1 X9.614 Y-14.564 E169.25081
G1 X8.916 Y-16.741 E169.29834
G1 X7.677 Y-18.662 E169.34586
G1 X5.984 Y-20.198 E169.39337
G1 X3.951 Y-21.242 E169.44088
G1 X1.716 Y-21.726 E169.48842
G1 X-0.565 Y-21.613 E169.53589
G1 X-2.742 Y-20.915 E169.58342
G1 X-4.663 Y-19.676 E169.63094
G1 X-6.199 Y-17.983 E169.67846
G1 X-7.243 Y-15.95 E169.72596
G1 X-7.727 Y-13.715 E169.7735
G1 X-7.614 Y-11.433 E169.821
G1 X-6.916 Y-9.256 E169.86852
G1 X-5.677 Y-7.335 E169.91604
G1 X-3.984 Y-5.799 E169.96356
G1 X-1.951 Y-4.755 E170.01107
G1 X0.283 Y-4.271 E170.05858
G0 F18000 X0.324 Y-4.774
; TYPE:WALL-OUTER
G1 F1554 X0.324 Y-4.774 E170.05858
G1 X2.475 Y-4.88 E170.10335
G1 X4.527 Y-5.538 E170.14815
G1 X6.337 Y-6.706 E170.19293
G1 X7.784 Y-8.301 E170.23769
G1 X8.768 Y-10.217 E170.28247
G1 X9.224 Y-12.323 E170.32726
G1 X9.118 Y-14.474 E170.37203
G1 X8.46 Y-16.526 E170.41682
G1 X7.292 Y-18.336 E170.4616
G1 X5.697 Y-19.783 E170.50637
G1 X3.781 Y-20.767 E170.55115
G1 X1.675 Y-21.223 E170.59594
G1 X-0.475 Y-21.117 E170.64069
G1 X-2.527 Y-20.459 E170.68548
G1 X-4.337 Y-19.291 E170.73026
G1 X-5.784 Y-17.696 E170.77503
G1 X-6.768 Y-15.78 E170.8198
G1 X-7.224 Y-13.674 E170.8646
G1 X-7.118 Y-11.523 E170.90936
G1 X-6.46 Y-9.471 E170.95416
G1 X-5.292 Y-7.661 E170.99894
G1 X-3.697 Y-6.214 E171.04371
G1 X-1.781 Y-5.23 E171.08848
G1 X0.324 Y-4.774 E171.13325
G0 F18000 X-0.545 Y-4
; TYPE:FILL
G1 F1776 X-9.808 Y-3.999 E171.32581
G0 F18000 X-9.808 Y-3.499
G1 F1776 X9.81 Y-3.5 E171.73362
G0 F18000 X9.81 Y-4
G1 F1776 X2.806 Y-4 E171.87922
G0 F18000 X4.37 Y-4.5
G0 X4.37 Y-4.5
G1 F1776 X9.81 Y-4.5 E171.9923
G0 F18000 X9.81 Y-5
G1 F1776 X5.428 Y-5 E172.08339
G0 F18000 X6.203 Y-5.5
G1 F1776 X9.81 Y-5.5 E172.15837
G0 F18000 X9.81 Y-6
G1 F1776 X6.966 Y-6 E172.21749
G0 F18000 X7.421 Y-6.5
G1 F1776 X9.81 Y-6.5 E172.26715
G0 F18000 X9.81 Y-7
G1 F1776 X7.875 Y-7 E172.30738
G0 F18000 X8.329 Y-7.5
G1 F1776 X9.81 Y-7.5 E172.33816
G0 F18000 X9.81 Y-8
G1 F1776 X8.688 Y-8 E172.36149
G0 F18000 X8.945 Y-8.5
G1 F1776 X9.81 Y-8.5 E172.37947
G0 F18000 X9.81 Y-9
G1 F1776 X9.329 Y-9.25 E172.39211
G1 X9.81 Y-9.75 E172.39941
G1 X9.683 Y-10 E172.40524
G0 F18000 X9.615 Y-16
G0 X9.615 Y-16
G1 F1776 X9.809 Y-16.25 E172.40927
G1 X9.363 Y-16.75 E172.41662
G1 X9.809 Y-17.25 E172.42776
G1 X8.95 Y-17.5 E172.44636
G0 F18000 X8.627 Y-18
G1 F1776 X9.809 Y-18 E172.47093
G0 F18000 X9.809 Y-18.5
G1 F1776 X8.304 Y-18.5 E172.50222
G0 F18000 X7.959 Y-19
G1 F1776 X9.809 Y-19 E172.54067
G0 F18000 X9.809 Y-19.5
G1 F1776 X7.408 Y-19.5 E172.59058
G0 F18000 X6.857 Y-20
G1 F1776 X9.809 Y-20 E172.65195
G0 F18000 X9.809 Y-20.5
G1 F1776 X6.307 Y-20.5 E172.72475
G0 F18000 X5.387 Y-21
G1 F1776 X9.809 Y-21 E172.81667
G0 F18000 X9.809 Y-21.5
G1 F1776 X4.413 Y-21.5 E172.92884
G0 F18000 X2.398 Y-21.5
G0 X1.711 Y-21.674
G0 X1.38 Y-21.5
G0 X-2.36 Y-21.5
G0 X-2.36 Y-21.5
G1 F1776 X-9.808 Y-21.5 E173.08367
G0 F18000 X-9.808 Y-21
G1 F1776 X-3.422 Y-21 E173.21641
G0 F18000 X-4.197 Y-20.5
G1 F1776 X-9.808 Y-20.5 E173.33305
G0 F18000 X-9.808 Y-20
G1 F1776 X-4.963 Y-20 E173.43377
G0 F18000 X-5.417 Y-19.5
G1 F1776 X-9.808 Y-19.5 E173.52505
G0 F18000 X-9.808 Y-19
G1 F1776 X-5.87 Y-19 E173.60691
G0 F18000 X-6.324 Y-18.5
G1 F1776 X-9.808 Y-18.5 E173.67933
G0 F18000 X-9.808 Y-18
G1 F1776 X-6.685 Y-18 E173.74425
G0 F18000 X-6.942 Y-17.5
G1 F1776 X-9.808 Y-17.5 E173.80383
G0 F18000 X-9.808 Y-17
G1 F1776 X-7.199 Y-17 E173.85807
G0 F18000 X-7.455 Y-16.5
G1 F1776 X-9.808 Y-16.5 E173.90698
G0 F18000 X-9.808 Y-16
G1 F1776 X-7.681 Y-16 E173.95119
G0 F18000 X-7.79 Y-15.5
G1 F1776 X-9.808 Y-15.5 E173.99314
G0 F18000 X-9.808 Y-15
G1 F1776 X-7.898 Y-15 E174.03285
G0 F18000 X-8.006 Y-14.5
G1 F1776 X-9.808 Y-14.5 E174.07031
G0 F18000 X-9.808 Y-14
G1 F1776 X-8.115 Y-14 E174.1055
G0 F18000 X-8.156 Y-13.5
G1 F1776 X-9.808 Y-13.5 E174.13984
G0 F18000 X-9.808 Y-13
G1 F1776 X-8.131 Y-13 E174.1747
G0 F18000 X-8.106 Y-12.5
G1 F1776 X-9.808 Y-12.5 E174.21008
G0 F18000 X-9.808 Y-12
G1 F1776 X-8.081 Y-12 E174.24598
G0 F18000 X-8.056 Y-11.5
G1 F1776 X-9.808 Y-11.5 E174.2824
G0 F18000 X-9.808 Y-11
G1 F1776 X-7.936 Y-11 E174.32132
G0 F18000 X-7.776 Y-10.5
G1 F1776 X-9.808 Y-10.5 E174.36356
G0 F18000 X-9.808 Y-10
G1 F1776 X-7.616 Y-10 E174.40912
G0 F18000 X-7.456 Y-9.5
G1 F1776 X-9.808 Y-9.5 E174.45802
G0 F18000 X-9.808 Y-9
G1 F1776 X-7.274 Y-9 E174.51069
G0 F18000 X-6.952 Y-8.5
G1 F1776 X-9.808 Y-8.5 E174.57006
G0 F18000 X-9.808 Y-7.999
G1 F1776 X-6.63 Y-8 E174.63612
G0 F18000 X-6.307 Y-7.5
G1 F1776 X-9.808 Y-7.499 E174.7089
G0 F18000 X-9.808 Y-6.999
G1 F1776 X-5.963 Y-7 E174.78883
G0 F18000 X-5.412 Y-6.5
G1 F1776 X-9.808 Y-6.499 E174.88021
G0 F18000 X-9.808 Y-5.999
G1 F1776 X-4.862 Y-6 E174.98303
G0 F18000 X-4.311 Y-5.5
G1 F1776 X-9.808 Y-5.499 E175.0973
G0 F18000 X-9.808 Y-4.999
G1 F1776 X-3.393 Y-5 E175.23065
G0 F18000 X-2.419 Y-4.5
G1 F1776 X-9.808 Y-4.499 E175.38425
G0 F18000 X-9.808 Y-2.999
G1 F1776 X9.81 Y-3 E175.79206
G0 F18000 X9.81 Y-2.5
G1 F1776 X-9.808 Y-2.499 E176.19987
G0 F18000 X-9.808 Y-1.999
G1 F1776 X9.81 Y-2 E176.60768
G0 F18000 X9.81 Y-1.5
G1 F1776 X-9.808 Y-1.499 E177.01549
G0 F18000 X-9.808 Y-0.999
G1 F1776 X9.81 Y-1 E177.4233
G0 F18000 X9.81 Y-0.5
G1 F1776 X-9.808 Y-0.499 E177.83111
G0 F18000 X-9.808 Y0
G1 F1776 X9.81 Y0 E178.23892
G0 F18000 X9.81 Y0.499
G1 F1776 X-9.809 Y0.5 E178.64676
G0 F18000 X-9.809 Y1
G1 F1776 X9.81 Y0.999 E179.05459
G0 F18000 X9.81 Y1.499
G1 F1776 X-9.809 Y1.5 E179.46242
G0 F18000 X-9.809 Y2
G1 F1776 X9.81 Y1.999 E179.87025
G0 F18000 X9.81 Y2.499
G1 F1776 X-9.809 Y2.5 E180.27808
G0 F18000 X-9.809 Y3
G1 F1776 X9.81 Y2.999 E180.68591
G0 F18000 X9.81 Y3.499
G1 F1776 X-9.809 Y3.5 E181.09375
G0 F18000 X-9.809 Y4
G1 F1776 X-0.542 Y4 E181.28638
G0 F18000 X-2.308 Y4.5
G0 X-2.308 Y4.5
G1 F1776 X-9.809 Y4.5 E181.44231
G0 F18000 X-9.809 Y5
G1 F1776 X-3.536 Y5 E181.57271
G0 F18000 X-4.201 Y5.5
G1 F1776 X-9.809 Y5.5 E181.68929
G0 F18000 X-9.809 Y6
G1 F1776 X-4.866 Y6 E181.79204
G0 F18000 X-5.493 Y6.5
G1 F1776 X-9.809 Y6.5 E181.88176
G0 F18000 X-9.809 Y7
G1 F1776 X-5.885 Y7 E181.96333
G0 F18000 X-6.277 Y7.5
G1 F1776 X-9.809 Y7.5 E182.03675
G0 F18000 X-9.809 Y8
G1 F1776 X-6.669 Y8 E182.10203
G0 F18000 X-6.996 Y8.5
G1 F1776 X-9.809 Y8.5 E182.1605
G0 F18000 X-9.809 Y9
G1 F1776 X-7.209 Y9 E182.21455
G0 F18000 X-7.422 Y9.5
G1 F1776 X-9.809 Y9.5 E182.26417
G0 F18000 X-9.809 Y10
G1 F1776 X-7.635 Y10 E182.30936
G0 F18000 X-7.849 Y10.5
G1 F1776 X-9.809 Y10.5 E182.35011
G0 F18000 X-9.809 Y11
G1 F1776 X-7.928 Y11 E182.38921
G0 F18000 X-7.998 Y11.5
G1 F1776 X-9.809 Y11.5 E182.42685
G0 F18000 X-9.809 Y12
G1 F1776 X-8.069 Y12 E182.46302
G0 F18000 X-8.14 Y12.5
G1 F1776 X-9.809 Y12.5 E182.49772
G0 F18000 X-9.809 Y13
G1 F1776 X-8.185 Y13 E182.53148
G0 F18000 X-8.125 Y13.5
G1 F1776 X-9.809 Y13.5 E182.56648
G0 F18000 X-9.809 Y14
G1 F1776 X-8.065 Y14 E182.60274
G0 F18000 X-8.004 Y14.5
G1 F1776 X-9.809 Y14.5 E182.64026
G0 F18000 X-9.808 Y15
G1 F1776 X-7.944 Y15 E182.67901
G0 F18000 X-7.825 Y15.5
G1 F1776 X-9.808 Y15.5 E182.72023
G0 F18000 X-9.808 Y16
G1 F1776 X-7.624 Y16 E182.76563
G0 F18000 X-7.423 Y16.5
G1 F1776 X-9.808 Y16.5 E182.81521
G0 F18000 X-9.808 Y17
G1 F1776 X-7.222 Y17 E182.86896
G0 F18000 X-7.021 Y17.5
G1 F1776 X-9.808 Y17.5 E182.9269
G0 F18000 X-9.808 Y18
G1 F1776 X-6.651 Y18 E182.99252
G0 F18000 X-6.275 Y18.5
G1 F1776 X-9.808 Y18.5 E183.06597
G0 F18000 X-9.808 Y19
G1 F1776 X-5.899 Y19 E183.14723
G0 F18000 X-5.491 Y19.5
G1 F1776 X-9.808 Y19.5 E183.23697
G0 F18000 X-9.808 Y20
G1 F1776 X-4.854 Y20 E183.33995
G0 F18000 X-4.217 Y20.5
G1 F1776 X-9.808 Y20.5 E183.45617
G0 F18000 X-9.808 Y21
G1 F1776 X-3.494 Y21 E183.58742
G0 F18000 X-2.322 Y21.5
G1 F1776 X-9.808 Y21.5 E183.74304
G0 F18000 X0.745 Y21.5
G0 X1.145 Y21.5
G0 X4.311 Y21.5
G0 X4.311 Y21.5
G1 F1776 X9.809 Y21.5 E183.85733
G0 F18000 X9.809 Y21
G1 F1776 X5.537 Y21 E183.94613
G0 F18000 X6.202 Y20.5
G1 F1776 X9.809 Y20.5 E184.02112
G0 F18000 X9.809 Y20
G1 F1776 X6.867 Y20 E184.08227
G0 F18000 X7.493 Y19.5
G1 F1776 X9.809 Y19.5 E184.13042
G0 F18000 X9.809 Y19
G1 F1776 X7.885 Y19 E184.17041
G0 F18000 X8.278 Y18.5
G1 F1776 X9.809 Y18.5 E184.20224
G0 F18000 X9.809 Y18
G1 F1776 X8.67 Y18 E184.22591
G0 F18000 X8.996 Y17.5
G1 F1776 X9.809 Y17.5 E184.24281
G0 F18000 X9.809 Y17
G1 F1776 X9.316 Y16.75 E184.25527
G1 X9.809 Y16.25 E184.26327
G1 X9.636 Y16 E184.26959
G0 F18000 X9.625 Y10
G0 X9.625 Y10
G1 F1776 X9.81 Y9.75 E184.27343
G1 X9.322 Y9.25 E184.28148
G1 X9.81 Y8.75 E184.2937
G1 X9.021 Y8.5 E184.31091
G0 F18000 X8.651 Y7.999
G1 F1776 X9.81 Y7.999 E184.335
G0 F18000 X9.81 Y7.499
G1 F1776 X8.275 Y7.499 E184.36691
G0 F18000 X7.899 Y6.999
G1 F1776 X9.81 Y6.999 E184.40664
G0 F18000 X9.81 Y6.499
G1 F1776 X7.491 Y6.499 E184.45484
G0 F18000 X6.854 Y6
G1 F1776 X9.81 Y5.999 E184.51629
G0 F18000 X9.81 Y5.499
G1 F1776 X6.217 Y5.5 E184.59098
G0 F18000 X5.493 Y5
G1 F1776 X9.81 Y4.999 E184.68072
G0 F18000 X9.81 Y4.499
G1 F1776 X4.32 Y4.5 E184.79484
G0 F18000 X2.495 Y4
G0 X2.495 Y4
G1 F1776 X9.81 Y3.999 E184.94691
; Layer Change GCode
; LAYER:5
G1 F6600 E178.14691
G1 Z1
G0 F18000 X6.884 Y6.65 Z1.1
G0 X5.429 Y5.508
G0 X3.339 Y4.617
G0 X1.089 Y4.297
G0 X-1.164 Y4.571
G0 X-3.274 Y5.418
G0 X-5.09 Y6.784
G0 X-6.492 Y8.571
G0 X-7.383 Y10.661
G0 X-7.703 Y12.911
G0 X-7.429 Y15.165
G0 X-6.582 Y17.275
G0 X-5.874 Y18.216
G0 X-10.351 Y22.275
G0 X-10.648 Y22.543
G0 X-10.489 Y22.4
G0 X-10.489 Y22.4
G0 X-10.749 Y22.75
G0 X-10.749 Y22.75
G0 X-10.249 Y22.25
; TYPE:WALL-INNER
G1 Z0.8
G1 F6600 E185.04691
G1 F1776 X-10.249 Y22.25 E185.04691
G1 X-10.249 Y-22.248 E185.97191
G1 X10.25 Y-22.248 E186.39804
G1 X10.25 Y22.25 E187.32304
G1 X-10.249 Y22.25 E187.74917
G0 F18000 X-10.749 Y22.75
; TYPE:WALL-OUTER
G1 F1554 X-10.749 Y22.75 E187.74917
G1 X-10.749 Y-22.748 E188.69496
G1 X10.75 Y-22.748 E189.14187
G1 X10.75 Y22.75 E190.08767
G1 X-10.749 Y22.75 E190.53458
G0 F18000 X-10.489 Y22.4
G0 X-5.254 Y19.128
G0 X-5.254 Y19.128
; TYPE:WALL-INNER
G1 F1776 X-5.254 Y19.128 E190.53458
G1 X-3.456 Y20.538 E190.58208
G1 X-1.353 Y21.435 E190.6296
G1 X0.909 Y21.756 E190.6771
G1 X3.178 Y21.482 E190.72461
G1 X5.299 Y20.629 E190.77213
G1 X7.127 Y19.255 E190.81967
G1 X8.537 Y17.457 E190.86716
G1 X9.434 Y15.354 E190.91469
G1 X9.755 Y13.091 E190.9622
G1 X9.481 Y10.822 E191.00971
G1 X8.628 Y8.701 E191.05724
G1 X7.254 Y6.873 E191.10477
G1 X5.456 Y5.463 E191.15227
G1 X3.353 Y4.566 E191.1998
G1 X1.09 Y4.245 E191.24731
G1 X-1.178 Y4.519 E191.2948
G1 X-3.299 Y5.372 E191.34232
G1 X-5.127 Y6.746 E191.38986
G1 X-6.537 Y8.544 E191.43736
G1 X-7.434 Y10.647 E191.48489
G1 X-7.755 Y12.91 E191.5324
G1 X-7.481 Y15.179 E191.57991
G1 X-6.628 Y17.3 E191.62743
G1 X-5.254 Y19.128 E191.67497
G0 F18000 X-4.608 Y19.387
G0 X-3.429 Y20.493
G0 X-1.339 Y21.384
G0 X0.665 Y21.516
G0 X0.864 Y21.598
G0 X0.864 Y21.598
G0 X0.914 Y21.252
; TYPE:WALL-OUTER
G1 F1554 X0.914 Y21.252 E191.67497
G1 X3.053 Y20.993 E191.71976
G1 X5.052 Y20.19 E191.76454
G1 X6.774 Y18.895 E191.80933
G1 X8.103 Y17.2 E191.8541
G1 X8.948 Y15.219 E191.89887
G1 X9.251 Y13.086 E191.94366
G1 X8.992 Y10.947 E191.98845
G1 X8.189 Y8.948 E192.03323
G1 X6.894 Y7.226 E192.07802
G1 X5.199 Y5.897 E192.12279
G1 X3.218 Y5.052 E192.16756
G1 X1.085 Y4.749 E192.21235
G1 X-1.053 Y5.008 E192.25712
G1 X-3.052 Y5.811 E192.3019
G1 X-4.774 Y7.106 E192.34669
G1 X-6.103 Y8.801 E192.39146
G1 X-6.948 Y10.782 E192.43623
G1 X-7.251 Y12.915 E192.48102
G1 X-6.992 Y15.054 E192.5258
G1 X-6.189 Y17.053 E192.57059
G1 X-4.894 Y18.775 E192.61538
G1 X-3.199 Y20.104 E192.66015
G1 X-1.218 Y20.949 E192.70492
G1 X0.914 Y21.252 E192.74968
G1 F6600 E185.94968
G1 Z1.1
G0 F18000 X0.864 Y21.598
G0 X0.865 Y21.709
G0 X0.91 Y21.704
G0 X-1.339 Y21.384
G0 X-3.429 Y20.493
G0 X-5.216 Y19.091
G0 X-6.582 Y17.275
G0 X-7.429 Y15.165
G0 X-7.703 Y12.911
G0 X-7.383 Y10.661
G0 X-6.492 Y8.571
G0 X-5.09 Y6.784
G0 X-3.274 Y5.418
G0 X-1.164 Y4.571
G0 X0.476 Y4.369
G0 X0.283 Y-4.271
G0 X0.283 Y-4.271
; TYPE:WALL-INNER
G1 Z0.8
G1 F6600 E192.84968
G1 F1776 X0.283 Y-4.271 E192.84968
G1 X2.565 Y-4.384 E192.89718
G1 X4.742 Y-5.082 E192.9447
G1 X6.663 Y-6.321 E192.99222
G1 X8.199 Y-8.014 E193.03974
G1 X9.243 Y-10.047 E193.08725
G1 X9.727 Y-12.282 E193.13479
G1 X9.614 Y-14.564 E193.18228
G1 X8.916 Y-16.741 E193.22981
G1 X7.677 Y-18.662 E193.27732
G1 X5.984 Y-20.198 E193.32484
G1 X3.951 Y-21.242 E193.37235
G1 X1.716 Y-21.726 E193.41989
G1 X-0.565 Y-21.613 E193.46736
G1 X-2.742 Y-20.915 E193.51489
G1 X-4.663 Y-19.676 E193.5624
G1 X-6.199 Y-17.983 E193.60992
G1 X-7.243 Y-15.95 E193.65743
G1 X-7.727 Y-13.715 E193.70497
G1 X-7.614 Y-11.433 E193.75246
G1 X-6.916 Y-9.256 E193.79999
G1 X-5.677 Y-7.335 E193.84751
G1 X-3.984 Y-5.799 E193.89503
G1 X-1.951 Y-4.755 E193.94253
G1 X0.283 Y-4.271 E193.99005
G0 F18000 X0.324 Y-4.774
; TYPE:WALL-OUTER
G1 F1554 X0.324 Y-4.774 E193.99005
G1 X2.475 Y-4.88 E194.03482
G1 X4.527 Y-5.538 E194.07961
G1 X6.337 Y-6.706 E194.12439
G1 X7.784 Y-8.301 E194.16916
G1 X8.768 Y-10.217 E194.21394
G1 X9.224 Y-12.323 E194.25873
G1 X9.118 Y-14.474 E194.3035
G1 X8.46 Y-16.526 E194.34829
G1 X7.292 Y-18.336 E194.39307
G1 X5.697 Y-19.783 E194.43784
G1 X3.781 Y-20.767 E194.48261
G1 X1.675 Y-21.223 E194.52741
G1 X-0.475 Y-21.117 E194.57215
G1 X-2.527 Y-20.459 E194.61695
G1 X-4.337 Y-19.291 E194.66173
G1 X-5.784 Y-17.696 E194.7065
G1 X-6.768 Y-15.78 E194.75127
G1 X-7.224 Y-13.674 E194.79606
G1 X-7.118 Y-11.523 E194.84083
G1 X-6.46 Y-9.471 E194.88563
G1 X-5.292 Y-7.661 E194.93041
G1 X-3.697 Y-6.214 E194.97518
G1 X-1.781 Y-5.23 E195.01995
G1 X0.324 Y-4.774 E195.06472
G0 F18000 X0 Y-3.882
; TYPE:FILL
G1 F1776 X0 Y3.934 E195.2272
G0 F18000 X-0.499 Y3.995
G1 F1776 X-0.5 Y-3.99 E195.39319
G0 F18000 X-1 Y-4.099
G1 F1776 X-0.999 Y4.055 E195.56269
G0 F18000 X-1.499 Y4.175
G1 F1776 X-1.5 Y-4.207 E195.73693
G0 F18000 X-2 Y-4.316
G1 F1776 X-1.999 Y4.376 E195.91762
G0 F18000 X-2.499 Y4.577
G1 F1776 X-2.5 Y-4.542 E196.10718
G0 F18000 X-3 Y-4.798
G1 F1776 X-2.999 Y4.778 E196.30624
G0 F18000 X-3.499 Y4.979
G1 F1776 X-3.5 Y-5.055 E196.51482
G0 F18000 X-4 Y-5.311
G1 F1776 X-3.999 Y5.348 E196.7364
G0 F18000 X-4.499 Y5.724
G1 F1776 X-4.5 Y-5.672 E196.97329
G0 F18000 X-5 Y-6.126
G1 F1776 X-4.999 Y6.1 E197.22744
G0 F18000 X-5.499 Y6.508
G1 F1776 X-5.5 Y-6.579 E197.49949
G0 F18000 X-6 Y-7.033
G1 F1776 X-5.999 Y7.145 E197.79422
G0 F18000 X-6.499 Y7.783
G1 F1776 X-6.5 Y-7.799 E198.11813
G0 F18000 X-7 Y-8.575
G1 F1776 X-6.999 Y8.507 E198.47322
G0 F18000 X-7.499 Y9.679
G1 F1776 X-7.5 Y-9.637 E198.87475
G0 F18000 X-8 Y-11.199
G0 X-8 Y-11.199
G1 F1776 X-7.999 Y11.503 E199.34667
G0 F18000 X-7.999 Y14.543
G0 X-7.999 Y14.543
G1 F1776 X-7.999 Y21.81 E199.49774
G0 F18000 X-7.499 Y21.81
G1 F1776 X-7.499 Y16.309 E199.61209
G0 F18000 X-6.999 Y17.538
G1 F1776 X-6.999 Y21.81 E199.70089
G0 F18000 X-6.499 Y21.81
G1 F1776 X-6.499 Y18.202 E199.7759
G0 F18000 X-5.999 Y18.867
G1 F1776 X-5.999 Y21.81 E199.83707
G0 F18000 X-5.499 Y21.81
G1 F1776 X-5.499 Y19.494 E199.88522
G0 F18000 X-4.999 Y19.886
G1 F1776 X-4.999 Y21.81 E199.92521
G0 F18000 X-4.499 Y21.81
G1 F1776 X-4.499 Y20.279 E199.95704
G0 F18000 X-3.999 Y20.671
G1 F1776 X-3.999 Y21.81 E199.98072
G0 F18000 X-3.499 Y21.81
G1 F1776 X-3.499 Y20.998 E199.9976
G0 F18000 X-2.999 Y21.211
G1 F1776 X-2.749 Y21.81 E200.01004
G1 X-2.249 Y21.531 E200.01806
G1 X-1.999 Y21.81 E200.02585
G0 F18000 X4 Y21.81
G0 X4 Y21.81
G1 F1776 X4.25 Y21.717 E200.02969
G1 X4.75 Y21.323 E200.03771
G1 X5.25 Y21.81 E200.04993
G1 X5.5 Y21.022 E200.06712
G0 F18000 X6 Y20.652
G1 F1776 X6 Y21.81 E200.09119
G0 F18000 X6.5 Y21.81
G1 F1776 X6.5 Y20.276 E200.12308
G0 F18000 X7 Y19.9
G1 F1776 X7 Y21.81 E200.16278
G0 F18000 X7.5 Y21.81
G1 F1776 X7.5 Y19.491 E200.21099
G0 F18000 X8 Y18.854
G1 F1776 X8 Y21.81 E200.27243
G0 F18000 X8.5 Y21.81
G1 F1776 X8.5 Y18.217 E200.34712
G0 F18000 X9 Y17.492
G1 F1776 X9 Y21.81 E200.43688
G0 F18000 X9.5 Y21.81
G1 F1776 X9.5 Y16.318 E200.55105
G0 F18000 X9.5 Y13.264
G0 X9.5 Y12.864
G0 X9.5 Y9.692
G0 X9.5 Y9.692
G1 F1776 X9.499 Y-9.581 E200.95169
G0 F18000 X8.999 Y-8.607
G1 F1776 X9 Y8.464 E201.30655
G0 F18000 X8.5 Y7.799
G1 F1776 X8.499 Y-7.688 E201.62849
G0 F18000 X7.999 Y-7.138
G1 F1776 X8 Y7.134 E201.92517
G0 F18000 X7.5 Y6.507
G1 F1776 X7.499 Y-6.587 E202.19736
G0 F18000 X6.999 Y-6.036
G1 F1776 X7 Y6.114 E202.44993
G0 F18000 X6.5 Y5.722
G1 F1776 X6.499 Y-5.691 E202.68718
G0 F18000 X5.999 Y-5.368
G1 F1776 X6 Y5.33 E202.90957
G0 F18000 X5.5 Y5.002
G1 F1776 X5.499 Y-5.046 E203.11844
G0 F18000 X4.999 Y-4.723
G1 F1776 X5 Y4.789 E203.31617
G0 F18000 X4.5 Y4.576
G1 F1776 X4.499 Y-4.541 E203.50569
G0 F18000 X3.999 Y-4.381
G1 F1776 X4 Y4.363 E203.68746
G0 F18000 X3.5 Y4.151
G1 F1776 X3.499 Y-4.221 E203.86149
G0 F18000 X2.999 Y-4.061
G1 F1776 X3 Y4.07 E204.03052
G0 F18000 X2.5 Y4
G1 F1776 X2.499 Y-3.94 E204.19557
G0 F18000 X1.999 Y-3.915
G1 F1776 X2 Y3.929 E204.35863
G0 F18000 X1.5 Y3.859
G1 F1776 X1.499 Y-3.89 E204.51971
G0 F18000 X0.999 Y-3.865
G1 F1776 X1 Y3.814 E204.67934
G0 F18000 X0.5 Y3.874
G1 F1776 X0.499 Y-3.841 E204.83972
G0 F18000 X0.009 Y-4.456
G0 X-1.933 Y-4.804
G0 X-3.953 Y-5.842
G0 X-5.637 Y-7.369
G0 X-6.868 Y-9.278
G0 X-7.562 Y-11.443
G0 X-7.675 Y-13.71
G0 X-7.571 Y-13.989
G0 X-8 Y-14.529
G0 X-8 Y-14.529
G1 F1776 X-8 Y-21.808 E204.99103
G0 F18000 X-7.5 Y-21.808
G1 F1776 X-7.5 Y-16.413 E205.10318
G0 F18000 X-7 Y-17.387
G1 F1776 X-7 Y-21.808 E205.19508
G0 F18000 X-6.5 Y-21.808
G1 F1776 X-6.5 Y-18.307 E205.26786
G0 F18000 X-6 Y-18.857
G1 F1776 X-6 Y-21.808 E205.3292
G0 F18000 X-5.5 Y-21.808
G1 F1776 X-5.5 Y-19.408 E205.37909
G0 F18000 X-5 Y-19.959
G1 F1776 X-5 Y-21.808 E205.41753
G0 F18000 X-4.5 Y-21.808
G1 F1776 X-4.5 Y-20.304 E205.44879
G0 F18000 X-4 Y-20.627
G1 F1776 X-4 Y-21.808 E205.47334
G0 F18000 X-3.5 Y-21.808
G1 F1776 X-3.5 Y-20.95 E205.49118
G0 F18000 X-3 Y-21.272
G1 F1776 X-2.75 Y-21.808 E205.50232
G1 X-2.25 Y-21.535 E205.50966
G1 X-2 Y-21.808 E205.51735
G0 F18000 X3.999 Y-21.808
G0 X3.999 Y-21.808
G1 F1776 X4.249 Y-21.745 E205.51998
G1 X4.749 Y-21.327 E205.5273
G1 X5.249 Y-21.808 E205.53996
G1 X5.499 Y-20.942 E205.5587
G0 F18000 X5.999 Y-20.686
G1 F1776 X5.999 Y-21.808 E205.58202
G0 F18000 X6.499 Y-21.808
G1 F1776 X6.499 Y-20.325 E205.61285
G0 F18000 X6.999 Y-19.871
G1 F1776 X6.999 Y-21.808 E205.65311
G0 F18000 X7.499 Y-21.808
G1 F1776 X7.499 Y-19.417 E205.70282
G0 F18000 X7.999 Y-18.964
G1 F1776 X7.999 Y-21.808 E205.76194
G0 F18000 X8.499 Y-21.808
G1 F1776 X8.499 Y-18.198 E205.83698
G0 F18000 X8.999 Y-17.424
G1 F1776 X8.999 Y-21.808 E205.92811
G0 F18000 X9.499 Y-21.808
G1 F1776 X9.499 Y-16.362 E206.04132
G0 F18000 X8.9 Y-16.542
G0 X7.637 Y-18.628
G0 X5.953 Y-20.155
G0 X3.933 Y-21.193
G0 X1.711 Y-21.674
G0 X-0.555 Y-21.561
G0 X-2.72 Y-20.867
G0 X-3.515 Y-20.299
G0 X-8.5 Y-21.808
G0 X-8.5 Y-21.808
G1 F1776 X-8.499 Y21.81 E206.94803
G0 F18000 X-8.999 Y21.81
G1 F1776 X-9 Y-21.808 E207.85475
G0 F18000 X-9.5 Y-21.808
G1 F1776 X-9.499 Y21.81 E208.76146
; Layer Change GCode
; LAYER:6
G0 F18000 X-10.327 Y22.303 Z0.9
G0 X-10.67 Y22.507
G0 X-10.489 Y22.4
G0 X-10.489 Y22.4
G0 X-10.749 Y22.75
G0 X-10.749 Y22.75
G0 X-10.249 Y22.25
; TYPE:WALL-INNER
G1 F1776 X-10.249 Y22.25 E208.76146
G1 X-10.249 Y-22.248 E209.68647
G1 X10.25 Y-22.248 E210.11259
G1 X10.25 Y22.25 E211.0376
G1 X-10.249 Y22.25 E211.46372
G0 F18000 X-10.749 Y22.75
; TYPE:WALL-OUTER
G1 F1554 X-10.749 Y22.75 E211.46372
G1 X-10.749 Y-22.748 E212.40951
G1 X10.75 Y-22.748 E212.85643
G1 X10.75 Y22.75 E213.80222
G1 X-10.749 Y22.75 E214.24913
G0 F18000 X-10.489 Y22.4
G0 X-5.254 Y19.128
G0 X-5.254 Y19.128
; TYPE:WALL-INNER
G1 F1776 X-5.254 Y19.128 E214.24913
G1 X-3.456 Y20.538 E214.29663
G1 X-1.353 Y21.435 E214.34416
G1 X0.909 Y21.756 E214.39165
G1 X3.178 Y21.482 E214.43916
G1 X5.299 Y20.629 E214.48668
G1 X7.127 Y19.255 E214.53422
G1 X8.537 Y17.457 E214.58172
G1 X9.434 Y15.354 E214.62924
G1 X9.755 Y13.091 E214.67676
G1 X9.481 Y10.822 E214.72427
G1 X8.628 Y8.701 E214.77179
G1 X7.254 Y6.873 E214.81933
G1 X5.456 Y5.463 E214.86683
G1 X3.353 Y4.566 E214.91435
G1 X1.09 Y4.245 E214.96187
G1 X-1.178 Y4.519 E215.00935
G1 X-3.299 Y5.372 E215.05688
G1 X-5.127 Y6.746 E215.10441
G1 X-6.537 Y8.544 E215.15191
G1 X-7.434 Y10.647 E215.19944
G1 X-7.755 Y12.91 E215.24695
G1 X-7.481 Y15.179 E215.29446
G1 X-6.628 Y17.3 E215.34198
G1 X-5.254 Y19.128 E215.38952
G0 F18000 X-4.608 Y19.387
G0 X-3.429 Y20.493
G0 X-1.339 Y21.384
G0 X0.665 Y21.516
G0 X0.864 Y21.598
G0 X0.864 Y21.598
G0 X0.914 Y21.252
; TYPE:WALL-OUTER
G1 F1554 X0.914 Y21.252 E215.38952
G1 X3.053 Y20.993 E215.43431
G1 X5.052 Y20.19 E215.47909
G1 X6.774 Y18.895 E215.52388
G1 X8.103 Y17.2 E215.56866
G1 X8.948 Y15.219 E215.61343
G1 X9.251 Y13.086 E215.65821
G1 X8.992 Y10.947 E215.703
G1 X8.189 Y8.948 E215.74778
G1 X6.894 Y7.226 E215.79257
G1 X5.199 Y5.897 E215.83735
G1 X3.218 Y5.052 E215.88212
G1 X1.085 Y4.749 E215.9269
G1 X-1.053 Y5.008 E215.97167
G1 X-3.052 Y5.811 E216.01645
G1 X-4.774 Y7.106 E216.06124
G1 X-6.103 Y8.801 E216.10601
G1 X-6.948 Y10.782 E216.15078
G1 X-7.251 Y12.915 E216.19557
G1 X-6.992 Y15.054 E216.24036
G1 X-6.189 Y17.053 E216.28514
G1 X-4.894 Y18.775 E216.32993
G1 X-3.199 Y20.104 E216.3747
G1 X-1.218 Y20.949 E216.41947
G1 X0.914 Y21.252 E216.46424
G1 F6600 E209.66424
G1 Z1.2
G0 F18000 X0.864 Y21.598
G0 X0.865 Y21.709
G0 X0.91 Y21.704
G0 X-1.339 Y21.384
G0 X-3.429 Y20.493
G0 X-5.216 Y19.091
G0 X-6.582 Y17.275
G0 X-7.429 Y15.165
G0 X-7.703 Y12.911
G0 X-7.383 Y10.661
G0 X-6.492 Y8.571
G0 X-5.09 Y6.784
G0 X-3.274 Y5.418
G0 X-1.164 Y4.571
G0 X0.476 Y4.369
G0 X0.283 Y-4.271
G0 X0.283 Y-4.271
; TYPE:WALL-INNER
G1 Z0.9
G1 F6600 E216.56424
G1 F1776 X0.283 Y-4.271 E216.56424
G1 X2.565 Y-4.384 E216.61173
G1 X4.742 Y-5.082 E216.65926
G1 X6.663 Y-6.321 E216.70678
G1 X8.199 Y-8.014 E216.75429
G1 X9.243 Y-10.047 E216.8018
G1 X9.727 Y-12.282 E216.84934
G1 X9.614 Y-14.564 E216.89684
G1 X8.916 Y-16.741 E216.94436
G1 X7.677 Y-18.662 E216.99188
G1 X5.984 Y-20.198 E217.0394
G1 X3.951 Y-21.242 E217.0869
G1 X1.716 Y-21.726 E217.13444
G1 X-0.565 Y-21.613 E217.18192
G1 X-2.742 Y-20.915 E217.22944
G1 X-4.663 Y-19.676 E217.27696
G1 X-6.199 Y-17.983 E217.32448
G1 X-7.243 Y-15.95 E217.37199
G1 X-7.727 Y-13.715 E217.41952
G1 X-7.614 Y-11.433 E217.46702
G1 X-6.916 Y-9.256 E217.51454
G1 X-5.677 Y-7.335 E217.56206
G1 X-3.984 Y-5.799 E217.60958
G1 X-1.951 Y-4.755 E217.65709
G1 X0.283 Y-4.271 E217.7046
G0 F18000 X0.324 Y-4.774
; TYPE:WALL-OUTER
G1 F1554 X0.324 Y-4.774 E217.7046
G1 X2.475 Y-4.88 E217.74937
G1 X4.527 Y-5.538 E217.79417
G1 X6.337 Y-6.706 E217.83895
G1 X7.784 Y-8.301 E217.88372
G1 X8.768 Y-10.217 E217.92849
G1 X9.224 Y-12.323 E217.97328
G1 X9.118 Y-14.474 E218.01805
G1 X8.46 Y-16.526 E218.06285
G1 X7.292 Y-18.336 E218.10763
G1 X5.697 Y-19.783 E218.15239
G1 X3.781 Y-20.767 E218.19717
G1 X1.675 Y-21.223 E218.24196
G1 X-0.475 Y-21.117 E218.28671
G1 X-2.527 Y-20.459 E218.3315
G1 X-4.337 Y-19.291 E218.37628
G1 X-5.784 Y-17.696 E218.42105
G1 X-6.768 Y-15.78 E218.46583
G1 X-7.224 Y-13.674 E218.51062
G1 X-7.118 Y-11.523 E218.55539
G1 X-6.46 Y-9.471 E218.60018
G1 X-5.292 Y-7.661 E218.64496
G1 X-3.697 Y-6.214 E218.68973
G1 X-1.781 Y-5.23 E218.7345
G1 X0.324 Y-4.774 E218.77928
G0 F18000 X-0.545 Y-4
; TYPE:FILL
G1 F1776 X-9.808 Y-3.999 E218.97183
G0 F18000 X-9.808 Y-3.499
G1 F1776 X9.81 Y-3.5 E219.37964
G0 F18000 X9.81 Y-4
G1 F1776 X2.806 Y-4 E219.52524
G0 F18000 X4.37 Y-4.5
G0 X4.37 Y-4.5
G1 F1776 X9.81 Y-4.5 E219.63832
G0 F18000 X9.81 Y-5
G1 F1776 X5.428 Y-5 E219.72941
G0 F18000 X6.203 Y-5.5
G1 F1776 X9.81 Y-5.5 E219.8044
G0 F18000 X9.81 Y-6
G1 F1776 X6.966 Y-6 E219.86352
G0 F18000 X7.421 Y-6.5
G1 F1776 X9.81 Y-6.5 E219.91318
G0 F18000 X9.81 Y-7
G1 F1776 X7.875 Y-7 E219.9534
G0 F18000 X8.329 Y-7.5
G1 F1776 X9.81 Y-7.5 E219.98419
G0 F18000 X9.81 Y-8
G1 F1776 X8.688 Y-8 E220.00751
G0 F18000 X8.945 Y-8.5
G1 F1776 X9.81 Y-8.5 E220.02549
G0 F18000 X9.81 Y-9
G1 F1776 X9.201 Y-9 E220.03815
G0 F18000 X9.458 Y-9.5
G1 F1776 X9.81 Y-9.75 E220.04548
G1 X9.683 Y-10 E220.0513
G0 F18000 X9.615 Y-16
G0 X9.615 Y-16
G1 F1776 X9.809 Y-16.25 E220.05533
G1 X9.363 Y-16.75 E220.06268
G1 X9.809 Y-17.25 E220.07383
G1 X8.95 Y-17.5 E220.09242
G0 F18000 X8.627 Y-18
G1 F1776 X9.809 Y-18 E220.11699
G0 F18000 X9.809 Y-18.5
G1 F1776 X8.304 Y-18.5 E220.14828
G0 F18000 X7.959 Y-19
G1 F1776 X9.809 Y-19 E220.18674
G0 F18000 X9.809 Y-19.5
G1 F1776 X7.408 Y-19.5 E220.23665
G0 F18000 X6.857 Y-20
G1 F1776 X9.809 Y-20 E220.29801
G0 F18000 X9.809 Y-20.5
G1 F1776 X6.307 Y-20.5 E220.37081
G0 F18000 X5.387 Y-21
G1 F1776 X9.809 Y-21 E220.46273
G0 F18000 X9.809 Y-21.5
G1 F1776 X4.413 Y-21.5 E220.5749
G0 F18000 X2.398 Y-21.5
G0 X1.711 Y-21.674
G0 X1.38 Y-21.5
G0 X-2.36 Y-21.5
G0 X-2.36 Y-21.5
G1 F1776 X-9.808 Y-21.5 E220.72973
G0 F18000 X-9.808 Y-21
G1 F1776 X-3.422 Y-21 E220.86248
G0 F18000 X-4.197 Y-20.5
G1 F1776 X-9.808 Y-20.5 E220.97912
G0 F18000 X-9.808 Y-20
G1 F1776 X-4.963 Y-20 E221.07983
G0 F18000 X-5.417 Y-19.5
G1 F1776 X-9.808 Y-19.5 E221.17111
G0 F18000 X-9.808 Y-19
G1 F1776 X-5.87 Y-19 E221.25297
G0 F18000 X-6.324 Y-18.5
G1 F1776 X-9.808 Y-18.5 E221.3254
G0 F18000 X-9.808 Y-18
G1 F1776 X-6.685 Y-18 E221.39032
G0 F18000 X-6.942 Y-17.5
G1 F1776 X-9.808 Y-17.5 E221.44989
G0 F18000 X-9.808 Y-17
G1 F1776 X-7.199 Y-17 E221.50413
G0 F18000 X-7.455 Y-16.5
G1 F1776 X-9.808 Y-16.5 E221.55304
G0 F18000 X-9.808 Y-16
G1 F1776 X-7.681 Y-16 E221.59726
G0 F18000 X-7.79 Y-15.5
G1 F1776 X-9.808 Y-15.5 E221.63921
G0 F18000 X-9.808 Y-15
G1 F1776 X-7.898 Y-15 E221.67891
G0 F18000 X-8.006 Y-14.5
G1 F1776 X-9.808 Y-14.5 E221.71637
G0 F18000 X-9.808 Y-14
G1 F1776 X-8.115 Y-14 E221.75156
G0 F18000 X-8.156 Y-13.5
G1 F1776 X-9.808 Y-13.5 E221.78591
G0 F18000 X-9.808 Y-13
G1 F1776 X-8.131 Y-13 E221.82077
G0 F18000 X-8.106 Y-12.5
G1 F1776 X-9.808 Y-12.5 E221.85615
G0 F18000 X-9.808 Y-12
G1 F1776 X-8.081 Y-12 E221.89205
G0 F18000 X-8.056 Y-11.5
G1 F1776 X-9.808 Y-11.5 E221.92847
G0 F18000 X-9.808 Y-11
G1 F1776 X-7.936 Y-11 E221.96738
G0 F18000 X-7.776 Y-10.5
G1 F1776 X-9.808 Y-10.5 E222.00962
G0 F18000 X-9.808 Y-10
G1 F1776 X-7.616 Y-10 E222.05519
G0 F18000 X-7.456 Y-9.5
G1 F1776 X-9.808 Y-9.5 E222.10408
G0 F18000 X-9.808 Y-9
G1 F1776 X-7.274 Y-9 E222.15676
G0 F18000 X-6.952 Y-8.5
G1 F1776 X-9.808 Y-8.5 E222.21613
G0 F18000 X-9.808 Y-7.999
G1 F1776 X-6.63 Y-8 E222.28219
G0 F18000 X-6.307 Y-7.5
G1 F1776 X-9.808 Y-7.499 E222.35497
G0 F18000 X-9.808 Y-6.999
G1 F1776 X-5.963 Y-7 E222.43489
G0 F18000 X-5.412 Y-6.5
G1 F1776 X-9.808 Y-6.499 E222.52628
G0 F18000 X-9.808 Y-5.999
G1 F1776 X-4.862 Y-6 E222.62909
G0 F18000 X-4.311 Y-5.5
G1 F1776 X-9.808 Y-5.499 E222.74336
G0 F18000 X-9.808 Y-4.999
G1 F1776 X-3.393 Y-5 E222.87671
G0 F18000 X-2.419 Y-4.5
G1 F1776 X-9.808 Y-4.499 E223.03031
G0 F18000 X-9.808 Y-2.999
G1 F1776 X9.81 Y-3 E223.43812
G0 F18000 X9.81 Y-2.5
G1 F1776 X-9.808 Y-2.499 E223.84593
G0 F18000 X-9.808 Y-1.999
G1 F1776 X9.81 Y-2 E224.25374
G0 F18000 X9.81 Y-1.5
G1 F1776 X-9.808 Y-1.499 E224.66156
G0 F18000 X-9.808 Y-0.999
G1 F1776 X9.81 Y-1 E225.06937
G0 F18000 X9.81 Y-0.5
G1 F1776 X-9.808 Y-0.499 E225.47718
G0 F18000 X-9.808 Y0
G1 F1776 X9.81 Y0 E225.88499
G0 F18000 X9.81 Y0.499
G1 F1776 X-9.809 Y0.5 E226.29282
G0 F18000 X-9.809 Y1
G1 F1776 X9.81 Y0.999 E226.70065
G0 F18000 X9.81 Y1.499
G1 F1776 X-9.809 Y1.5 E227.10848
G0 F18000 X-9.809 Y2
G1 F1776 X9.81 Y1.999 E227.51631
G0 F18000 X9.81 Y2.499
G1 F1776 X-9.809 Y2.5 E227.92415
G0 F18000 X-9.809 Y3
G1 F1776 X9.81 Y2.999 E228.33198
G0 F18000 X9.81 Y3.499
G1 F1776 X-9.809 Y3.5 E228.73981
G0 F18000 X-9.809 Y4
G1 F1776 X-0.542 Y4 E228.93245
G0 F18000 X-2.308 Y4.5
G0 X-2.308 Y4.5
G1 F1776 X-9.809 Y4.5 E229.08838
G0 F18000 X-9.809 Y5
G1 F1776 X-3.536 Y5 E229.21878
G0 F18000 X-4.201 Y5.5
G1 F1776 X-9.809 Y5.5 E229.33535
G0 F18000 X-9.809 Y6
G1 F1776 X-4.866 Y6 E229.43811
G0 F18000 X-5.493 Y6.5
G1 F1776 X-9.809 Y6.5 E229.52783
G0 F18000 X-9.809 Y7
G1 F1776 X-5.885 Y7 E229.6094
G0 F18000 X-6.277 Y7.5
G1 F1776 X-9.809 Y7.5 E229.68282
G0 F18000 X-9.809 Y8
G1 F1776 X-6.669 Y8 E229.74809
G0 F18000 X-6.996 Y8.5
G1 F1776 X-9.809 Y8.5 E229.80657
G0 F18000 X-9.809 Y9
G1 F1776 X-7.209 Y9 E229.86061
G0 F18000 X-7.422 Y9.5
G1 F1776 X-9.809 Y9.5 E229.91023
G0 F18000 X-9.809 Y10
G1 F1776 X-7.635 Y10 E229.95543
G0 F18000 X-7.849 Y10.5
G1 F1776 X-9.809 Y10.5 E229.99617
G0 F18000 X-9.809 Y11
G1 F1776 X-7.928 Y11 E230.03527
G0 F18000 X-7.998 Y11.5
G1 F1776 X-9.809 Y11.5 E230.07292
G0 F18000 X-9.809 Y12
G1 F1776 X-8.069 Y12 E230.10909
G0 F18000 X-8.14 Y12.5
G1 F1776 X-9.809 Y12.5 E230.14378
G0 F18000 X-9.809 Y13
G1 F1776 X-8.185 Y13 E230.17754
G0 F18000 X-8.125 Y13.5
G1 F1776 X-9.809 Y13.5 E230.21255
G0 F18000 X-9.809 Y14
G1 F1776 X-8.065 Y14 E230.2488
G0 F18000 X-8.004 Y14.5
G1 F1776 X-9.809 Y14.5 E230.28632
G0 F18000 X-9.808 Y15
G1 F1776 X-7.944 Y15 E230.32507
G0 F18000 X-7.825 Y15.5
G1 F1776 X-9.808 Y15.5 E230.36629
G0 F18000 X-9.808 Y16
G1 F1776 X-7.624 Y16 E230.41169
G0 F18000 X-7.423 Y16.5
G1 F1776 X-9.808 Y16.5 E230.46127
G0 F18000 X-9.808 Y17
G1 F1776 X-7.222 Y17 E230.51503
G0 F18000 X-7.021 Y17.5
G1 F1776 X-9.808 Y17.5 E230.57296
G0 F18000 X-9.808 Y18
G1 F1776 X-6.651 Y18 E230.63859
G0 F18000 X-6.275 Y18.5
G1 F1776 X-9.808 Y18.5 E230.71203
G0 F18000 X-9.808 Y19
G1 F1776 X-5.899 Y19 E230.79329
G0 F18000 X-5.491 Y19.5
G1 F1776 X-9.808 Y19.5 E230.88303
G0 F18000 X-9.808 Y20
G1 F1776 X-4.854 Y20 E230.98601
G0 F18000 X-4.217 Y20.5
G1 F1776 X-9.808 Y20.5 E231.10224
G0 F18000 X-9.808 Y21
G1 F1776 X-3.494 Y21 E231.23349
G0 F18000 X-2.322 Y21.5
G1 F1776 X-9.808 Y21.5 E231.3891
G0 F18000 X0.745 Y21.5
G0 X1.145 Y21.5
G0 X4.311 Y21.5
G0 X4.311 Y21.5
G1 F1776 X9.809 Y21.5 E231.50339
G0 F18000 X9.809 Y21
G1 F1776 X5.537 Y21 E231.5922
G0 F18000 X6.202 Y20.5
G1 F1776 X9.809 Y20.5 E231.66718
G0 F18000 X9.809 Y20
G1 F1776 X6.867 Y20 E231.72834
G0 F18000 X7.493 Y19.5
G1 F1776 X9.809 Y19.5 E231.77648
G0 F18000 X9.809 Y19
G1 F1776 X7.885 Y19 E231.81648
G0 F18000 X8.278 Y18.5
G1 F1776 X9.809 Y18.5 E231.8483
G0 F18000 X9.809 Y18
G1 F1776 X8.67 Y18 E231.87198
G0 F18000 X8.996 Y17.5
G1 F1776 X9.809 Y17.5 E231.88888
G0 F18000 X9.809 Y17
G1 F1776 X9.21 Y17 E231.90133
G0 F18000 X9.423 Y16.5
G1 F1776 X9.809 Y16.25 E231.90936
G1 X9.636 Y16 E231.91568
G0 F18000 X9.625 Y10
G0 X9.625 Y10
G1 F1776 X9.81 Y9.75 E231.91952
G1 X9.322 Y9.25 E231.92757
G1 X9.81 Y8.75 E231.9398
G1 X9.021 Y8.5 E231.957
G0 F18000 X8.651 Y7.999
G1 F1776 X9.81 Y7.999 E231.98109
G0 F18000 X9.81 Y7.499
G1 F1776 X8.275 Y7.499 E232.013
G0 F18000 X7.899 Y6.999
G1 F1776 X9.81 Y6.999 E232.05273
G0 F18000 X9.81 Y6.499
G1 F1776 X7.491 Y6.499 E232.10093
G0 F18000 X6.854 Y6
G1 F1776 X9.81 Y5.999 E232.16238
G0 F18000 X9.81 Y5.499
G1 F1776 X6.217 Y5.5 E232.23707
G0 F18000 X5.493 Y5
G1 F1776 X9.81 Y4.999 E232.32681
G0 F18000 X9.81 Y4.499
G1 F1776 X4.32 Y4.5 E232.44094
G0 F18000 X2.495 Y4
G0 X2.495 Y4
G1 F1776 X9.81 Y3.999 E232.593
; Layer Change GCode
; LAYER:7
G1 F6600 E225.793
G1 Z1.2
G0 F18000 X6.884 Y6.65 Z1.3
G0 X5.429 Y5.508
G0 X3.339 Y4.617
G0 X1.089 Y4.297
G0 X-1.164 Y4.571
G0 X-3.274 Y5.418
G0 X-5.09 Y6.784
G0 X-6.492 Y8.571
G0 X-7.383 Y10.661
G0 X-7.703 Y12.911
G0 X-7.429 Y15.165
G0 X-6.582 Y17.275
G0 X-5.874 Y18.216
G0 X-10.351 Y22.275
G0 X-10.648 Y22.543
G0 X-10.489 Y22.4
G0 X-10.489 Y22.4
G0 X-10.749 Y22.75
G0 X-10.749 Y22.75
G0 X-10.249 Y22.25
; TYPE:WALL-INNER
G1 Z1
G1 F6600 E232.693
G1 F1776 X-10.249 Y22.25 E232.693
G1 X-10.249 Y-22.248 E233.618
G1 X10.25 Y-22.248 E234.04413
G1 X10.25 Y22.25 E234.96913
G1 X-10.249 Y22.25 E235.39526
G0 F18000 X-10.749 Y22.75
; TYPE:WALL-OUTER
G1 F1554 X-10.749 Y22.75 E235.39526
G1 X-10.749 Y-22.748 E236.34105
G1 X10.75 Y-22.748 E236.78796
G1 X10.75 Y22.75 E237.73376
G1 X-10.749 Y22.75 E238.18067
G0 F18000 X-10.489 Y22.4
G0 X-5.254 Y19.128
G0 X-5.254 Y19.128
; TYPE:WALL-INNER
G1 F1776 X-5.254 Y19.128 E238.18067
G1 X-3.456 Y20.538 E238.22817
G1 X-1.353 Y21.435 E238.2757
G1 X0.909 Y21.756 E238.32319
G1 X3.178 Y21.482 E238.3707
G1 X5.299 Y20.629 E238.41822
G1 X7.127 Y19.255 E238.46576
G1 X8.537 Y17.457 E238.51326
G1 X9.434 Y15.354 E238.56078
G1 X9.755 Y13.091 E238.6083
G1 X9.481 Y10.822 E238.65581
G1 X8.628 Y8.701 E238.70333
G1 X7.254 Y6.873 E238.75086
G1 X5.456 Y5.463 E238.79836
G1 X3.353 Y4.566 E238.84589
G1 X1.09 Y4.245 E238.8934
G1 X-1.178 Y4.519 E238.94089
G1 X-3.299 Y5.372 E238.98841
G1 X-5.127 Y6.746 E239.03595
G1 X-6.537 Y8.544 E239.08345
G1 X-7.434 Y10.647 E239.13098
G1 X-7.755 Y12.91 E239.17849
G1 X-7.481 Y15.179 E239.226
G1 X-6.628 Y17.3 E239.27352
G1 X-5.254 Y19.128 E239.32106
G0 F18000 X-4.608 Y19.387
G0 X-3.429 Y20.493
G0 X-1.339 Y21.384
G0 X0.665 Y21.516
G0 X0.864 Y21.598
G0 X0.864 Y21.598
G0 X0.914 Y21.252
; TYPE:WALL-OUTER
G1 F1554 X0.914 Y21.252 E239.32106
G1 X3.053 Y20.993 E239.36585
G1 X5.052 Y20.19 E239.41063
G1 X6.774 Y18.895 E239.45542
G1 X8.103 Y17.2 E239.50019
G1 X8.948 Y15.219 E239.54496
G1 X9.251 Y13.086 E239.58975
G1 X8.992 Y10.947 E239.63454
G1 X8.189 Y8.948 E239.67932
G1 X6.894 Y7.226 E239.72411
G1 X5.199 Y5.897 E239.76888
G1 X3.218 Y5.052 E239.81365
G1 X1.085 Y4.749 E239.85844
G1 X-1.053 Y5.008 E239.90321
G1 X-3.052 Y5.811 E239.94799
G1 X-4.774 Y7.106 E239.99278
G1 X-6.103 Y8.801 E240.03755
G1 X-6.948 Y10.782 E240.08232
G1 X-7.251 Y12.915 E240.12711
G1 X-6.992 Y15.054 E240.1719
G1 X-6.189 Y17.053 E240.21668
G1 X-4.894 Y18.775 E240.26147
G1 X-3.199 Y20.104 E240.30624
G1 X-1.218 Y20.949 E240.35101
G1 X0.914 Y21.252 E240.39578
G1 F6600 E233.59578
G1 Z1.3
G0 F18000 X0.864 Y21.598
G0 X0.865 Y21.709
G0 X0.91 Y21.704
G0 X-1.339 Y21.384
G0 X-3.429 Y20.493
G0 X-5.216 Y19.091
G0 X-6.582 Y17.275
G0 X-7.429 Y15.165
G0 X-7.703 Y12.911
G0 X-7.383 Y10.661
G0 X-6.492 Y8.571
G0 X-5.09 Y6.784
G0 X-3.274 Y5.418
G0 X-1.164 Y4.571
G0 X0.476 Y4.369
G0 X0.283 Y-4.271
G0 X0.283 Y-4.271
; TYPE:WALL-INNER
G1 Z1
G1 F6600 E240.49578
G1 F1776 X0.283 Y-4.271 E240.49578
G1 X2.565 Y-4.384 E240.54327
G1 X4.742 Y-5.082 E240.5908
G1 X6.663 Y-6.321 E240.63831
G1 X8.199 Y-8.014 E240.68583
G1 X9.243 Y-10.047 E240.73334
G1 X9.727 Y-12.282 E240.78088
G1 X9.614 Y-14.564 E240.82837
G1 X8.916 Y-16.741 E240.8759
G1 X7.677 Y-18.662 E240.92342
G1 X5.984 Y-20.198 E240.97093
G1 X3.951 Y-21.242 E241.01844
G1 X1.716 Y-21.726 E241.06598
G1 X-0.565 Y-21.613 E241.11345
G1 X-2.742 Y-20.915 E241.16098
G1 X-4.663 Y-19.676 E241.2085
G1 X-6.199 Y-17.983 E241.25602
G1 X-7.243 Y-15.95 E241.30352
G1 X-7.727 Y-13.715 E241.35106
G1 X-7.614 Y-11.433 E241.39856
G1 X-6.916 Y-9.256 E241.44608
G1 X-5.677 Y-7.335 E241.4936
G1 X-3.984 Y-5.799 E241.54112
G1 X-1.951 Y-4.755 E241.58863
G1 X0.283 Y-4.271 E241.63614
G0 F18000 X0.324 Y-4.774
; TYPE:WALL-OUTER
G1 F1554 X0.324 Y-4.774 E241.63614
G1 X2.475 Y-4.88 E241.68091
G1 X4.527 Y-5.538 E241.72571
G1 X6.337 Y-6.706 E241.77049
G1 X7.784 Y-8.301 E241.81525
G1 X8.768 Y-10.217 E241.86003
G1 X9.224 Y-12.323 E241.90482
G1 X9.118 Y-14.474 E241.94959
G1 X8.46 Y-16.526 E241.99438
G1 X7.292 Y-18.336 E242.03916
G1 X5.697 Y-19.783 E242.08393
G1 X3.781 Y-20.767 E242.12871
G1 X1.675 Y-21.223 E242.1735
G1 X-0.475 Y-21.117 E242.21825
G1 X-2.527 Y-20.459 E242.26304
G1 X-4.337 Y-19.291 E242.30782
G1 X-5.784 Y-17.696 E242.35259
G1 X-6.768 Y-15.78 E242.39736
G1 X-7.224 Y-13.674 E242.44216
G1 X-7.118 Y-11.523 E242.48692
G1 X-6.46 Y-9.471 E242.53172
G1 X-5.292 Y-7.661 E242.5765
G1 X-3.697 Y-6.214 E242.62127
G1 X-1.781 Y-5.23 E242.66604
G1 X0.324 Y-4.774 E242.71081
G0 F18000 X0 Y-3.882
; TYPE:FILL
G1 F1776 X0 Y3.934 E242.87329
G0 F18000 X-0.499 Y3.995
G1 F1776 X-0.5 Y-3.99 E243.03928
G0 F18000 X-1 Y-4.099
G1 F1776 X-0.999 Y4.055 E243.20878
G0 F18000 X-1.499 Y4.175
G1 F1776 X-1.5 Y-4.207 E243.38302
G0 F18000 X-2 Y-4.316
G1 F1776 X-1.999 Y4.376 E243.56371
G0 F18000 X-2.499 Y4.577
G1 F1776 X-2.5 Y-4.542 E243.75327
G0 F18000 X-3 Y-4.798
G1 F1776 X-2.999 Y4.778 E243.95233
G0 F18000 X-3.499 Y4.979
G1 F1776 X-3.5 Y-5.055 E244.16091
G0 F18000 X-4 Y-5.311
G1 F1776 X-3.999 Y5.348 E244.38249
G0 F18000 X-4.499 Y5.724
G1 F1776 X-4.5 Y-5.672 E244.61939
G0 F18000 X-5 Y-6.126
G1 F1776 X-4.999 Y6.1 E244.87353
G0 F18000 X-5.499 Y6.508
G1 F1776 X-5.5 Y-6.579 E245.14558
G0 F18000 X-6 Y-7.033
G1 F1776 X-5.999 Y7.145 E245.44031
G0 F18000 X-6.499 Y7.783
G1 F1776 X-6.5 Y-7.799 E245.76422
G0 F18000 X-7 Y-8.575
G1 F1776 X-6.999 Y8.507 E246.11931
G0 F18000 X-7.499 Y9.679
G1 F1776 X-7.5 Y-9.637 E246.52085
G0 F18000 X-8 Y-11.199
G0 X-8 Y-11.199
G1 F1776 X-7.999 Y11.503 E246.99277
G0 F18000 X-7.999 Y14.543
G0 X-7.999 Y14.543
G1 F1776 X-7.999 Y21.81 E247.14383
G0 F18000 X-7.499 Y21.81
G1 F1776 X-7.499 Y16.309 E247.25818
G0 F18000 X-6.999 Y17.538
G1 F1776 X-6.999 Y21.81 E247.34699
G0 F18000 X-6.499 Y21.81
G1 F1776 X-6.499 Y18.202 E247.42199
G0 F18000 X-5.999 Y18.867
G1 F1776 X-5.999 Y21.81 E247.48317
G0 F18000 X-5.499 Y21.81
G1 F1776 X-5.499 Y19.494 E247.53131
G0 F18000 X-4.999 Y19.886
G1 F1776 X-4.999 Y21.81 E247.57131
G0 F18000 X-4.499 Y21.81
G1 F1776 X-4.499 Y20.279 E247.60313
G0 F18000 X-3.999 Y20.671
G1 F1776 X-3.999 Y21.81 E247.62681
G0 F18000 X-3.499 Y21.81
G1 F1776 X-3.499 Y20.998 E247.64369
G0 F18000 X-2.999 Y21.211
G1 F1776 X-2.999 Y21.81 E247.65614
G0 F18000 X-2.499 Y21.81
G1 F1776 X-2.499 Y21.424 E247.66416
G0 F18000 X-1.999 Y21.638
G1 F1776 X-1.999 Y21.81 E247.66774
G0 F18000 X4 Y21.81
G0 X4 Y21.81
G1 F1776 X4 Y21.625 E247.67158
G0 F18000 X4.5 Y21.81
G1 F1776 X4.5 Y21.424 E247.67961
G0 F18000 X5 Y21.223
G1 F1776 X5 Y21.81 E247.69181
G0 F18000 X5.5 Y21.81
G1 F1776 X5.5 Y21.022 E247.70819
G0 F18000 X6 Y20.652
G1 F1776 X6 Y21.81 E247.73226
G0 F18000 X6.5 Y21.81
G1 F1776 X6.5 Y20.276 E247.76415
G0 F18000 X7 Y19.9
G1 F1776 X7 Y21.81 E247.80386
G0 F18000 X7.5 Y21.81
G1 F1776 X7.5 Y19.491 E247.85206
G0 F18000 X8 Y18.854
G1 F1776 X8 Y21.81 E247.91351
G0 F18000 X8.5 Y21.81
G1 F1776 X8.5 Y18.217 E247.9882
G0 F18000 X9 Y17.492
G1 F1776 X9 Y21.81 E248.07796
G0 F18000 X9.5 Y21.81
G1 F1776 X9.5 Y16.318 E248.19213
G0 F18000 X9.5 Y13.264
G0 X9.5 Y12.864
G0 X9.5 Y9.692
G0 X9.5 Y9.692
G1 F1776 X9.499 Y-9.581 E248.59277
G0 F18000 X8.999 Y-8.607
G1 F1776 X9 Y8.464 E248.94763
G0 F18000 X8.5 Y7.799
G1 F1776 X8.499 Y-7.688 E249.26957
G0 F18000 X7.999 Y-7.138
G1 F1776 X8 Y7.134 E249.56625
G0 F18000 X7.5 Y6.507
G1 F1776 X7.499 Y-6.587 E249.83844
G0 F18000 X6.999 Y-6.036
G1 F1776 X7 Y6.114 E250.09101
G0 F18000 X6.5 Y5.722
G1 F1776 X6.499 Y-5.691 E250.32826
G0 F18000 X5.999 Y-5.368
G1 F1776 X6 Y5.33 E250.55064
G0 F18000 X5.5 Y5.002
G1 F1776 X5.499 Y-5.046 E250.75952
G0 F18000 X4.999 Y-4.723
G1 F1776 X5 Y4.789 E250.95725
G0 F18000 X4.5 Y4.576
G1 F1776 X4.499 Y-4.541 E251.14677
G0 F18000 X3.999 Y-4.381
G1 F1776 X4 Y4.363 E251.32854
G0 F18000 X3.5 Y4.151
G1 F1776 X3.499 Y-4.221 E251.50257
G0 F18000 X2.999 Y-4.061
G1 F1776 X3 Y4.07 E251.67159
G0 F18000 X2.5 Y4
G1 F1776 X2.499 Y-3.94 E251.83665
G0 F18000 X1.999 Y-3.915
G1 F1776 X2 Y3.929 E251.99971
G0 F18000 X1.5 Y3.859
G1 F1776 X1.499 Y-3.89 E252.16079
G0 F18000 X0.999 Y-3.865
G1 F1776 X1 Y3.814 E252.32042
G0 F18000 X0.5 Y3.874
G1 F1776 X0.499 Y-3.841 E252.48079
G0 F18000 X0.009 Y-4.456
G0 X-1.933 Y-4.804
G0 X-3.953 Y-5.842
G0 X-5.637 Y-7.369
G0 X-6.868 Y-9.278
G0 X-7.562 Y-11.443
G0 X-7.675 Y-13.71
G0 X-7.571 Y-13.989
G0 X-8 Y-14.529
G0 X-8 Y-14.529
G1 F1776 X-8 Y-21.808 E252.63211
G0 F18000 X-7.5 Y-21.808
G1 F1776 X-7.5 Y-16.413 E252.74425
G0 F18000 X-7 Y-17.387
G1 F1776 X-7 Y-21.808 E252.83616
G0 F18000 X-6.5 Y-21.808
G1 F1776 X-6.5 Y-18.307 E252.90893
G0 F18000 X-6 Y-18.857
G1 F1776 X-6 Y-21.808 E252.97028
G0 F18000 X-5.5 Y-21.808
G1 F1776 X-5.5 Y-19.408 E253.02017
G0 F18000 X-5 Y-19.959
G1 F1776 X-5 Y-21.808 E253.0586
G0 F18000 X-4.5 Y-21.808
G1 F1776 X-4.5 Y-20.304 E253.08987
G0 F18000 X-4 Y-20.627
G1 F1776 X-4 Y-21.808 E253.11442
G0 F18000 X-3.5 Y-21.808
G1 F1776 X-3.5 Y-20.95 E253.13225
G0 F18000 X-3 Y-21.272
G1 F1776 X-3 Y-21.808 E253.1434
G0 F18000 X-2.5 Y-21.808
G1 F1776 X-2.5 Y-21.455 E253.15073
G0 F18000 X-2 Y-21.615
G1 F1776 X-2 Y-21.808 E253.15475
G0 F18000 X3.999 Y-21.808
G0 X3.999 Y-21.808
G1 F1776 X3.999 Y-21.682 E253.15737
G0 F18000 X4.499 Y-21.808
G1 F1776 X4.499 Y-21.456 E253.16468
G0 F18000 X4.999 Y-21.199
G1 F1776 X4.999 Y-21.808 E253.17734
G0 F18000 X5.499 Y-21.808
G1 F1776 X5.499 Y-20.942 E253.19534
G0 F18000 X5.999 Y-20.686
G1 F1776 X5.999 Y-21.808 E253.21867
G0 F18000 X6.499 Y-21.808
G1 F1776 X6.499 Y-20.325 E253.2495
G0 F18000 X6.999 Y-19.871
G1 F1776 X6.999 Y-21.808 E253.28976
G0 F18000 X7.499 Y-21.808
G1 F1776 X7.499 Y-19.417 E253.33946
G0 F18000 X7.999 Y-18.964
G1 F1776 X7.999 Y-21.808 E253.39858
G0 F18000 X8.499 Y-21.808
G1 F1776 X8.499 Y-18.198 E253.47363
G0 F18000 X8.999 Y-17.424
G1 F1776 X8.999 Y-21.808 E253.56476
G0 F18000 X9.499 Y-21.808
G1 F1776 X9.499 Y-16.362 E253.67797
G0 F18000 X8.9 Y-16.542
G0 X7.637 Y-18.628
G0 X5.953 Y-20.155
G0 X3.933 Y-21.193
G0 X1.711 Y-21.674
G0 X-0.555 Y-21.561
G0 X-2.72 Y-20.867
G0 X-3.515 Y-20.299
G0 X-8.5 Y-21.808
G0 X-8.5 Y-21.808
G1 F1776 X-8.499 Y21.81 E254.58468
G0 F18000 X-8.999 Y21.81
G1 F1776 X-9 Y-21.808 E255.4914
G0 F18000 X-9.5 Y-21.808
G1 F1776 X-9.499 Y21.81 E256.39811
; Layer Change GCode
; LAYER:8
G0 F18000 X-10.327 Y22.303 Z1.1
G0 X-10.67 Y22.507
G0 X-10.489 Y22.4
G0 X-10.489 Y22.4
G0 X-10.749 Y22.75
G0 X-10.749 Y22.75
G0 X-10.249 Y22.25
; TYPE:WALL-INNER
G1 F1776 X-10.249 Y22.25 E256.39811
G1 X-10.249 Y-22.248 E257.32311
G1 X10.25 Y-22.248 E257.74924
G1 X10.25 Y22.25 E258.67425
G1 X-10.249 Y22.25 E259.10037
G0 F18000 X-10.749 Y22.75
; TYPE:WALL-OUTER
G1 F1554 X-10.749 Y22.75 E259.10037
G1 X-10.749 Y-22.748 E260.04616
G1 X10.75 Y-22.748 E260.49308
G1 X10.75 Y22.75 E261.43887
G1 X-10.749 Y22.75 E261.88578
G0 F18000 X-10.489 Y22.4
G0 X-5.254 Y19.128
G0 X-5.254 Y19.128
; TYPE:WALL-INNER
G1 F1776 X-5.254 Y19.128 E261.88578
G1 X-3.456 Y20.538 E261.93328
G1 X-1.353 Y21.435 E261.98081
G1 X0.909 Y21.756 E262.0283
G1 X3.178 Y21.482 E262.07581
G1 X5.299 Y20.629 E262.12333
G1 X7.127 Y19.255 E262.17087
G1 X8.537 Y17.457 E262.21837
G1 X9.434 Y15.354 E262.26589
G1 X9.755 Y13.091 E262.31341
G1 X9.481 Y10.822 E262.36092
G1 X8.628 Y8.701 E262.40844
G1 X7.254 Y6.873 E262.45598
G1 X5.456 Y5.463 E262.50347
G1 X3.353 Y4.566 E262.551
G1 X1.09 Y4.245 E262.59851
G1 X-1.178 Y4.519 E262.646
G1 X-3.299 Y5.372 E262.69353
G1 X-5.127 Y6.746 E262.74106
G1 X-6.537 Y8.544 E262.78856
G1 X-7.434 Y10.647 E262.83609
G1 X-7.755 Y12.91 E262.8836
G1 X-7.481 Y15.179 E262.93111
G1 X-6.628 Y17.3 E262.97863
G1 X-5.254 Y19.128 E263.02617
G0 F18000 X-4.608 Y19.387
G0 X-3.429 Y20.493
G0 X-1.339 Y21.384
G0 X0.665 Y21.516
G0 X0.864 Y21.598
G0 X0.864 Y21.598
G0 X0.914 Y21.252
; TYPE:WALL-OUTER
G1 F1554 X0.914 Y21.252 E263.02617
G1 X3.053 Y20.993 E263.07096
G1 X5.052 Y20.19 E263.11574
G1 X6.774 Y18.895 E263.16053
G1 X8.103 Y17.2 E263.2053
G1 X8.948 Y15.219 E263.25007
G1 X9.251 Y13.086 E263.29486
G1 X8.992 Y10.947 E263.33965
G1 X8.189 Y8.948 E263.38443
G1 X6.894 Y7.226 E263.42922
G1 X5.199 Y5.897 E263.47399
G1 X3.218 Y5.052 E263.51876
G1 X1.085 Y4.749 E263.56355
G1 X-1.053 Y5.008 E263.60832
G1 X-3.052 Y5.811 E263.6531
G1 X-4.774 Y7.106 E263.69789
G1 X-6.103 Y8.801 E263.74266
G1 X-6.948 Y10.782 E263.78743
G1 X-7.251 Y12.915 E263.83222
G1 X-6.992 Y15.054 E263.87701
G1 X-6.189 Y17.053 E263.92179
G1 X-4.894 Y18.775 E263.96658
G1 X-3.199 Y20.104 E264.01135
G1 X-1.218 Y20.949 E264.05612
G1 X0.914 Y21.252 E264.10089
G1 F6600 E257.30089
G1 Z1.4
G0 F18000 X0.864 Y21.598
G0 X0.865 Y21.709
G0 X0.91 Y21.704
G0 X-1.339 Y21.384
G0 X-3.429 Y20.493
G0 X-5.216 Y19.091
G0 X-6.582 Y17.275
G0 X-7.429 Y15.165
G0 X-7.703 Y12.911
G0 X-7.383 Y10.661
G0 X-6.492 Y8.571
G0 X-5.09 Y6.784
G0 X-3.274 Y5.418
G0 X-1.164 Y4.571
G0 X0.476 Y4.369
G0 X0.283 Y-4.271
G0 X0.283 Y-4.271
; TYPE:WALL-INNER
G1 Z1.1
G1 F6600 E264.20089
G1 F1776 X0.283 Y-4.271 E264.20089
G1 X2.565 Y-4.384 E264.24838
G1 X4.742 Y-5.082 E264.29591
G1 X6.663 Y-6.321 E264.34342
G1 X8.199 Y-8.014 E264.39094
G1 X9.243 Y-10.047 E264.43845
G1 X9.727 Y-12.282 E264.48599
G1 X9.614 Y-14.564 E264.53348
G1 X8.916 Y-16.741 E264.58101
G1 X7.677 Y-18.662 E264.62853
G1 X5.984 Y-20.198 E264.67605
G1 X3.951 Y-21.242 E264.72355
G1 X1.716 Y-21.726 E264.77109
G1 X-0.565 Y-21.613 E264.81857
G1 X-2.742 Y-20.915 E264.86609
G1 X-4.663 Y-19.676 E264.91361
G1 X-6.199 Y-17.983 E264.96113
G1 X-7.243 Y-15.95 E265.00863
G1 X-7.727 Y-13.715 E265.05617
G1 X-7.614 Y-11.433 E265.10367
G1 X-6.916 Y-9.256 E265.15119
G1 X-5.677 Y-7.335 E265.19871
G1 X-3.984 Y-5.799 E265.24623
G1 X-1.951 Y-4.755 E265.29374
G1 X0.283 Y-4.271 E265.34125
G0 F18000 X0.324 Y-4.774
; TYPE:WALL-OUTER
G1 F1554 X0.324 Y-4.774 E265.34125
G1 X2.475 Y-4.88 E265.38602
G1 X4.527 Y-5.538 E265.43082
G1 X6.337 Y-6.706 E265.4756
G1 X7.784 Y-8.301 E265.52036
G1 X8.768 Y-10.217 E265.56514
G1 X9.224 Y-12.323 E265.60993
G1 X9.118 Y-14.474 E265.6547
G1 X8.46 Y-16.526 E265.6995
G1 X7.292 Y-18.336 E265.74427
G1 X5.697 Y-19.783 E265.78904
G1 X3.781 Y-20.767 E265.83382
G1 X1.675 Y-21.223 E265.87861
G1 X-0.475 Y-21.117 E265.92336
G1 X-2.527 Y-20.459 E265.96815
G1 X-4.337 Y-19.291 E266.01293
G1 X-5.784 Y-17.696 E266.0577
G1 X-6.768 Y-15.78 E266.10247
G1 X-7.224 Y-13.674 E266.14727
G1 X-7.118 Y-11.523 E266.19204
G1 X-6.46 Y-9.471 E266.23683
G1 X-5.292 Y-7.661 E266.28161
G1 X-3.697 Y-6.214 E266.32638
G1 X-1.781 Y-5.23 E266.37115
G1 X0.324 Y-4.774 E266.41593
G0 F18000 X-0.545 Y-4
; TYPE:FILL
G1 F1776 X-9.808 Y-3.999 E266.60848
G0 F18000 X-9.808 Y-3.499
G1 F1776 X9.81 Y-3.5 E267.01629
G0 F18000 X9.81 Y-4
G1 F1776 X2.806 Y-4 E267.16189
G0 F18000 X4.37 Y-4.5
G0 X4.37 Y-4.5
G1 F1776 X9.81 Y-4.5 E267.27497
G0 F18000 X9.81 Y-5
G1 F1776 X5.428 Y-5 E267.36606
G0 F18000 X6.203 Y-5.5
G1 F1776 X9.81 Y-5.5 E267.44104
G0 F18000 X9.81 Y-6
G1 F1776 X6.966 Y-6 E267.50016
G0 F18000 X7.421 Y-6.5
G1 F1776 X9.81 Y-6.5 E267.54983
G0 F18000 X9.81 Y-7
G1 F1776 X7.875 Y-7 E267.59005
G0 F18000 X8.329 Y-7.5
G1 F1776 X9.81 Y-7.5 E267.62084
G0 F18000 X9.81 Y-8
G1 F1776 X8.688 Y-8 E267.64416
G0 F18000 X8.945 Y-8.5
G1 F1776 X9.81 Y-8.5 E267.66214
G0 F18000 X9.81 Y-9
G1 F1776 X9.201 Y-9 E267.6748
G0 F18000 X9.458 Y-9.5
G1 F1776 X9.81 Y-9.5 E267.68212
G0 F18000 X9.81 Y-10
G1 F1776 X9.683 Y-10 E267.68476
G0 F18000 X9.615 Y-16
G0 X9.615 Y-16
G1 F1776 X9.809 Y-16 E267.68879
G0 F18000 X9.809 Y-16.5
G1 F1776 X9.455 Y-16.5 E267.69615
G0 F18000 X9.272 Y-17
G1 F1776 X9.809 Y-17 E267.70731
G0 F18000 X9.809 Y-17.5
G1 F1776 X8.95 Y-17.5 E267.72517
G0 F18000 X8.627 Y-18
G1 F1776 X9.809 Y-18 E267.74974
G0 F18000 X9.809 Y-18.5
G1 F1776 X8.304 Y-18.5 E267.78103
G0 F18000 X7.959 Y-19
G1 F1776 X9.809 Y-19 E267.81948
G0 F18000 X9.809 Y-19.5
G1 F1776 X7.408 Y-19.5 E267.86939
G0 F18000 X6.857 Y-20
G1 F1776 X9.809 Y-20 E267.93076
G0 F18000 X9.809 Y-20.5
G1 F1776 X6.307 Y-20.5 E268.00356
G0 F18000 X5.387 Y-21
G1 F1776 X9.809 Y-21 E268.09548
G0 F18000 X9.809 Y-21.5
G1 F1776 X4.413 Y-21.5 E268.20765
G0 F18000 X2.398 Y-21.5
G0 X1.711 Y-21.674
G0 X1.38 Y-21.5
G0 X-2.36 Y-21.5
G0 X-2.36 Y-21.5
G1 F1776 X-9.808 Y-21.5 E268.36247
G0 F18000 X-9.808 Y-21
G1 F1776 X-3.422 Y-21 E268.49522
G0 F18000 X-4.197 Y-20.5
G1 F1776 X-9.808 Y-20.5 E268.61186
G0 F18000 X-9.808 Y-20
G1 F1776 X-4.963 Y-20 E268.71258
G0 F18000 X-5.417 Y-19.5
G1 F1776 X-9.808 Y-19.5 E268.80386
G0 F18000 X-9.808 Y-19
G1 F1776 X-5.87 Y-19 E268.88572
G0 F18000 X-6.324 Y-18.5
G1 F1776 X-9.808 Y-18.5 E268.95814
G0 F18000 X-9.808 Y-18
G1 F1776 X-6.685 Y-18 E269.02306
G0 F18000 X-6.942 Y-17.5
G1 F1776 X-9.808 Y-17.5 E269.08264
G0 F18000 X-9.808 Y-17
G1 F1776 X-7.199 Y-17 E269.13687
G0 F18000 X-7.455 Y-16.5
G1 F1776 X-9.808 Y-16.5 E269.18579
G0 F18000 X-9.808 Y-16
G1 F1776 X-7.681 Y-16 E269.23
G0 F18000 X-7.79 Y-15.5
G1 F1776 X-9.808 Y-15.5 E269.27195
G0 F18000 X-9.808 Y-15
G1 F1776 X-7.898 Y-15 E269.31166
G0 F18000 X-8.006 Y-14.5
G1 F1776 X-9.808 Y-14.5 E269.34912
G0 F18000 X-9.808 Y-14
G1 F1776 X-8.115 Y-14 E269.38431
G0 F18000 X-8.156 Y-13.5
G1 F1776 X-9.808 Y-13.5 E269.41865
G0 F18000 X-9.808 Y-13
G1 F1776 X-8.131 Y-13 E269.45351
G0 F18000 X-8.106 Y-12.5
G1 F1776 X-9.808 Y-12.5 E269.48889
G0 F18000 X-9.808 Y-12
G1 F1776 X-8.081 Y-12 E269.52479
G0 F18000 X-8.056 Y-11.5
G1 F1776 X-9.808 Y-11.5 E269.56121
G0 F18000 X-9.808 Y-11
G1 F1776 X-7.936 Y-11 E269.60013
G0 F18000 X-7.776 Y-10.5
G1 F1776 X-9.808 Y-10.5 E269.64237
G0 F18000 X-9.808 Y-10
G1 F1776 X-7.616 Y-10 E269.68793
G0 F18000 X-7.456 Y-9.5
G1 F1776 X-9.808 Y-9.5 E269.73683
G0 F18000 X-9.808 Y-9
G1 F1776 X-7.274 Y-9 E269.7895
G0 F18000 X-6.952 Y-8.5
G1 F1776 X-9.808 Y-8.5 E269.84887
G0 F18000 X-9.808 Y-7.999
G1 F1776 X-6.63 Y-8 E269.91493
G0 F18000 X-6.307 Y-7.5
G1 F1776 X-9.808 Y-7.499 E269.98771
G0 F18000 X-9.808 Y-6.999
G1 F1776 X-5.963 Y-7 E270.06764
G0 F18000 X-5.412 Y-6.5
G1 F1776 X-9.808 Y-6.499 E270.15902
G0 F18000 X-9.808 Y-5.999
G1 F1776 X-4.862 Y-6 E270.26184
G0 F18000 X-4.311 Y-5.5
G1 F1776 X-9.808 Y-5.499 E270.37611
G0 F18000 X-9.808 Y-4.999
G1 F1776 X-3.393 Y-5 E270.50946
G0 F18000 X-2.419 Y-4.5
G1 F1776 X-9.808 Y-4.499 E270.66306
G0 F18000 X-9.808 Y-2.999
G1 F1776 X9.81 Y-3 E271.07087
G0 F18000 X9.81 Y-2.5
G1 F1776 X-9.808 Y-2.499 E271.47868
G0 F18000 X-9.808 Y-1.999
G1 F1776 X9.81 Y-2 E271.88649
G0 F18000 X9.81 Y-1.5
G1 F1776 X-9.808 Y-1.499 E272.2943
G0 F18000 X-9.808 Y-0.999
G1 F1776 X9.81 Y-1 E272.70211
G0 F18000 X9.81 Y-0.5
G1 F1776 X-9.808 Y-0.499 E273.10992
G0 F18000 X-9.808 Y0
G1 F1776 X9.81 Y0 E273.51773
G0 F18000 X9.81 Y0.499
G1 F1776 X-9.809 Y0.5 E273.92556
G0 F18000 X-9.809 Y1
G1 F1776 X9.81 Y0.999 E274.3334
G0 F18000 X9.81 Y1.499
G1 F1776 X-9.809 Y1.5 E274.74123
G0 F18000 X-9.809 Y2
G1 F1776 X9.81 Y1.999 E275.14906
G0 F18000 X9.81 Y2.499
G1 F1776 X-9.809 Y2.5 E275.55689
G0 F18000 X-9.809 Y3
G1 F1776 X9.81 Y2.999 E275.96472
G0 F18000 X9.81 Y3.499
G1 F1776 X-9.809 Y3.5 E276.37255
G0 F18000 X-9.809 Y4
G1 F1776 X-0.542 Y4 E276.56519
G0 F18000 X-2.308 Y4.5
G0 X-2.308 Y4.5
G1 F1776 X-9.809 Y4.5 E276.72112
G0 F18000 X-9.809 Y5
G1 F1776 X-3.536 Y5 E276.85152
G0 F18000 X-4.201 Y5.5
G1 F1776 X-9.809 Y5.5 E276.9681
G0 F18000 X-9.809 Y6
G1 F1776 X-4.866 Y6 E277.07085
G0 F18000 X-5.493 Y6.5
G1 F1776 X-9.809 Y6.5 E277.16057
G0 F18000 X-9.809 Y7
G1 F1776 X-5.885 Y7 E277.24214
G0 F18000 X-6.277 Y7.5
G1 F1776 X-9.809 Y7.5 E277.31556
G0 F18000 X-9.809 Y8
G1 F1776 X-6.669 Y8 E277.38084
G0 F18000 X-6.996 Y8.5
G1 F1776 X-9.809 Y8.5 E277.43931
G0 F18000 X-9.809 Y9
G1 F1776 X-7.209 Y9 E277.49336
G0 F18000 X-7.422 Y9.5
G1 F1776 X-9.809 Y9.5 E277.54298
G0 F18000 X-9.809 Y10
G1 F1776 X-7.635 Y10 E277.58817
G0 F18000 X-7.849 Y10.5
G1 F1776 X-9.809 Y10.5 E277.62891
G0 F18000 X-9.809 Y11
G1 F1776 X-7.928 Y11 E277.66802
G0 F18000 X-7.998 Y11.5
G1 F1776 X-9.809 Y11.5 E277.70566
G0 F18000 X-9.809 Y12
G1 F1776 X-8.069 Y12 E277.74183
G0 F18000 X-8.14 Y12.5
G1 F1776 X-9.809 Y12.5 E277.77653
G0 F18000 X-9.809 Y13
G1 F1776 X-8.185 Y13 E277.81029
G0 F18000 X-8.125 Y13.5
G1 F1776 X-9.809 Y13.5 E277.84529
G0 F18000 X-9.809 Y14
G1 F1776 X-8.065 Y14 E277.88155
G0 F18000 X-8.004 Y14.5
G1 F1776 X-9.809 Y14.5 E277.91907
G0 F18000 X-9.808 Y15
G1 F1776 X-7.944 Y15 E277.95782
G0 F18000 X-7.825 Y15.5
G1 F1776 X-9.808 Y15.5 E277.99904
G0 F18000 X-9.808 Y16
G1 F1776 X-7.624 Y16 E278.04444
G0 F18000 X-7.423 Y16.5
G1 F1776 X-9.808 Y16.5 E278.09402
G0 F18000 X-9.808 Y17
G1 F1776 X-7.222 Y17 E278.14777
G0 F18000 X-7.021 Y17.5
G1 F1776 X-9.808 Y17.5 E278.20571
G0 F18000 X-9.808 Y18
G1 F1776 X-6.651 Y18 E278.27133
G0 F18000 X-6.275 Y18.5
G1 F1776 X-9.808 Y18.5 E278.34478
G0 F18000 X-9.808 Y19
G1 F1776 X-5.899 Y19 E278.42604
G0 F18000 X-5.491 Y19.5
G1 F1776 X-9.808 Y19.5 E278.51578
G0 F18000 X-9.808 Y20
G1 F1776 X-4.854 Y20 E278.61876
G0 F18000 X-4.217 Y20.5
G1 F1776 X-9.808 Y20.5 E278.73498
G0 F18000 X-9.808 Y21
G1 F1776 X-3.494 Y21 E278.86623
G0 F18000 X-2.322 Y21.5
