; Generated with MatterSlice 1.0
; filamentDiameter = 1.75
; extrusionWidth = 0.5
; firstLayerExtrusionWidth = 0.4
; layerThickness = 0.1
; firstLayerThickness = 0.3
; automatic settings before start_gcode
G21 ; set units to millimeters
M107 ; fan off
T0 ; set the active extruder to 0
; settings from start_gcode
M104 S190
M190 S60
M109 S190
G28
; automatic settings after start_gcode
T0 ; set the active extruder to 0
G90 ; use absolute coordinates
G92 E0 ; reset the expected extruder position
M82 ; use absolute distance for extrusion
; Layer count: 178
; Layer Change GCode
; LAYER:0
G4 P0
M107
G0 F18000 X28.6 Y15.6 Z0.6
; TYPE:SKIRT
G1 Z0.3
G1 F6600 E0
G1 F720 X-28.598 Y15.6 E2.85362
G1 X-28.598 Y-15.599 E4.41014
G1 X28.6 Y-15.599 E7.26376
G1 X28.6 Y15.6 E8.82029
G0 F18000 X28.2 Y15.2
G1 F720 X-28.198 Y15.2 E11.634
G1 X-28.198 Y-15.199 E13.15061
G1 X28.2 Y-15.199 E15.96432
G1 X28.2 Y15.2 E17.48093
G1 F6600 E10.68093
G1 Z0.6
G0 F18000 X-24.798 Y11.8
; TYPE:WALL-OUTER
G1 Z0.3
G1 F6600 E17.58093
G1 F720 X-24.798 Y11.8 E17.58093
G1 X-24.798 Y-11.799 E18.75829
G1 X24.8 Y-11.799 E21.23274
G1 X24.8 Y11.8 E22.4101
G1 X-24.798 Y11.8 E24.88455
G0 F18000 X-24.398 Y11.4
; TYPE:WALL-INNER
G1 F720 X-24.398 Y11.4 E24.88455
G1 X-24.398 Y-11.399 E26.022
G1 X24.4 Y-11.399 E28.45654
G1 X24.4 Y11.4 E29.59399
G1 X-24.398 Y11.4 E32.02853
G0 F18000 X-24.058 Y10.8
; TYPE:BOTTOM-FILL
G1 F720 X24.06 Y10.799 E34.42915
G0 F18000 X24.06 Y10.399
G1 F720 X-24.058 Y10.4 E36.82977
G0 F18000 X-24.058 Y10
G1 F720 X24.06 Y9.999 E39.23038
G0 F18000 X24.06 Y9.599
G1 F720 X-24.058 Y9.6 E41.631
G0 F18000 X-24.058 Y9.2
G1 F720 X24.06 Y9.199 E44.03162
G0 F18000 X24.06 Y8.799
G1 F720 X-24.058 Y8.8 E46.43223
G0 F18000 X-24.058 Y8.4
G1 F720 X24.06 Y8.399 E48.83285
G0 F18000 X24.06 Y7.999
G1 F720 X-24.058 Y8 E51.23347
G0 F18000 X-24.058 Y7.6
G1 F720 X24.06 Y7.599 E53.63408
G0 F18000 X24.06 Y7.199
G1 F720 X-24.058 Y7.2 E56.0347
G0 F18000 X-24.058 Y6.8
G1 F720 X24.06 Y6.799 E58.43532
G0 F18000 X24.06 Y6.399
G1 F720 X-24.058 Y6.4 E60.83593
G0 F18000 X-24.058 Y6
G1 F720 X24.06 Y5.999 E63.23655
G0 F18000 X24.06 Y5.599
G1 F720 X-24.058 Y5.6 E65.63717
G0 F18000 X-24.058 Y5.2
G1 F720 X24.06 Y5.199 E68.03778
G0 F18000 X24.06 Y4.799
G1 F720 X-24.058 Y4.8 E70.4384
G0 F18000 X-24.058 Y4.4
G1 F720 X24.06 Y4.399 E72.83902
G0 F18000 X24.06 Y3.999
G1 F720 X-24.058 Y4 E75.23963
G0 F18000 X-24.058 Y3.6
G1 F720 X24.06 Y3.599 E77.64025
G0 F18000 X24.06 Y3.199
G1 F720 X-24.058 Y3.2 E80.04087
G0 F18000 X-24.058 Y2.8
G1 F720 X24.06 Y2.799 E82.44148
G0 F18000 X24.06 Y2.399
G1 F720 X-24.058 Y2.4 E84.8421
G0 F18000 X-24.058 Y2
G1 F720 X24.06 Y1.999 E87.24272
G0 F18000 X24.06 Y1.599
G1 F720 X-24.058 Y1.6 E89.64333
G0 F18000 X-24.058 Y1.2
G1 F720 X24.06 Y1.199 E92.04395
G0 F18000 X24.06 Y0.799
G1 F720 X-24.058 Y0.8 E94.44457
G0 F18000 X-24.058 Y0.4
G1 F720 X24.06 Y0.399 E96.84519
G0 F18000 X24.06 Y0
G1 F720 X-24.058 Y0 E99.2458
G0 F18000 X-24.058 Y-0.399
G1 F720 X24.06 Y-0.4 E101.64642
G0 F18000 X24.06 Y-0.8
G1 F720 X-24.058 Y-0.799 E104.04704
G0 F18000 X-24.058 Y-1.199
G1 F720 X24.06 Y-1.2 E106.44765
G0 F18000 X24.06 Y-1.6
G1 F720 X-24.058 Y-1.599 E108.84827
G0 F18000 X-24.058 Y-1.999
G1 F720 X24.06 Y-2 E111.24889
G0 F18000 X24.06 Y-2.4
G1 F720 X-24.058 Y-2.399 E113.6495
G0 F18000 X-24.058 Y-2.799
G1 F720 X24.06 Y-2.8 E116.05012
G0 F18000 X24.06 Y-3.2
G1 F720 X-24.058 Y-3.199 E118.45074
G0 F18000 X-24.058 Y-3.599
G1 F720 X24.06 Y-3.6 E120.85135
G0 F18000 X24.06 Y-4
G1 F720 X-24.058 Y-3.999 E123.25197
G0 F18000 X-24.058 Y-4.399
G1 F720 X24.06 Y-4.4 E125.65259
G0 F18000 X24.06 Y-4.8
G1 F720 X-24.058 Y-4.799 E128.0532
G0 F18000 X-24.058 Y-5.199
G1 F720 X24.06 Y-5.2 E130.45382
G0 F18000 X24.06 Y-5.6
G1 F720 X-24.058 Y-5.599 E132.85444
G0 F18000 X-24.058 Y-5.999
G1 F720 X24.06 Y-6 E135.25505
G0 F18000 X24.06 Y-6.4
G1 F720 X-24.058 Y-6.399 E137.65567
G0 F18000 X-24.058 Y-6.799
G1 F720 X24.06 Y-6.8 E140.05629
G0 F18000 X24.06 Y-7.2
G1 F720 X-24.058 Y-7.199 E142.4569
G0 F18000 X-24.058 Y-7.599
G1 F720 X24.06 Y-7.6 E144.85752
G0 F18000 X24.06 Y-8
G1 F720 X-24.058 Y-7.999 E147.25814
G0 F18000 X-24.058 Y-8.399
G1 F720 X24.06 Y-8.4 E149.65875
G0 F18000 X24.06 Y-8.8
G1 F720 X-24.058 Y-8.799 E152.05937
G0 F18000 X-24.058 Y-9.199
G1 F720 X24.06 Y-9.2 E154.45999
G0 F18000 X24.06 Y-9.6
G1 F720 X-24.058 Y-9.599 E156.8606
G0 F18000 X-24.058 Y-9.999
G1 F720 X24.06 Y-10 E159.26122
G0 F18000 X24.06 Y-10.4
G1 F720 X-24.058 Y-10.399 E161.66184
G0 F18000 X-24.058 Y-10.799
G1 F720 X24.06 Y-10.8 E164.06245
; Layer Change GCode
; LAYER:1
G0 F18000 X-24.316 Y11.32 Z0.4
G0 X-24.68 Y11.487
G0 X-24.488 Y11.4
G0 X-24.488 Y11.4
G0 X-24.748 Y11.75
G0 X-24.748 Y11.75
G0 X-24.248 Y11.25
; TYPE:WALL-INNER
G1 F2400 X-24.248 Y11.25 E164.06245
G1 X-24.248 Y-11.249 E164.53015
G1 X24.25 Y-11.249 E165.53831
G1 X24.25 Y11.25 E166.00601
G1 X-24.248 Y11.25 E167.01417
G0 F18000 X-24.748 Y11.75
; TYPE:WALL-OUTER
G1 F2100 X-24.748 Y11.75 E167.01417
G1 X-24.748 Y-11.749 E167.50265
G1 X24.75 Y-11.749 E168.5316
G1 X24.75 Y11.75 E169.02009
G1 X-24.748 Y11.75 E170.04903
G0 F18000 X-24.488 Y11.4
G0 X-23.5 Y10.809
G0 X-23.5 Y10.809
; TYPE:FILL
G1 F2400 X-23.5 Y-10.808 E170.49839
G0 F18000 X-23 Y-10.808
G1 F2400 X-23 Y10.809 E170.94776
G0 F18000 X-22.5 Y10.809
G1 F2400 X-22.5 Y-10.808 E171.39712
G0 F18000 X-22 Y-10.808
G1 F2400 X-22 Y10.809 E171.84649
G0 F18000 X-21.5 Y10.809
G1 F2400 X-21.5 Y-10.808 E172.29586
G0 F18000 X-21 Y-10.808
G1 F2400 X-21 Y10.809 E172.74522
G0 F18000 X-20.5 Y10.809
G1 F2400 X-20.5 Y-10.808 E173.19459
G0 F18000 X-20 Y-10.808
G1 F2400 X-20 Y10.809 E173.64395
G0 F18000 X-19.5 Y10.809
G1 F2400 X-19.5 Y-10.808 E174.09332
G0 F18000 X-19 Y-10.808
G1 F2400 X-19 Y10.809 E174.54268
G0 F18000 X-18.5 Y10.809
G1 F2400 X-18.5 Y-10.808 E174.99205
G0 F18000 X-18 Y-10.808
G1 F2400 X-18 Y10.809 E175.44141
G0 F18000 X-17.5 Y10.809
G1 F2400 X-17.5 Y-10.808 E175.89078
G0 F18000 X-17 Y-10.808
G1 F2400 X-17 Y10.809 E176.34014
G0 F18000 X-16.5 Y10.809
G1 F2400 X-16.5 Y-10.808 E176.78951
G0 F18000 X-16 Y-10.808
G1 F2400 X-15.999 Y10.809 E177.23887
G0 F18000 X-15.499 Y10.809
G1 F2400 X-15.5 Y-10.808 E177.68824
G0 F18000 X-15 Y-10.808
G1 F2400 X-14.999 Y10.809 E178.1376
G0 F18000 X-14.499 Y10.809
G1 F2400 X-14.5 Y-10.808 E178.58697
G0 F18000 X-14 Y-10.808
G1 F2400 X-13.999 Y10.809 E179.03633
G0 F18000 X-13.499 Y10.809
G1 F2400 X-13.5 Y-10.808 E179.4857
G0 F18000 X-13 Y-10.808
G1 F2400 X-12.999 Y10.809 E179.93506
G0 F18000 X-12.499 Y10.809
G1 F2400 X-12.5 Y-10.808 E180.38443
G0 F18000 X-12 Y-10.808
G1 F2400 X-11.999 Y10.809 E180.83379
G0 F18000 X-11.499 Y10.809
G1 F2400 X-11.5 Y-10.808 E181.28316
G0 F18000 X-11 Y-10.808
G1 F2400 X-10.999 Y10.809 E181.73252
G0 F18000 X-10.499 Y10.809
G1 F2400 X-10.5 Y-10.808 E182.18189
G0 F18000 X-10 Y-10.808
G1 F2400 X-9.999 Y10.809 E182.63126
G0 F18000 X-9.499 Y10.809
G1 F2400 X-9.5 Y-10.808 E183.08062
G0 F18000 X-9 Y-10.808
G1 F2400 X-8.999 Y10.809 E183.52999
G0 F18000 X-8.499 Y10.809
G1 F2400 X-8.5 Y-10.808 E183.97935
G0 F18000 X-8 Y-10.808
G1 F2400 X-7.999 Y10.809 E184.42872
G0 F18000 X-7.499 Y10.809
G1 F2400 X-7.5 Y-10.808 E184.87808
G0 F18000 X-7 Y-10.809
G1 F2400 X-6.999 Y10.809 E185.32747
G0 F18000 X-6.499 Y10.809
G1 F2400 X-6.5 Y-10.809 E185.77685
G0 F18000 X-6 Y-10.809
G1 F2400 X-5.999 Y10.809 E186.22624
G0 F18000 X-5.499 Y10.809
G1 F2400 X-5.5 Y-10.809 E186.67563
G0 F18000 X-5 Y-10.809
G1 F2400 X-4.999 Y10.809 E187.12501
G0 F18000 X-4.499 Y10.809
G1 F2400 X-4.5 Y-10.809 E187.5744
G0 F18000 X-4 Y-10.809
G1 F2400 X-3.999 Y10.809 E188.02378
G0 F18000 X-3.499 Y10.809
G1 F2400 X-3.5 Y-10.809 E188.47317
G0 F18000 X-3 Y-10.809
G1 F2400 X-2.999 Y10.809 E188.92256
G0 F18000 X-2.499 Y10.809
G1 F2400 X-2.5 Y-10.809 E189.37194
G0 F18000 X-2 Y-10.809
G1 F2400 X-1.999 Y10.809 E189.82133
G0 F18000 X-1.499 Y10.809
G1 F2400 X-1.5 Y-10.809 E190.27071
G0 F18000 X-1 Y-10.809
G1 F2400 X-0.999 Y10.809 E190.7201
G0 F18000 X-0.499 Y10.809
G1 F2400 X-0.5 Y-10.809 E191.16949
G0 F18000 X0 Y-10.809
G1 F2400 X0 Y10.809 E191.61887
G0 F18000 X0.5 Y10.81
G1 F2400 X0.499 Y-10.808 E192.06826
G0 F18000 X0.999 Y-10.808
G1 F2400 X1 Y10.81 E192.51764
G0 F18000 X1.5 Y10.81
G1 F2400 X1.499 Y-10.808 E192.96703
G0 F18000 X1.999 Y-10.808
G1 F2400 X2 Y10.81 E193.41642
G0 F18000 X2.5 Y10.81
G1 F2400 X2.499 Y-10.808 E193.8658
G0 F18000 X2.999 Y-10.808
G1 F2400 X3 Y10.81 E194.31519
G0 F18000 X3.5 Y10.81
G1 F2400 X3.499 Y-10.808 E194.76457
G0 F18000 X3.999 Y-10.808
G1 F2400 X4 Y10.81 E195.21396
G0 F18000 X4.5 Y10.81
G1 F2400 X4.499 Y-10.808 E195.66335
G0 F18000 X4.999 Y-10.808
G1 F2400 X5 Y10.81 E196.11273
G0 F18000 X5.5 Y10.81
G1 F2400 X5.499 Y-10.808 E196.56212
G0 F18000 X5.999 Y-10.808
G1 F2400 X6 Y10.81 E197.0115
G0 F18000 X6.5 Y10.81
G1 F2400 X6.499 Y-10.808 E197.46089
G0 F18000 X6.999 Y-10.808
G1 F2400 X7 Y10.81 E197.91028
G0 F18000 X7.5 Y10.809
G1 F2400 X7.499 Y-10.808 E198.35964
G0 F18000 X7.999 Y-10.808
G1 F2400 X8 Y10.809 E198.80901
G0 F18000 X8.5 Y10.809
G1 F2400 X8.499 Y-10.808 E199.25837
G0 F18000 X8.999 Y-10.808
G1 F2400 X9 Y10.809 E199.70774
G0 F18000 X9.5 Y10.809
G1 F2400 X9.499 Y-10.808 E200.1571
G0 F18000 X9.999 Y-10.808
G1 F2400 X10 Y10.809 E200.60647
G0 F18000 X10.5 Y10.809
G1 F2400 X10.499 Y-10.808 E201.05583
G0 F18000 X10.999 Y-10.808
G1 F2400 X11 Y10.809 E201.5052
G0 F18000 X11.5 Y10.809
G1 F2400 X11.499 Y-10.808 E201.95456
G0 F18000 X11.999 Y-10.808
G1 F2400 X12 Y10.809 E202.40393
G0 F18000 X12.5 Y10.809
G1 F2400 X12.499 Y-10.808 E202.85329
G0 F18000 X12.999 Y-10.808
G1 F2400 X13 Y10.809 E203.30266
G0 F18000 X13.5 Y10.809
G1 F2400 X13.499 Y-10.808 E203.75202
G0 F18000 X13.999 Y-10.808
G1 F2400 X14 Y10.809 E204.20139
G0 F18000 X14.5 Y10.809
G1 F2400 X14.499 Y-10.808 E204.65075
G0 F18000 X14.999 Y-10.808
G1 F2400 X15 Y10.809 E205.10012
G0 F18000 X15.5 Y10.809
G1 F2400 X15.499 Y-10.808 E205.54948
G0 F18000 X15.999 Y-10.808
G1 F2400 X16 Y10.809 E205.99885
G0 F18000 X16.5 Y10.809
G1 F2400 X16.5 Y-10.808 E206.44821
G0 F18000 X17 Y-10.808
G1 F2400 X17 Y10.809 E206.89758
G0 F18000 X17.5 Y10.809
G1 F2400 X17.5 Y-10.808 E207.34694
G0 F18000 X18 Y-10.808
G1 F2400 X18 Y10.809 E207.79631
G0 F18000 X18.5 Y10.809
G1 F2400 X18.5 Y-10.808 E208.24568
G0 F18000 X19 Y-10.808
G1 F2400 X19 Y10.809 E208.69504
G0 F18000 X19.5 Y10.809
G1 F2400 X19.5 Y-10.808 E209.14441
G0 F18000 X20 Y-10.808
G1 F2400 X20 Y10.809 E209.59377
G0 F18000 X20.5 Y10.809
G1 F2400 X20.5 Y-10.808 E210.04314
G0 F18000 X21 Y-10.808
G1 F2400 X21 Y10.809 E210.4925
G0 F18000 X21.5 Y10.809
G1 F2400 X21.5 Y-10.808 E210.94187
G0 F18000 X22 Y-10.808
G1 F2400 X22 Y10.809 E211.39123
G0 F18000 X22.5 Y10.809
G1 F2400 X22.5 Y-10.808 E211.8406
G0 F18000 X23 Y-10.808
G1 F2400 X23 Y10.809 E212.28996
G0 F18000 X23.5 Y10.809
G1 F2400 X23.5 Y-10.808 E212.73933
; Layer Change GCode
; LAYER:2
G4 P0
M106 S255
G0 F18000 X-24.317 Y11.32 Z0.5
G0 X-24.68 Y11.488
G0 X-24.488 Y11.4
G0 X-24.488 Y11.4
G0 X-24.748 Y11.75
G0 X-24.748 Y11.75
G0 X-24.248 Y11.25
; TYPE:WALL-INNER
G1 F2400 X-24.248 Y11.25 E212.73933
G1 X-24.248 Y-11.249 E213.20703
G1 X24.25 Y-11.249 E214.21518
G1 X24.25 Y11.25 E214.68288
G1 X-24.248 Y11.25 E215.69104
G0 F18000 X-24.748 Y11.75
; TYPE:WALL-OUTER
G1 F2100 X-24.748 Y11.75 E215.69104
G1 X-24.748 Y-11.749 E216.17953
G1 X24.75 Y-11.749 E217.20847
G1 X24.75 Y11.75 E217.69696
G1 X-24.748 Y11.75 E218.7259
G0 F18000 X-24.488 Y11.4
G0 X-23.808 Y10.5
G0 X-23.808 Y10.5
; TYPE:FILL
G1 F2400 X23.81 Y10.499 E219.71577
G0 F18000 X23.81 Y9.999
G1 F2400 X-23.808 Y10 E220.70563
G0 F18000 X-23.808 Y9.5
G1 F2400 X23.81 Y9.499 E221.69549
G0 F18000 X23.81 Y8.999
G1 F2400 X-23.808 Y9 E222.68536
G0 F18000 X-23.808 Y8.5
G1 F2400 X23.81 Y8.499 E223.67522
G0 F18000 X23.81 Y7.999
G1 F2400 X-23.808 Y8 E224.66508
G0 F18000 X-23.808 Y7.5
G1 F2400 X23.81 Y7.499 E225.65494
G0 F18000 X23.81 Y6.999
G1 F2400 X-23.808 Y7 E226.64481
G0 F18000 X-23.808 Y6.5
G1 F2400 X23.81 Y6.499 E227.63467
G0 F18000 X23.81 Y5.999
G1 F2400 X-23.808 Y6 E228.62453
G0 F18000 X-23.808 Y5.5
G1 F2400 X23.81 Y5.499 E229.6144
G0 F18000 X23.81 Y4.999
G1 F2400 X-23.808 Y5 E230.60426
G0 F18000 X-23.808 Y4.5
G1 F2400 X23.81 Y4.499 E231.59412
G0 F18000 X23.81 Y3.999
G1 F2400 X-23.808 Y4 E232.58399
G0 F18000 X-23.808 Y3.5
G1 F2400 X23.81 Y3.499 E233.57385
G0 F18000 X23.81 Y2.999
G1 F2400 X-23.808 Y3 E234.56371
G0 F18000 X-23.808 Y2.5
G1 F2400 X23.81 Y2.499 E235.55358
G0 F18000 X23.81 Y1.999
G1 F2400 X-23.808 Y2 E236.54344
G0 F18000 X-23.808 Y1.5
G1 F2400 X23.81 Y1.499 E237.5333
G0 F18000 X23.81 Y0.999
G1 F2400 X-23.808 Y1 E238.52317
G0 F18000 X-23.808 Y0.5
G1 F2400 X23.81 Y0.499 E239.51303
G0 F18000 X23.81 Y0
G1 F2400 X-23.808 Y0 E240.50289
G0 F18000 X-23.808 Y-0.499
G1 F2400 X23.81 Y-0.5 E241.49276
G0 F18000 X23.81 Y-1
G1 F2400 X-23.808 Y-0.999 E242.48262
G0 F18000 X-23.808 Y-1.499
G1 F2400 X23.81 Y-1.5 E243.47248
G0 F18000 X23.81 Y-2
G1 F2400 X-23.808 Y-1.999 E244.46235
G0 F18000 X-23.808 Y-2.499
G1 F2400 X23.81 Y-2.5 E245.45221
G0 F18000 X23.81 Y-3
G1 F2400 X-23.808 Y-2.999 E246.44207
G0 F18000 X-23.808 Y-3.499
G1 F2400 X23.81 Y-3.5 E247.43193
G0 F18000 X23.81 Y-4
G1 F2400 X-23.808 Y-3.999 E248.4218
G0 F18000 X-23.808 Y-4.499
G1 F2400 X23.81 Y-4.5 E249.41166
G0 F18000 X23.81 Y-5
G1 F2400 X-23.808 Y-4.999 E250.40152
G0 F18000 X-23.808 Y-5.499
G1 F2400 X23.81 Y-5.5 E251.39139
G0 F18000 X23.81 Y-6
G1 F2400 X-23.808 Y-5.999 E252.38125
G0 F18000 X-23.808 Y-6.499
G1 F2400 X23.81 Y-6.5 E253.37111
G0 F18000 X23.81 Y-7
G1 F2400 X-23.808 Y-6.999 E254.36098
G0 F18000 X-23.808 Y-7.499
G1 F2400 X23.81 Y-7.5 E255.35084
G0 F18000 X23.81 Y-8
G1 F2400 X-23.808 Y-7.999 E256.3407
G0 F18000 X-23.808 Y-8.499
G1 F2400 X23.81 Y-8.5 E257.33057
G0 F18000 X23.81 Y-9
G1 F2400 X-23.808 Y-8.999 E258.32043
G0 F18000 X-23.808 Y-9.499
G1 F2400 X23.81 Y-9.5 E259.31029
G0 F18000 X23.81 Y-10
G1 F2400 X-23.808 Y-9.999 E260.30016
G0 F18000 X-23.808 Y-10.499
G1 F2400 X23.81 Y-10.5 E261.29002
; Layer Change GCode
; LAYER:3
G0 F18000 X-24.316 Y11.321 Z0.6
G0 X-24.68 Y11.486
G0 X-24.488 Y11.4
G0 X-24.488 Y11.4
G0 X-24.748 Y11.75
G0 X-24.748 Y11.75
G0 X-24.248 Y11.25
; TYPE:WALL-INNER
G1 F2400 X-24.248 Y11.25 E261.29002
G1 X-24.248 Y-11.249 E261.75772
G1 X24.25 Y-11.249 E262.76588
G1 X24.25 Y11.25 E263.23358
G1 X-24.248 Y11.25 E264.24173
G0 F18000 X-24.748 Y11.75
; TYPE:WALL-OUTER
G1 F2100 X-24.748 Y11.75 E264.24173
G1 X-24.748 Y-11.749 E264.73022
G1 X24.75 Y-11.749 E265.75916
G1 X24.75 Y11.75 E266.24765
G1 X-24.748 Y11.75 E267.27659
G0 F18000 X-24.488 Y11.4
G0 X-23.5 Y10.809
G0 X-23.5 Y10.809
; TYPE:FILL
G1 F2400 X-23.5 Y-10.808 E267.72596
G0 F18000 X-23 Y-10.808
G1 F2400 X-23 Y10.809 E268.17532
G0 F18000 X-22.5 Y10.809
G1 F2400 X-22.5 Y-10.808 E268.62469
G0 F18000 X-22 Y-10.808
G1 F2400 X-22 Y10.809 E269.07406
G0 F18000 X-21.5 Y10.809
G1 F2400 X-21.5 Y-10.808 E269.52342
G0 F18000 X-21 Y-10.808
G1 F2400 X-21 Y10.809 E269.97279
G0 F18000 X-20.5 Y10.809
G1 F2400 X-20.5 Y-10.808 E270.42215
G0 F18000 X-20 Y-10.808
G1 F2400 X-20 Y10.809 E270.87152
G0 F18000 X-19.5 Y10.809
G1 F2400 X-19.5 Y-10.808 E271.32088
G0 F18000 X-19 Y-10.808
G1 F2400 X-19 Y10.809 E271.77025
G0 F18000 X-18.5 Y10.809
G1 F2400 X-18.5 Y-10.808 E272.21961
G0 F18000 X-18 Y-10.808
G1 F2400 X-18 Y10.809 E272.66898
G0 F18000 X-17.5 Y10.809
G1 F2400 X-17.5 Y-10.808 E273.11834
G0 F18000 X-17 Y-10.808
G1 F2400 X-17 Y10.809 E273.56771
G0 F18000 X-16.5 Y10.809
G1 F2400 X-16.5 Y-10.808 E274.01707
G0 F18000 X-16 Y-10.808
G1 F2400 X-15.999 Y10.809 E274.46644
G0 F18000 X-15.499 Y10.809
G1 F2400 X-15.5 Y-10.808 E274.9158
G0 F18000 X-15 Y-10.808
G1 F2400 X-14.999 Y10.809 E275.36517
G0 F18000 X-14.499 Y10.809
G1 F2400 X-14.5 Y-10.808 E275.81453
G0 F18000 X-14 Y-10.808
G1 F2400 X-13.999 Y10.809 E276.2639
G0 F18000 X-13.499 Y10.809
G1 F2400 X-13.5 Y-10.808 E276.71326
G0 F18000 X-13 Y-10.808
G1 F2400 X-12.999 Y10.809 E277.16263
G0 F18000 X-12.499 Y10.809
G1 F2400 X-12.5 Y-10.808 E277.61199
G0 F18000 X-12 Y-10.808
G1 F2400 X-11.999 Y10.809 E278.06136
G0 F18000 X-11.499 Y10.809
G1 F2400 X-11.5 Y-10.808 E278.51072
G0 F18000 X-11 Y-10.808
G1 F2400 X-10.999 Y10.809 E278.96009
G0 F18000 X-10.499 Y10.809
G1 F2400 X-10.5 Y-10.808 E279.40946
G0 F18000 X-10 Y-10.808
G1 F2400 X-9.999 Y10.809 E279.85882
G0 F18000 X-9.499 Y10.809
G1 F2400 X-9.5 Y-10.808 E280.30819
G0 F18000 X-9 Y-10.808
G1 F2400 X-8.999 Y10.809 E280.75755
G0 F18000 X-8.499 Y10.809
G1 F2400 X-8.5 Y-10.808 E281.20692
G0 F18000 X-8 Y-10.808
G1 F2400 X-7.999 Y10.809 E281.65628
G0 F18000 X-7.499 Y10.809
G1 F2400 X-7.5 Y-10.808 E282.10565
G0 F18000 X-7 Y-10.809
G1 F2400 X-6.999 Y10.809 E282.55503
G0 F18000 X-6.499 Y10.809
G1 F2400 X-6.5 Y-10.809 E283.00442
G0 F18000 X-6 Y-10.809
G1 F2400 X-5.999 Y10.809 E283.4538
G0 F18000 X-5.499 Y10.809
G1 F2400 X-5.5 Y-10.809 E283.90319
G0 F18000 X-5 Y-10.809
G1 F2400 X-4.999 Y10.809 E284.35258
G0 F18000 X-4.499 Y10.809
G1 F2400 X-4.5 Y-10.809 E284.80196
G0 F18000 X-4 Y-10.809
G1 F2400 X-3.999 Y10.809 E285.25135
G0 F18000 X-3.499 Y10.809
G1 F2400 X-3.5 Y-10.809 E285.70073
G0 F18000 X-3 Y-10.809
G1 F2400 X-2.999 Y10.809 E286.15012
G0 F18000 X-2.499 Y10.809
G1 F2400 X-2.5 Y-10.809 E286.59951
G0 F18000 X-2 Y-10.809
G1 F2400 X-1.999 Y10.809 E287.04889
G0 F18000 X-1.499 Y10.809
G1 F2400 X-1.5 Y-10.809 E287.49828
G0 F18000 X-1 Y-10.809
G1 F2400 X-0.999 Y10.809 E287.94766
G0 F18000 X-0.499 Y10.809
G1 F2400 X-0.5 Y-10.809 E288.39705
G0 F18000 X0 Y-10.809
G1 F2400 X0 Y10.809 E288.84644
G0 F18000 X0.5 Y10.81
G1 F2400 X0.499 Y-10.808 E289.29582
G0 F18000 X0.999 Y-10.808
G1 F2400 X1 Y10.81 E289.74521
G0 F18000 X1.5 Y10.81
G1 F2400 X1.499 Y-10.808 E290.19459
G0 F18000 X1.999 Y-10.808
G1 F2400 X2 Y10.81 E290.64398
G0 F18000 X2.5 Y10.81
G1 F2400 X2.499 Y-10.808 E291.09337
G0 F18000 X2.999 Y-10.808
G1 F2400 X3 Y10.81 E291.54275
G0 F18000 X3.5 Y10.81
G1 F2400 X3.499 Y-10.808 E291.99214
G0 F18000 X3.999 Y-10.808
G1 F2400 X4 Y10.81 E292.44152
G0 F18000 X4.5 Y10.81
G1 F2400 X4.499 Y-10.808 E292.89091
G0 F18000 X4.999 Y-10.808
G1 F2400 X5 Y10.81 E293.3403
G0 F18000 X5.5 Y10.81
G1 F2400 X5.499 Y-10.808 E293.78968
G0 F18000 X5.999 Y-10.808
G1 F2400 X6 Y10.81 E294.23907
G0 F18000 X6.5 Y10.81
G1 F2400 X6.499 Y-10.808 E294.68845
G0 F18000 X6.999 Y-10.808
G1 F2400 X7 Y10.81 E295.13784
G0 F18000 X7.5 Y10.809
G1 F2400 X7.499 Y-10.808 E295.58721
G0 F18000 X7.999 Y-10.808
G1 F2400 X8 Y10.809 E296.03657
G0 F18000 X8.5 Y10.809
G1 F2400 X8.499 Y-10.808 E296.48594
G0 F18000 X8.999 Y-10.808
G1 F2400 X9 Y10.809 E296.9353
G0 F18000 X9.5 Y10.809
G1 F2400 X9.499 Y-10.808 E297.38467
G0 F18000 X9.999 Y-10.808
G1 F2400 X10 Y10.809 E297.83403
G0 F18000 X10.5 Y10.809
G1 F2400 X10.499 Y-10.808 E298.2834
G0 F18000 X10.999 Y-10.808
G1 F2400 X11 Y10.809 E298.73276
G0 F18000 X11.5 Y10.809
G1 F2400 X11.499 Y-10.808 E299.18213
G0 F18000 X11.999 Y-10.808
G1 F2400 X12 Y10.809 E299.63149
G0 F18000 X12.5 Y10.809
G1 F2400 X12.499 Y-10.808 E300.08086
G0 F18000 X12.999 Y-10.808
G1 F2400 X13 Y10.809 E300.53022
G0 F18000 X13.5 Y10.809
G1 F2400 X13.499 Y-10.808 E300.97959
G0 F18000 X13.999 Y-10.808
G1 F2400 X14 Y10.809 E301.42895
G0 F18000 X14.5 Y10.809
G1 F2400 X14.499 Y-10.808 E301.87832
G0 F18000 X14.999 Y-10.808
G1 F2400 X15 Y10.809 E302.32768
G0 F18000 X15.5 Y10.809
G1 F2400 X15.499 Y-10.808 E302.77705
G0 F18000 X15.999 Y-10.808
G1 F2400 X16 Y10.809 E303.22641
G0 F18000 X16.5 Y10.809
G1 F2400 X16.5 Y-10.808 E303.67578
G0 F18000 X17 Y-10.808
G1 F2400 X17 Y10.809 E304.12514
G0 F18000 X17.5 Y10.809
G1 F2400 X17.5 Y-10.808 E304.57451
G0 F18000 X18 Y-10.808
G1 F2400 X18 Y10.809 E305.02388
G0 F18000 X18.5 Y10.809
G1 F2400 X18.5 Y-10.808 E305.47324
G0 F18000 X19 Y-10.808
G1 F2400 X19 Y10.809 E305.92261
G0 F18000 X19.5 Y10.809
G1 F2400 X19.5 Y-10.808 E306.37197
G0 F18000 X20 Y-10.808
G1 F2400 X20 Y10.809 E306.82134
G0 F18000 X20.5 Y10.809
G1 F2400 X20.5 Y-10.808 E307.2707
G0 F18000 X21 Y-10.808
G1 F2400 X21 Y10.809 E307.72007
G0 F18000 X21.5 Y10.809
G1 F2400 X21.5 Y-10.808 E308.16943
G0 F18000 X22 Y-10.808
G1 F2400 X22 Y10.809 E308.6188
G0 F18000 X22.5 Y10.809
G1 F2400 X22.5 Y-10.808 E309.06816
G0 F18000 X23 Y-10.808
G1 F2400 X23 Y10.809 E309.51753
G0 F18000 X23.5 Y10.809
G1 F2400 X23.5 Y-10.808 E309.96689
; Layer Change GCode
; LAYER:4
G0 F18000 X-24.317 Y11.32 Z0.7
G0 X-24.68 Y11.488
G0 X-24.488 Y11.4
G0 X-24.488 Y11.4
G0 X-24.748 Y11.75
G0 X-24.748 Y11.75
G0 X-24.248 Y11.25
; TYPE:WALL-INNER
G1 F2400 X-24.248 Y11.25 E309.96689
G1 X-24.248 Y-11.249 E310.43459
G1 X24.25 Y-11.249 E311.44275
G1 X24.25 Y11.25 E311.91045
G1 X-24.248 Y11.25 E312.9186
G0 F18000 X-24.748 Y11.75
; TYPE:WALL-OUTER
G1 F2100 X-24.748 Y11.75 E312.9186
G1 X-24.748 Y-11.749 E313.40709
G1 X24.75 Y-11.749 E314.43604
G1 X24.75 Y11.75 E314.92452
G1 X-24.748 Y11.75 E315.95347
G0 F18000 X-24.488 Y11.4
G0 X-23.808 Y10.5
G0 X-23.808 Y10.5
; TYPE:FILL
G1 F2400 X23.81 Y10.499 E316.94333
G0 F18000 X23.81 Y9.999
G1 F2400 X-23.808 Y10 E317.93319
G0 F18000 X-23.808 Y9.5
G1 F2400 X23.81 Y9.499 E318.92306
G0 F18000 X23.81 Y8.999
G1 F2400 X-23.808 Y9 E319.91292
G0 F18000 X-23.808 Y8.5
G1 F2400 X23.81 Y8.499 E320.90278
G0 F18000 X23.81 Y7.999
G1 F2400 X-23.808 Y8 E321.89265
G0 F18000 X-23.808 Y7.5
G1 F2400 X23.81 Y7.499 E322.88251
G0 F18000 X23.81 Y6.999
G1 F2400 X-23.808 Y7 E323.87237
G0 F18000 X-23.808 Y6.5
G1 F2400 X23.81 Y6.499 E324.86224
G0 F18000 X23.81 Y5.999
G1 F2400 X-23.808 Y6 E325.8521
G0 F18000 X-23.808 Y5.5
G1 F2400 X23.81 Y5.499 E326.84196
G0 F18000 X23.81 Y4.999
G1 F2400 X-23.808 Y5 E327.83183
G0 F18000 X-23.808 Y4.5
G1 F2400 X23.81 Y4.499 E328.82169
G0 F18000 X23.81 Y3.999
G1 F2400 X-23.808 Y4 E329.81155
G0 F18000 X-23.808 Y3.5
G1 F2400 X23.81 Y3.499 E330.80142
G0 F18000 X23.81 Y2.999
G1 F2400 X-23.808 Y3 E331.79128
G0 F18000 X-23.808 Y2.5
G1 F2400 X23.81 Y2.499 E332.78114
G0 F18000 X23.81 Y1.999
G1 F2400 X-23.808 Y2 E333.771
G0 F18000 X-23.808 Y1.5
G1 F2400 X23.81 Y1.499 E334.76087
G0 F18000 X23.81 Y0.999
G1 F2400 X-23.808 Y1 E335.75073
G0 F18000 X-23.808 Y0.5
G1 F2400 X23.81 Y0.499 E336.74059
G0 F18000 X23.81 Y0
G1 F2400 X-23.808 Y0 E337.73046
G0 F18000 X-23.808 Y-0.499
G1 F2400 X23.81 Y-0.5 E338.72032
G0 F18000 X23.81 Y-1
G1 F2400 X-23.808 Y-0.999 E339.71018
G0 F18000 X-23.808 Y-1.499
G1 F2400 X23.81 Y-1.5 E340.70005
G0 F18000 X23.81 Y-2
G1 F2400 X-23.808 Y-1.999 E341.68991
G0 F18000 X-23.808 Y-2.499
G1 F2400 X23.81 Y-2.5 E342.67977
G0 F18000 X23.81 Y-3
G1 F2400 X-23.808 Y-2.999 E343.66964
G0 F18000 X-23.808 Y-3.499
G1 F2400 X23.81 Y-3.5 E344.6595
G0 F18000 X23.81 Y-4
G1 F2400 X-23.808 Y-3.999 E345.64936
G0 F18000 X-23.808 Y-4.499
G1 F2400 X23.81 Y-4.5 E346.63923
G0 F18000 X23.81 Y-5
G1 F2400 X-23.808 Y-4.999 E347.62909
G0 F18000 X-23.808 Y-5.499
G1 F2400 X23.81 Y-5.5 E348.61895
G0 F18000 X23.81 Y-6
G1 F2400 X-23.808 Y-5.999 E349.60882
G0 F18000 X-23.808 Y-6.499
G1 F2400 X23.81 Y-6.5 E350.59868
G0 F18000 X23.81 Y-7
G1 F2400 X-23.808 Y-6.999 E351.58854
G0 F18000 X-23.808 Y-7.499
G1 F2400 X23.81 Y-7.5 E352.57841
G0 F18000 X23.81 Y-8
G1 F2400 X-23.808 Y-7.999 E353.56827
G0 F18000 X-23.808 Y-8.499
G1 F2400 X23.81 Y-8.5 E354.55813
G0 F18000 X23.81 Y-9
G1 F2400 X-23.808 Y-8.999 E355.548
G0 F18000 X-23.808 Y-9.499
G1 F2400 X23.81 Y-9.5 E356.53786
G0 F18000 X23.81 Y-10
G1 F2400 X-23.808 Y-9.999 E357.52772
G0 F18000 X-23.808 Y-10.499
G1 F2400 X23.81 Y-10.5 E358.51758
; Layer Change GCode
; LAYER:5
G0 F18000 X-24.316 Y11.321 Z0.8
G0 X-24.68 Y11.486
G0 X-24.488 Y11.4
G0 X-24.488 Y11.4
G0 X-24.748 Y11.75
G0 X-24.748 Y11.75
G0 X-24.248 Y11.25
; TYPE:WALL-INNER
G1 F2400 X-24.248 Y11.25 E358.51758
G1 X-24.248 Y-11.249 E358.98528
G1 X24.25 Y-11.249 E359.99344
G1 X24.25 Y11.25 E360.46114
G1 X-24.248 Y11.25 E361.4693
G0 F18000 X-24.748 Y11.75
; TYPE:WALL-OUTER
G1 F2100 X-24.748 Y11.75 E361.4693
G1 X-24.748 Y-11.749 E361.95778
G1 X24.75 Y-11.749 E362.98673
G1 X24.75 Y11.75 E363.47522
G1 X-24.748 Y11.75 E364.50416
G0 F18000 X-24.488 Y11.4
G0 X-23.5 Y10.809
G0 X-23.5 Y10.809
; TYPE:FILL
G1 F2400 X-23.5 Y-10.808 E364.95352
G0 F18000 X-23 Y-10.808
G1 F2400 X-23 Y10.809 E365.40289
G0 F18000 X-22.5 Y10.809
G1 F2400 X-22.5 Y-10.808 E365.85226
G0 F18000 X-22 Y-10.808
G1 F2400 X-22 Y10.809 E366.30162
G0 F18000 X-21.5 Y10.809
G1 F2400 X-21.5 Y-10.808 E366.75099
G0 F18000 X-21 Y-10.808
G1 F2400 X-21 Y10.809 E367.20035
G0 F18000 X-20.5 Y10.809
G1 F2400 X-20.5 Y-10.808 E367.64972
G0 F18000 X-20 Y-10.808
G1 F2400 X-20 Y10.809 E368.09908
G0 F18000 X-19.5 Y10.809
G1 F2400 X-19.5 Y-10.808 E368.54845
G0 F18000 X-19 Y-10.808
G1 F2400 X-19 Y10.809 E368.99781
G0 F18000 X-18.5 Y10.809
G1 F2400 X-18.5 Y-10.808 E369.44718
G0 F18000 X-18 Y-10.808
G1 F2400 X-18 Y10.809 E369.89654
G0 F18000 X-17.5 Y10.809
G1 F2400 X-17.5 Y-10.808 E370.34591
G0 F18000 X-17 Y-10.808
G1 F2400 X-17 Y10.809 E370.79527
G0 F18000 X-16.5 Y10.809
G1 F2400 X-16.5 Y-10.808 E371.24464
G0 F18000 X-16 Y-10.808
G1 F2400 X-15.999 Y10.809 E371.694
G0 F18000 X-15.499 Y10.809
G1 F2400 X-15.5 Y-10.808 E372.14337
G0 F18000 X-15 Y-10.808
G1 F2400 X-14.999 Y10.809 E372.59273
G0 F18000 X-14.499 Y10.809
G1 F2400 X-14.5 Y-10.808 E373.0421
G0 F18000 X-14 Y-10.808
G1 F2400 X-13.999 Y10.809 E373.49146
G0 F18000 X-13.499 Y10.809
G1 F2400 X-13.5 Y-10.808 E373.94083
G0 F18000 X-13 Y-10.808
G1 F2400 X-12.999 Y10.809 E374.39019
G0 F18000 X-12.499 Y10.809
G1 F2400 X-12.5 Y-10.808 E374.83956
G0 F18000 X-12 Y-10.808
G1 F2400 X-11.999 Y10.809 E375.28892
G0 F18000 X-11.499 Y10.809
G1 F2400 X-11.5 Y-10.808 E375.73829
G0 F18000 X-11 Y-10.808
G1 F2400 X-10.999 Y10.809 E376.18766
G0 F18000 X-10.499 Y10.809
G1 F2400 X-10.5 Y-10.808 E376.63702
G0 F18000 X-10 Y-10.808
G1 F2400 X-9.999 Y10.809 E377.08639
G0 F18000 X-9.499 Y10.809
G1 F2400 X-9.5 Y-10.808 E377.53575
G0 F18000 X-9 Y-10.808
G1 F2400 X-8.999 Y10.809 E377.98512
G0 F18000 X-8.499 Y10.809
G1 F2400 X-8.5 Y-10.808 E378.43448
G0 F18000 X-8 Y-10.808
G1 F2400 X-7.999 Y10.809 E378.88385
G0 F18000 X-7.499 Y10.809
G1 F2400 X-7.5 Y-10.808 E379.33321
G0 F18000 X-7 Y-10.809
G1 F2400 X-6.999 Y10.809 E379.7826
G0 F18000 X-6.499 Y10.809
G1 F2400 X-6.5 Y-10.809 E380.23198
G0 F18000 X-6 Y-10.809
G1 F2400 X-5.999 Y10.809 E380.68137
G0 F18000 X-5.499 Y10.809
G1 F2400 X-5.5 Y-10.809 E381.13076
G0 F18000 X-5 Y-10.809
G1 F2400 X-4.999 Y10.809 E381.58014
G0 F18000 X-4.499 Y10.809
G1 F2400 X-4.5 Y-10.809 E382.02953
G0 F18000 X-4 Y-10.809
G1 F2400 X-3.999 Y10.809 E382.47891
G0 F18000 X-3.499 Y10.809
G1 F2400 X-3.5 Y-10.809 E382.9283
G0 F18000 X-3 Y-10.809
G1 F2400 X-2.999 Y10.809 E383.37769
G0 F18000 X-2.499 Y10.809
G1 F2400 X-2.5 Y-10.809 E383.82707
G0 F18000 X-2 Y-10.809
G1 F2400 X-1.999 Y10.809 E384.27646
G0 F18000 X-1.499 Y10.809
G1 F2400 X-1.5 Y-10.809 E384.72584
G0 F18000 X-1 Y-10.809
G1 F2400 X-0.999 Y10.809 E385.17523
G0 F18000 X-0.499 Y10.809
G1 F2400 X-0.5 Y-10.809 E385.62462
G0 F18000 X0 Y-10.809
G1 F2400 X0 Y10.809 E386.074
G0 F18000 X0.5 Y10.81
G1 F2400 X0.499 Y-10.808 E386.52339
G0 F18000 X0.999 Y-10.808
G1 F2400 X1 Y10.81 E386.97277
G0 F18000 X1.5 Y10.81
G1 F2400 X1.499 Y-10.808 E387.42216
G0 F18000 X1.999 Y-10.808
G1 F2400 X2 Y10.81 E387.87155
G0 F18000 X2.5 Y10.81
G1 F2400 X2.499 Y-10.808 E388.32093
G0 F18000 X2.999 Y-10.808
G1 F2400 X3 Y10.81 E388.77032
G0 F18000 X3.5 Y10.81
G1 F2400 X3.499 Y-10.808 E389.2197
G0 F18000 X3.999 Y-10.808
G1 F2400 X4 Y10.81 E389.66909
G0 F18000 X4.5 Y10.81
G1 F2400 X4.499 Y-10.808 E390.11848
G0 F18000 X4.999 Y-10.808
G1 F2400 X5 Y10.81 E390.56786
G0 F18000 X5.5 Y10.81
G1 F2400 X5.499 Y-10.808 E391.01725
G0 F18000 X5.999 Y-10.808
G1 F2400 X6 Y10.81 E391.46663
G0 F18000 X6.5 Y10.81
G1 F2400 X6.499 Y-10.808 E391.91602
G0 F18000 X6.999 Y-10.808
G1 F2400 X7 Y10.81 E392.36541
G0 F18000 X7.5 Y10.809
G1 F2400 X7.499 Y-10.808 E392.81477
G0 F18000 X7.999 Y-10.808
G1 F2400 X8 Y10.809 E393.26414
G0 F18000 X8.5 Y10.809
G1 F2400 X8.499 Y-10.808 E393.7135
G0 F18000 X8.999 Y-10.808
G1 F2400 X9 Y10.809 E394.16287
G0 F18000 X9.5 Y10.809
G1 F2400 X9.499 Y-10.808 E394.61223
G0 F18000 X9.999 Y-10.808
G1 F2400 X10 Y10.809 E395.0616
G0 F18000 X10.5 Y10.809
G1 F2400 X10.499 Y-10.808 E395.51096
G0 F18000 X10.999 Y-10.808
G1 F2400 X11 Y10.809 E395.96033
G0 F18000 X11.5 Y10.809
G1 F2400 X11.499 Y-10.808 E396.40969
G0 F18000 X11.999 Y-10.808
G1 F2400 X12 Y10.809 E396.85906
G0 F18000 X12.5 Y10.809
G1 F2400 X12.499 Y-10.808 E397.30842
G0 F18000 X12.999 Y-10.808
G1 F2400 X13 Y10.809 E397.75779
G0 F18000 X13.5 Y10.809
G1 F2400 X13.499 Y-10.808 E398.20715
G0 F18000 X13.999 Y-10.808
G1 F2400 X14 Y10.809 E398.65652
G0 F18000 X14.5 Y10.809
G1 F2400 X14.499 Y-10.808 E399.10588
G0 F18000 X14.999 Y-10.808
G1 F2400 X15 Y10.809 E399.55525
G0 F18000 X15.5 Y10.809
G1 F2400 X15.499 Y-10.808 E400.00461
G0 F18000 X15.999 Y-10.808
G1 F2400 X16 Y10.809 E400.45398
G0 F18000 X16.5 Y10.809
G1 F2400 X16.5 Y-10.808 E400.90334
G0 F18000 X17 Y-10.808
G1 F2400 X17 Y10.809 E401.35271
G0 F18000 X17.5 Y10.809
G1 F2400 X17.5 Y-10.808 E401.80208
G0 F18000 X18 Y-10.808
G1 F2400 X18 Y10.809 E402.25144
G0 F18000 X18.5 Y10.809
G1 F2400 X18.5 Y-10.808 E402.70081
G0 F18000 X19 Y-10.808
G1 F2400 X19 Y10.809 E403.15017
G0 F18000 X19.5 Y10.809
G1 F2400 X19.5 Y-10.808 E403.59954
G0 F18000 X20 Y-10.808
G1 F2400 X20 Y10.809 E404.0489
G0 F18000 X20.5 Y10.809
G1 F2400 X20.5 Y-10.808 E404.49827
G0 F18000 X21 Y-10.808
G1 F2400 X21 Y10.809 E404.94763
G0 F18000 X21.5 Y10.809
G1 F2400 X21.5 Y-10.808 E405.397
G0 F18000 X22 Y-10.808
G1 F2400 X22 Y10.809 E405.84636
G0 F18000 X22.5 Y10.809
G1 F2400 X22.5 Y-10.808 E406.29573
G0 F18000 X23 Y-10.808
G1 F2400 X23 Y10.809 E406.74509
G0 F18000 X23.5 Y10.809
G1 F2400 X23.5 Y-10.808 E407.19446
; Layer Change GCode
; LAYER:6
G0 F18000 X-24.317 Y11.32 Z0.9
G0 X-24.68 Y11.488
G0 X-24.488 Y11.4
G0 X-24.488 Y11.4
G0 X-24.748 Y11.75
G0 X-24.748 Y11.75
G0 X-24.248 Y11.25
; TYPE:WALL-INNER
G1 F2400 X-24.248 Y11.25 E407.19446
G1 X-24.248 Y-11.249 E407.66216
G1 X24.25 Y-11.249 E408.67031
G1 X24.25 Y11.25 E409.13801
G1 X-24.248 Y11.25 E410.14617
G0 F18000 X-24.748 Y11.75
; TYPE:WALL-OUTER
G1 F2100 X-24.748 Y11.75 E410.14617
G1 X-24.748 Y-11.749 E410.63466
G1 X24.75 Y-11.749 E411.6636
G1 X24.75 Y11.75 E412.15209
G1 X-24.748 Y11.75 E413.18103
G0 F18000 X-24.488 Y11.4
G0 X-23.808 Y10.5
G0 X-23.808 Y10.5
; TYPE:FILL
G1 F2400 X23.81 Y10.499 E414.1709
G0 F18000 X23.81 Y9.999
G1 F2400 X-23.808 Y10 E415.16076
G0 F18000 X-23.808 Y9.5
G1 F2400 X23.81 Y9.499 E416.15062
G0 F18000 X23.81 Y8.999
G1 F2400 X-23.808 Y9 E417.14049
G0 F18000 X-23.808 Y8.5
G1 F2400 X23.81 Y8.499 E418.13035
G0 F18000 X23.81 Y7.999
G1 F2400 X-23.808 Y8 E419.12021
G0 F18000 X-23.808 Y7.5
G1 F2400 X23.81 Y7.499 E420.11007
G0 F18000 X23.81 Y6.999
G1 F2400 X-23.808 Y7 E421.09994
G0 F18000 X-23.808 Y6.5
G1 F2400 X23.81 Y6.499 E422.0898
G0 F18000 X23.81 Y5.999
G1 F2400 X-23.808 Y6 E423.07966
G0 F18000 X-23.808 Y5.5
G1 F2400 X23.81 Y5.499 E424.06953
G0 F18000 X23.81 Y4.999
G1 F2400 X-23.808 Y5 E425.05939
G0 F18000 X-23.808 Y4.5
G1 F2400 X23.81 Y4.499 E426.04925
G0 F18000 X23.81 Y3.999
G1 F2400 X-23.808 Y4 E427.03912
G0 F18000 X-23.808 Y3.5
G1 F2400 X23.81 Y3.499 E428.02898
G0 F18000 X23.81 Y2.999
G1 F2400 X-23.808 Y3 E429.01884
G0 F18000 X-23.808 Y2.5
G1 F2400 X23.81 Y2.499 E430.00871
G0 F18000 X23.81 Y1.999
G1 F2400 X-23.808 Y2 E430.99857
G0 F18000 X-23.808 Y1.5
G1 F2400 X23.81 Y1.499 E431.98843
G0 F18000 X23.81 Y0.999
G1 F2400 X-23.808 Y1 E432.9783
G0 F18000 X-23.808 Y0.5
G1 F2400 X23.81 Y0.499 E433.96816
G0 F18000 X23.81 Y0
G1 F2400 X-23.808 Y0 E434.95802
G0 F18000 X-23.808 Y-0.499
G1 F2400 X23.81 Y-0.5 E435.94789
G0 F18000 X23.81 Y-1
G1 F2400 X-23.808 Y-0.999 E436.93775
G0 F18000 X-23.808 Y-1.499
G1 F2400 X23.81 Y-1.5 E437.92761
G0 F18000 X23.81 Y-2
G1 F2400 X-23.808 Y-1.999 E438.91748
G0 F18000 X-23.808 Y-2.499
G1 F2400 X23.81 Y-2.5 E439.90734
G0 F18000 X23.81 Y-3
G1 F2400 X-23.808 Y-2.999 E440.8972
G0 F18000 X-23.808 Y-3.499
G1 F2400 X23.81 Y-3.5 E441.88707
G0 F18000 X23.81 Y-4
G1 F2400 X-23.808 Y-3.999 E442.87693
G0 F18000 X-23.808 Y-4.499
G1 F2400 X23.81 Y-4.5 E443.86679
G0 F18000 X23.81 Y-5
G1 F2400 X-23.808 Y-4.999 E444.85665
G0 F18000 X-23.808 Y-5.499
G1 F2400 X23.81 Y-5.5 E445.84652
G0 F18000 X23.81 Y-6
G1 F2400 X-23.808 Y-5.999 E446.83638
G0 F18000 X-23.808 Y-6.499
G1 F2400 X23.81 Y-6.5 E447.82624
G0 F18000 X23.81 Y-7
G1 F2400 X-23.808 Y-6.999 E448.81611
G0 F18000 X-23.808 Y-7.499
G1 F2400 X23.81 Y-7.5 E449.80597
G0 F18000 X23.81 Y-8
G1 F2400 X-23.808 Y-7.999 E450.79583
G0 F18000 X-23.808 Y-8.499
G1 F2400 X23.81 Y-8.5 E451.7857
G0 F18000 X23.81 Y-9
G1 F2400 X-23.808 Y-8.999 E452.77556
G0 F18000 X-23.808 Y-9.499
G1 F2400 X23.81 Y-9.5 E453.76542
G0 F18000 X23.81 Y-10
G1 F2400 X-23.808 Y-9.999 E454.75529
G0 F18000 X-23.808 Y-10.499
G1 F2400 X23.81 Y-10.5 E455.74515
; Layer Change GCode
; LAYER:7
G0 F18000 X-24.316 Y11.321 Z1
G0 X-24.68 Y11.486
G0 X-24.488 Y11.4
G0 X-24.488 Y11.4
G0 X-24.748 Y11.75
G0 X-24.748 Y11.75
G0 X-24.248 Y11.25
; TYPE:WALL-INNER
G1 F2400 X-24.248 Y11.25 E455.74515
G1 X-24.248 Y-11.249 E456.21285
G1 X24.25 Y-11.249 E457.22101
G1 X24.25 Y11.25 E457.68871
G1 X-24.248 Y11.25 E458.69686
G0 F18000 X-24.748 Y11.75
; TYPE:WALL-OUTER
G1 F2100 X-24.748 Y11.75 E458.69686
G1 X-24.748 Y-11.749 E459.18535
G1 X24.75 Y-11.749 E460.21429
G1 X24.75 Y11.75 E460.70278
G1 X-24.748 Y11.75 E461.73172
G0 F18000 X-24.488 Y11.4
G0 X-23.5 Y10.809
G0 X-23.5 Y10.809
; TYPE:FILL
G1 F2400 X-23.5 Y-10.808 E462.18109
G0 F18000 X-23 Y-10.808
G1 F2400 X-23 Y10.809 E462.63046
G0 F18000 X-22.5 Y10.809
G1 F2400 X-22.5 Y-10.808 E463.07982
G0 F18000 X-22 Y-10.808
G1 F2400 X-22 Y10.809 E463.52919
G0 F18000 X-21.5 Y10.809
G1 F2400 X-21.5 Y-10.808 E463.97855
G0 F18000 X-21 Y-10.808
G1 F2400 X-21 Y10.809 E464.42792
G0 F18000 X-20.5 Y10.809
G1 F2400 X-20.5 Y-10.808 E464.87728
G0 F18000 X-20 Y-10.808
G1 F2400 X-20 Y10.809 E465.32665
G0 F18000 X-19.5 Y10.809
G1 F2400 X-19.5 Y-10.808 E465.77601
G0 F18000 X-19 Y-10.808
G1 F2400 X-19 Y10.809 E466.22538
G0 F18000 X-18.5 Y10.809
G1 F2400 X-18.5 Y-10.808 E466.67474
G0 F18000 X-18 Y-10.808
G1 F2400 X-18 Y10.809 E467.12411
G0 F18000 X-17.5 Y10.809
G1 F2400 X-17.5 Y-10.808 E467.57347
G0 F18000 X-17 Y-10.808
G1 F2400 X-17 Y10.809 E468.02284
G0 F18000 X-16.5 Y10.809
G1 F2400 X-16.5 Y-10.808 E468.4722
G0 F18000 X-16 Y-10.808
G1 F2400 X-15.999 Y10.809 E468.92157
G0 F18000 X-15.499 Y10.809
G1 F2400 X-15.5 Y-10.808 E469.37093
G0 F18000 X-15 Y-10.808
G1 F2400 X-14.999 Y10.809 E469.8203
G0 F18000 X-14.499 Y10.809
G1 F2400 X-14.5 Y-10.808 E470.26966
G0 F18000 X-14 Y-10.808
G1 F2400 X-13.999 Y10.809 E470.71903
G0 F18000 X-13.499 Y10.809
G1 F2400 X-13.5 Y-10.808 E471.16839
G0 F18000 X-13 Y-10.808
G1 F2400 X-12.999 Y10.809 E471.61776
G0 F18000 X-12.499 Y10.809
G1 F2400 X-12.5 Y-10.808 E472.06712
G0 F18000 X-12 Y-10.808
G1 F2400 X-11.999 Y10.809 E472.51649
G0 F18000 X-11.499 Y10.809
G1 F2400 X-11.5 Y-10.808 E472.96585
G0 F18000 X-11 Y-10.808
G1 F2400 X-10.999 Y10.809 E473.41522
G0 F18000 X-10.499 Y10.809
G1 F2400 X-10.5 Y-10.808 E473.86459
G0 F18000 X-10 Y-10.808
G1 F2400 X-9.999 Y10.809 E474.31395
G0 F18000 X-9.499 Y10.809
G1 F2400 X-9.5 Y-10.808 E474.76332
G0 F18000 X-9 Y-10.808
G1 F2400 X-8.999 Y10.809 E475.21268
G0 F18000 X-8.499 Y10.809
G1 F2400 X-8.5 Y-10.808 E475.66205
G0 F18000 X-8 Y-10.808
G1 F2400 X-7.999 Y10.809 E476.11141
G0 F18000 X-7.499 Y10.809
G1 F2400 X-7.5 Y-10.808 E476.56078
G0 F18000 X-7 Y-10.809
G1 F2400 X-6.999 Y10.809 E477.01016
G0 F18000 X-6.499 Y10.809
G1 F2400 X-6.5 Y-10.809 E477.45955
G0 F18000 X-6 Y-10.809
G1 F2400 X-5.999 Y10.809 E477.90893
G0 F18000 X-5.499 Y10.809
G1 F2400 X-5.5 Y-10.809 E478.35832
G0 F18000 X-5 Y-10.809
G1 F2400 X-4.999 Y10.809 E478.80771
G0 F18000 X-4.499 Y10.809
G1 F2400 X-4.5 Y-10.809 E479.25709
G0 F18000 X-4 Y-10.809
G1 F2400 X-3.999 Y10.809 E479.70648
G0 F18000 X-3.499 Y10.809
G1 F2400 X-3.5 Y-10.809 E480.15586
G0 F18000 X-3 Y-10.809
G1 F2400 X-2.999 Y10.809 E480.60525
G0 F18000 X-2.499 Y10.809
G1 F2400 X-2.5 Y-10.809 E481.05464
G0 F18000 X-2 Y-10.809
G1 F2400 X-1.999 Y10.809 E481.50402
G0 F18000 X-1.499 Y10.809
G1 F2400 X-1.5 Y-10.809 E481.95341
G0 F18000 X-1 Y-10.809
G1 F2400 X-0.999 Y10.809 E482.40279
G0 F18000 X-0.499 Y10.809
G1 F2400 X-0.5 Y-10.809 E482.85218
G0 F18000 X0 Y-10.809
G1 F2400 X0 Y10.809 E483.30157
G0 F18000 X0.5 Y10.81
G1 F2400 X0.499 Y-10.808 E483.75095
G0 F18000 X0.999 Y-10.808
G1 F2400 X1 Y10.81 E484.20034
G0 F18000 X1.5 Y10.81
G1 F2400 X1.499 Y-10.808 E484.64972
G0 F18000 X1.999 Y-10.808
G1 F2400 X2 Y10.81 E485.09911
G0 F18000 X2.5 Y10.81
G1 F2400 X2.499 Y-10.808 E485.5485
G0 F18000 X2.999 Y-10.808
G1 F2400 X3 Y10.81 E485.99788
G0 F18000 X3.5 Y10.81
G1 F2400 X3.499 Y-10.808 E486.44727
G0 F18000 X3.999 Y-10.808
G1 F2400 X4 Y10.81 E486.89665
G0 F18000 X4.5 Y10.81
G1 F2400 X4.499 Y-10.808 E487.34604
G0 F18000 X4.999 Y-10.808
G1 F2400 X5 Y10.81 E487.79543
G0 F18000 X5.5 Y10.81
G1 F2400 X5.499 Y-10.808 E488.24481
G0 F18000 X5.999 Y-10.808
G1 F2400 X6 Y10.81 E488.6942
G0 F18000 X6.5 Y10.81
G1 F2400 X6.499 Y-10.808 E489.14358
G0 F18000 X6.999 Y-10.808
G1 F2400 X7 Y10.81 E489.59297
G0 F18000 X7.5 Y10.809
G1 F2400 X7.499 Y-10.808 E490.04234
G0 F18000 X7.999 Y-10.808
G1 F2400 X8 Y10.809 E490.4917
G0 F18000 X8.5 Y10.809
G1 F2400 X8.499 Y-10.808 E490.94107
G0 F18000 X8.999 Y-10.808
G1 F2400 X9 Y10.809 E491.39043
G0 F18000 X9.5 Y10.809
G1 F2400 X9.499 Y-10.808 E491.8398
G0 F18000 X9.999 Y-10.808
G1 F2400 X10 Y10.809 E492.28916
G0 F18000 X10.5 Y10.809
G1 F2400 X10.499 Y-10.808 E492.73853
G0 F18000 X10.999 Y-10.808
G1 F2400 X11 Y10.809 E493.18789
G0 F18000 X11.5 Y10.809
G1 F2400 X11.499 Y-10.808 E493.63726
G0 F18000 X11.999 Y-10.808
G1 F2400 X12 Y10.809 E494.08662
G0 F18000 X12.5 Y10.809
G1 F2400 X12.499 Y-10.808 E494.53599
G0 F18000 X12.999 Y-10.808
G1 F2400 X13 Y10.809 E494.98535
G0 F18000 X13.5 Y10.809
G1 F2400 X13.499 Y-10.808 E495.43472
G0 F18000 X13.999 Y-10.808
G1 F2400 X14 Y10.809 E495.88408
G0 F18000 X14.5 Y10.809
G1 F2400 X14.499 Y-10.808 E496.33345
G0 F18000 X14.999 Y-10.808
G1 F2400 X15 Y10.809 E496.78281
G0 F18000 X15.5 Y10.809
G1 F2400 X15.499 Y-10.808 E497.23218
G0 F18000 X15.999 Y-10.808
G1 F2400 X16 Y10.809 E497.68154
G0 F18000 X16.5 Y10.809
G1 F2400 X16.5 Y-10.808 E498.13091
G0 F18000 X17 Y-10.808
G1 F2400 X17 Y10.809 E498.58027
G0 F18000 X17.5 Y10.809
G1 F2400 X17.5 Y-10.808 E499.02964
G0 F18000 X18 Y-10.808
G1 F2400 X18 Y10.809 E499.47901
G0 F18000 X18.5 Y10.809
G1 F2400 X18.5 Y-10.808 E499.92837
G0 F18000 X19 Y-10.808
G1 F2400 X19 Y10.809 E500.37774
G0 F18000 X19.5 Y10.809
G1 F2400 X19.5 Y-10.808 E500.8271
G0 F18000 X20 Y-10.808
G1 F2400 X20 Y10.809 E501.27647
G0 F18000 X20.5 Y10.809
G1 F2400 X20.5 Y-10.808 E501.72583
G0 F18000 X21 Y-10.808
G1 F2400 X21 Y10.809 E502.1752
G0 F18000 X21.5 Y10.809
G1 F2400 X21.5 Y-10.808 E502.62456
G0 F18000 X22 Y-10.808
G1 F2400 X22 Y10.809 E503.07393
G0 F18000 X22.5 Y10.809
G1 F2400 X22.5 Y-10.808 E503.52329
G0 F18000 X23 Y-10.808
G1 F2400 X23 Y10.809 E503.97266
G0 F18000 X23.5 Y10.809
G1 F2400 X23.5 Y-10.808 E504.42202
; Layer Change GCode
; LAYER:8
G0 F18000 X-24.317 Y11.32 Z1.1
G0 X-24.68 Y11.488
G0 X-24.488 Y11.4
G0 X-24.488 Y11.4
G0 X-24.748 Y11.75
G0 X-24.748 Y11.75
G0 X-24.248 Y11.25
; TYPE:WALL-INNER
G1 F2400 X-24.248 Y11.25 E504.42202
G1 X-24.248 Y-11.249 E504.88972
G1 X24.25 Y-11.249 E505.89788
G1 X24.25 Y11.25 E506.36558
G1 X-24.248 Y11.25 E507.37373
G0 F18000 X-24.748 Y11.75
; TYPE:WALL-OUTER
G1 F2100 X-24.748 Y11.75 E507.37373
G1 X-24.748 Y-11.749 E507.86222
G1 X24.75 Y-11.749 E508.89117
G1 X24.75 Y11.75 E509.37965
G1 X-24.748 Y11.75 E510.4086
G0 F18000 X-24.488 Y11.4
G0 X-23.808 Y10.5
G0 X-23.808 Y10.5
; TYPE:FILL
G1 F2400 X23.81 Y10.499 E511.39846
G0 F18000 X23.81 Y9.999
G1 F2400 X-23.808 Y10 E512.38832
G0 F18000 X-23.808 Y9.5
G1 F2400 X23.81 Y9.499 E513.37819
G0 F18000 X23.81 Y8.999
G1 F2400 X-23.808 Y9 E514.36805
G0 F18000 X-23.808 Y8.5
G1 F2400 X23.81 Y8.499 E515.35791
G0 F18000 X23.81 Y7.999
G1 F2400 X-23.808 Y8 E516.34778
G0 F18000 X-23.808 Y7.5
G1 F2400 X23.81 Y7.499 E517.33764
G0 F18000 X23.81 Y6.999
G1 F2400 X-23.808 Y7 E518.3275
G0 F18000 X-23.808 Y6.5
G1 F2400 X23.81 Y6.499 E519.31737
G0 F18000 X23.81 Y5.999
G1 F2400 X-23.808 Y6 E520.30723
G0 F18000 X-23.808 Y5.5
G1 F2400 X23.81 Y5.499 E521.29709
G0 F18000 X23.81 Y4.999
G1 F2400 X-23.808 Y5 E522.28696
G0 F18000 X-23.808 Y4.5
G1 F2400 X23.81 Y4.499 E523.27682
G0 F18000 X23.81 Y3.999
G1 F2400 X-23.808 Y4 E524.26668
G0 F18000 X-23.808 Y3.5
G1 F2400 X23.81 Y3.499 E525.25655
G0 F18000 X23.81 Y2.999
G1 F2400 X-23.808 Y3 E526.24641
G0 F18000 X-23.808 Y2.5
G1 F2400 X23.81 Y2.499 E527.23627
G0 F18000 X23.81 Y1.999
G1 F2400 X-23.808 Y2 E528.22613
G0 F18000 X-23.808 Y1.5
G1 F2400 X23.81 Y1.499 E529.216
G0 F18000 X23.81 Y0.999
G1 F2400 X-23.808 Y1 E530.20586
G0 F18000 X-23.808 Y0.5
G1 F2400 X23.81 Y0.499 E531.19572
G0 F18000 X23.81 Y0
G1 F2400 X-23.808 Y0 E532.18559
G0 F18000 X-23.808 Y-0.499
G1 F2400 X23.81 Y-0.5 E533.17545
G0 F18000 X23.81 Y-1
G1 F2400 X-23.808 Y-0.999 E534.16531
G0 F18000 X-23.808 Y-1.499
G1 F2400 X23.81 Y-1.5 E535.15518
G0 F18000 X23.81 Y-2
G1 F2400 X-23.808 Y-1.999 E536.14504
G0 F18000 X-23.808 Y-2.499
G1 F2400 X23.81 Y-2.5 E537.1349
G0 F18000 X23.81 Y-3
G1 F2400 X-23.808 Y-2.999 E538.12477
G0 F18000 X-23.808 Y-3.499
G1 F2400 X23.81 Y-3.5 E539.11463
G0 F18000 X23.81 Y-4
G1 F2400 X-23.808 Y-3.999 E540.10449
G0 F18000 X-23.808 Y-4.499
G1 F2400 X23.81 Y-4.5 E541.09436
G0 F18000 X23.81 Y-5
G1 F2400 X-23.808 Y-4.999 E542.08422
G0 F18000 X-23.808 Y-5.499
G1 F2400 X23.81 Y-5.5 E543.07408
G0 F18000 X23.81 Y-6
G1 F2400 X-23.808 Y-5.999 E544.06395
G0 F18000 X-23.808 Y-6.499
G1 F2400 X23.81 Y-6.5 E545.05381
G0 F18000 X23.81 Y-7
G1 F2400 X-23.808 Y-6.999 E546.04367
G0 F18000 X-23.808 Y-7.499
G1 F2400 X23.81 Y-7.5 E547.03354
G0 F18000 X23.81 Y-8
G1 F2400 X-23.808 Y-7.999 E548.0234
G0 F18000 X-23.808 Y-8.499
G1 F2400 X23.81 Y-8.5 E549.01326
G0 F18000 X23.81 Y-9
G1 F2400 X-23.808 Y-8.999 E550.00313
G0 F18000 X-23.808 Y-9.499
G1 F2400 X23.81 Y-9.5 E550.99299
G0 F18000 X23.81 Y-10
G1 F2400 X-23.808 Y-9.999 E551.98285
G0 F18000 X-23.808 Y-10.499
G1 F2400 X23.81 Y-10.5 E552.97271
; Layer Change GCode
; LAYER:9
G0 F18000 X-24.316 Y11.321 Z1.2
G0 X-24.68 Y11.486
G0 X-24.488 Y11.4
G0 X-24.488 Y11.4
G0 X-24.748 Y11.75
G0 X-24.748 Y11.75
G0 X-24.248 Y11.25
; TYPE:WALL-INNER
G1 F2400 X-24.248 Y11.25 E552.97271
G1 X-24.248 Y-11.249 E553.44041
G1 X24.25 Y-11.249 E554.44857
G1 X24.25 Y11.25 E554.91627
G1 X-24.248 Y11.25 E555.92443
G0 F18000 X-24.748 Y11.75
; TYPE:WALL-OUTER
G1 F2100 X-24.748 Y11.75 E555.92443
G1 X-24.748 Y-11.749 E556.41291
G1 X24.75 Y-11.749 E557.44186
G1 X24.75 Y11.75 E557.93035
G1 X-24.748 Y11.75 E558.95929
G0 F18000 X-24.488 Y11.4
G0 X-23.5 Y10.809
G0 X-23.5 Y10.809
; TYPE:FILL
G1 F2400 X-23.5 Y-10.808 E559.40865
G0 F18000 X-23 Y-10.808
G1 F2400 X-23 Y10.809 E559.85802
G0 F18000 X-22.5 Y10.809
G1 F2400 X-22.5 Y-10.808 E560.30739
G0 F18000 X-22 Y-10.808
G1 F2400 X-22 Y10.809 E560.75675
G0 F18000 X-21.5 Y10.809
G1 F2400 X-21.5 Y-10.808 E561.20612
G0 F18000 X-21 Y-10.808
G1 F2400 X-21 Y10.809 E561.65548
G0 F18000 X-20.5 Y10.809
G1 F2400 X-20.5 Y-10.808 E562.10485
G0 F18000 X-20 Y-10.808
G1 F2400 X-20 Y10.809 E562.55421
G0 F18000 X-19.5 Y10.809
G1 F2400 X-19.5 Y-10.808 E563.00358
G0 F18000 X-19 Y-10.808
G1 F2400 X-19 Y10.809 E563.45294
G0 F18000 X-18.5 Y10.809
G1 F2400 X-18.5 Y-10.808 E563.90231
G0 F18000 X-18 Y-10.808
G1 F2400 X-18 Y10.809 E564.35167
G0 F18000 X-17.5 Y10.809
G1 F2400 X-17.5 Y-10.808 E564.80104
G0 F18000 X-17 Y-10.808
G1 F2400 X-17 Y10.809 E565.2504
G0 F18000 X-16.5 Y10.809
G1 F2400 X-16.5 Y-10.808 E565.69977
G0 F18000 X-16 Y-10.808
G1 F2400 X-15.999 Y10.809 E566.14913
G0 F18000 X-15.499 Y10.809
G1 F2400 X-15.5 Y-10.808 E566.5985
G0 F18000 X-15 Y-10.808
G1 F2400 X-14.999 Y10.809 E567.04786
G0 F18000 X-14.499 Y10.809
G1 F2400 X-14.5 Y-10.808 E567.49723
G0 F18000 X-14 Y-10.808
G1 F2400 X-13.999 Y10.809 E567.94659
G0 F18000 X-13.499 Y10.809
G1 F2400 X-13.5 Y-10.808 E568.39596
G0 F18000 X-13 Y-10.808
G1 F2400 X-12.999 Y10.809 E568.84532
G0 F18000 X-12.499 Y10.809
G1 F2400 X-12.5 Y-10.808 E569.29469
G0 F18000 X-12 Y-10.808
G1 F2400 X-11.999 Y10.809 E569.74405
G0 F18000 X-11.499 Y10.809
G1 F2400 X-11.5 Y-10.808 E570.19342
G0 F18000 X-11 Y-10.808
G1 F2400 X-10.999 Y10.809 E570.64279
G0 F18000 X-10.499 Y10.809
G1 F2400 X-10.5 Y-10.808 E571.09215
G0 F18000 X-10 Y-10.808
G1 F2400 X-9.999 Y10.809 E571.54152
G0 F18000 X-9.499 Y10.809
G1 F2400 X-9.5 Y-10.808 E571.99088
G0 F18000 X-9 Y-10.808
G1 F2400 X-8.999 Y10.809 E572.44025
G0 F18000 X-8.499 Y10.809
G1 F2400 X-8.5 Y-10.808 E572.88961
G0 F18000 X-8 Y-10.808
G1 F2400 X-7.999 Y10.809 E573.33898
G0 F18000 X-7.499 Y10.809
G1 F2400 X-7.5 Y-10.808 E573.78834
G0 F18000 X-7 Y-10.809
G1 F2400 X-6.999 Y10.809 E574.23773
G0 F18000 X-6.499 Y10.809
G1 F2400 X-6.5 Y-10.809 E574.68711
G0 F18000 X-6 Y-10.809
G1 F2400 X-5.999 Y10.809 E575.1365
G0 F18000 X-5.499 Y10.809
G1 F2400 X-5.5 Y-10.809 E575.58589
G0 F18000 X-5 Y-10.809
G1 F2400 X-4.999 Y10.809 E576.03527
G0 F18000 X-4.499 Y10.809
G1 F2400 X-4.5 Y-10.809 E576.48466
G0 F18000 X-4 Y-10.809
G1 F2400 X-3.999 Y10.809 E576.93404
G0 F18000 X-3.499 Y10.809
G1 F2400 X-3.5 Y-10.809 E577.38343
G0 F18000 X-3 Y-10.809
G1 F2400 X-2.999 Y10.809 E577.83282
G0 F18000 X-2.499 Y10.809
G1 F2400 X-2.5 Y-10.809 E578.2822
G0 F18000 X-2 Y-10.809
G1 F2400 X-1.999 Y10.809 E578.73159
G0 F18000 X-1.499 Y10.809
G1 F2400 X-1.5 Y-10.809 E579.18097
G0 F18000 X-1 Y-10.809
G1 F2400 X-0.999 Y10.809 E579.63036
G0 F18000 X-0.499 Y10.809
G1 F2400 X-0.5 Y-10.809 E580.07975
G0 F18000 X0 Y-10.809
G1 F2400 X0 Y10.809 E580.52913
G0 F18000 X0.5 Y10.81
G1 F2400 X0.499 Y-10.808 E580.97852
G0 F18000 X0.999 Y-10.808
G1 F2400 X1 Y10.81 E581.4279
G0 F18000 X1.5 Y10.81
G1 F2400 X1.499 Y-10.808 E581.87729
G0 F18000 X1.999 Y-10.808
G1 F2400 X2 Y10.81 E582.32668
G0 F18000 X2.5 Y10.81
G1 F2400 X2.499 Y-10.808 E582.77606
G0 F18000 X2.999 Y-10.808
G1 F2400 X3 Y10.81 E583.22545
G0 F18000 X3.5 Y10.81
G1 F2400 X3.499 Y-10.808 E583.67483
G0 F18000 X3.999 Y-10.808
G1 F2400 X4 Y10.81 E584.12422
G0 F18000 X4.5 Y10.81
G1 F2400 X4.499 Y-10.808 E584.57361
G0 F18000 X4.999 Y-10.808
G1 F2400 X5 Y10.81 E585.02299
G0 F18000 X5.5 Y10.81
G1 F2400 X5.499 Y-10.808 E585.47238
G0 F18000 X5.999 Y-10.808
G1 F2400 X6 Y10.81 E585.92176
G0 F18000 X6.5 Y10.81
G1 F2400 X6.499 Y-10.808 E586.37115
G0 F18000 X6.999 Y-10.808
G1 F2400 X7 Y10.81 E586.82054
G0 F18000 X7.5 Y10.809
G1 F2400 X7.499 Y-10.808 E587.2699
G0 F18000 X7.999 Y-10.808
G1 F2400 X8 Y10.809 E587.71927
G0 F18000 X8.5 Y10.809
G1 F2400 X8.499 Y-10.808 E588.16863
G0 F18000 X8.999 Y-10.808
G1 F2400 X9 Y10.809 E588.618
G0 F18000 X9.5 Y10.809
G1 F2400 X9.499 Y-10.808 E589.06736
G0 F18000 X9.999 Y-10.808
G1 F2400 X10 Y10.809 E589.51673
G0 F18000 X10.5 Y10.809
G1 F2400 X10.499 Y-10.808 E589.96609
G0 F18000 X10.999 Y-10.808
G1 F2400 X11 Y10.809 E590.41546
G0 F18000 X11.5 Y10.809
G1 F2400 X11.499 Y-10.808 E590.86482
G0 F18000 X11.999 Y-10.808
G1 F2400 X12 Y10.809 E591.31419
G0 F18000 X12.5 Y10.809
G1 F2400 X12.499 Y-10.808 E591.76355
G0 F18000 X12.999 Y-10.808
G1 F2400 X13 Y10.809 E592.21292
G0 F18000 X13.5 Y10.809
G1 F2400 X13.499 Y-10.808 E592.66228
G0 F18000 X13.999 Y-10.808
G1 F2400 X14 Y10.809 E593.11165
G0 F18000 X14.5 Y10.809
G1 F2400 X14.499 Y-10.808 E593.56101
G0 F18000 X14.999 Y-10.808
G1 F2400 X15 Y10.809 E594.01038
G0 F18000 X15.5 Y10.809
G1 F2400 X15.499 Y-10.808 E594.45974
G0 F18000 X15.999 Y-10.808
G1 F2400 X16 Y10.809 E594.90911
G0 F18000 X16.5 Y10.809
G1 F2400 X16.5 Y-10.808 E595.35847
G0 F18000 X17 Y-10.808
G1 F2400 X17 Y10.809 E595.80784
G0 F18000 X17.5 Y10.809
G1 F2400 X17.5 Y-10.808 E596.25721
G0 F18000 X18 Y-10.808
G1 F2400 X18 Y10.809 E596.70657
G0 F18000 X18.5 Y10.809
G1 F2400 X18.5 Y-10.808 E597.15594
G0 F18000 X19 Y-10.808
G1 F2400 X19 Y10.809 E597.6053
G0 F18000 X19.5 Y10.809
G1 F2400 X19.5 Y-10.808 E598.05467
G0 F18000 X20 Y-10.808
G1 F2400 X20 Y10.809 E598.50403
G0 F18000 X20.5 Y10.809
G1 F2400 X20.5 Y-10.808 E598.9534
G0 F18000 X21 Y-10.808
G1 F2400 X21 Y10.809 E599.40276
G0 F18000 X21.5 Y10.809
G1 F2400 X21.5 Y-10.808 E599.85213
G0 F18000 X22 Y-10.808
G1 F2400 X22 Y10.809 E600.30149
G0 F18000 X22.5 Y10.809
G1 F2400 X22.5 Y-10.808 E600.75086
G0 F18000 X23 Y-10.808
G1 F2400 X23 Y10.809 E601.20022
G0 F18000 X23.5 Y10.809
G1 F2400 X23.5 Y-10.808 E601.64959
; Layer Change GCode
; LAYER:10
G0 F18000 X-24.317 Y11.32 Z1.3
G0 X-24.68 Y11.488
G0 X-24.488 Y11.4
G0 X-24.488 Y11.4
G0 X-24.748 Y11.75
G0 X-24.748 Y11.75
G0 X-24.248 Y11.25
; TYPE:WALL-INNER
G1 F2400 X-24.248 Y11.25 E601.64959
G1 X-24.248 Y-11.249 E602.11729
G1 X24.25 Y-11.249 E603.12544
G1 X24.25 Y11.25 E603.59314
G1 X-24.248 Y11.25 E604.6013
G0 F18000 X-24.748 Y11.75
; TYPE:WALL-OUTER
G1 F2100 X-24.748 Y11.75 E604.6013
G1 X-24.748 Y-11.749 E605.08979
G1 X24.75 Y-11.749 E606.11873
G1 X24.75 Y11.75 E606.60722
G1 X-24.748 Y11.75 E607.63616
G0 F18000 X-24.488 Y11.4
G0 X-23.331 Y10.809
G0 X-23.331 Y10.809
; TYPE:FILL
G1 F2400 X-23.331 Y-10.808 E608.08553
G0 F18000 X-23.808 Y-9.998
G1 F2400 X23.81 Y-9.999 E609.07539
G0 F18000 X23.331 Y-10.808
G1 F2400 X23.331 Y10.809 E609.52476
G0 F18000 X23.81 Y9.998
G1 F2400 X-23.808 Y9.999 E610.51462
G0 F18000 X-23.808 Y8.888
G1 F2400 X23.81 Y8.887 E611.50448
G0 F18000 X23.81 Y7.776
G1 F2400 X-23.808 Y7.777 E612.49435
G0 F18000 X-23.808 Y6.666
G1 F2400 X23.81 Y6.665 E613.48421
G0 F18000 X23.81 Y5.554
G1 F2400 X-23.808 Y5.555 E614.47407
G0 F18000 X-23.808 Y4.444
G1 F2400 X23.81 Y4.443 E615.46394
G0 F18000 X23.81 Y3.332
G1 F2400 X-23.808 Y3.333 E616.4538
G0 F18000 X-23.808 Y2.222
G1 F2400 X23.81 Y2.221 E617.44366
G0 F18000 X23.81 Y1.11
G1 F2400 X-23.808 Y1.111 E618.43352
G0 F18000 X-23.808 Y0
G1 F2400 X23.81 Y0 E619.42339
G0 F18000 X23.81 Y-1.111
G1 F2400 X-23.808 Y-1.11 E620.41325
G0 F18000 X-23.808 Y-2.221
G1 F2400 X23.81 Y-2.222 E621.40311
G0 F18000 X23.81 Y-3.333
G1 F2400 X-23.808 Y-3.332 E622.39298
G0 F18000 X-23.808 Y-4.443
G1 F2400 X23.81 Y-4.444 E623.38284
G0 F18000 X23.81 Y-5.555
G1 F2400 X-23.808 Y-5.554 E624.3727
G0 F18000 X-23.808 Y-6.665
G1 F2400 X23.81 Y-6.666 E625.36257
G0 F18000 X23.81 Y-7.777
G1 F2400 X-23.808 Y-7.776 E626.35243
G0 F18000 X-23.808 Y-8.887
G1 F2400 X23.81 Y-8.888 E627.34229
G0 F18000 X22.22 Y-10.808
G0 X22.22 Y-10.808
G1 F2400 X22.22 Y10.809 E627.79166
G0 F18000 X21.109 Y10.809
G1 F2400 X21.109 Y-10.808 E628.24102
G0 F18000 X19.998 Y-10.808
G1 F2400 X19.998 Y10.809 E628.69039
G0 F18000 X18.887 Y10.809
G1 F2400 X18.887 Y-10.808 E629.13975
G0 F18000 X17.776 Y-10.808
G1 F2400 X17.776 Y10.809 E629.58912
G0 F18000 X16.665 Y10.809
G1 F2400 X16.665 Y-10.808 E630.03848
G0 F18000 X15.553 Y-10.808
G1 F2400 X15.554 Y10.809 E630.48785
G0 F18000 X14.443 Y10.809
G1 F2400 X14.442 Y-10.808 E630.93722
G0 F18000 X13.331 Y-10.808
G1 F2400 X13.332 Y10.809 E631.38658
G0 F18000 X12.221 Y10.809
G1 F2400 X12.22 Y-10.808 E631.83595
G0 F18000 X11.109 Y-10.808
G1 F2400 X11.11 Y10.809 E632.28531
G0 F18000 X9.999 Y10.809
G1 F2400 X9.998 Y-10.808 E632.73468
G0 F18000 X8.887 Y-10.808
G1 F2400 X8.888 Y10.809 E633.18404
G0 F18000 X7.777 Y10.809
G1 F2400 X7.776 Y-10.808 E633.63341
G0 F18000 X6.665 Y-10.808
G1 F2400 X6.666 Y10.81 E634.08279
G0 F18000 X5.555 Y10.81
G1 F2400 X5.554 Y-10.808 E634.53218
G0 F18000 X4.443 Y-10.808
G1 F2400 X4.444 Y10.81 E634.98156
G0 F18000 X3.333 Y10.81
G1 F2400 X3.332 Y-10.808 E635.43095
G0 F18000 X2.221 Y-10.808
G1 F2400 X2.222 Y10.81 E635.88034
G0 F18000 X1.111 Y10.81
G1 F2400 X1.11 Y-10.808 E636.32972
G0 F18000 X0 Y-10.809
G1 F2400 X0 Y10.809 E636.77911
G0 F18000 X-1.11 Y10.809
G1 F2400 X-1.111 Y-10.809 E637.22849
G0 F18000 X-2.222 Y-10.809
G1 F2400 X-2.221 Y10.809 E637.67788
G0 F18000 X-3.332 Y10.809
G1 F2400 X-3.333 Y-10.809 E638.12727
G0 F18000 X-4.444 Y-10.809
G1 F2400 X-4.443 Y10.809 E638.57665
G0 F18000 X-5.554 Y10.809
G1 F2400 X-5.555 Y-10.809 E639.02604
G0 F18000 X-6.666 Y-10.809
G1 F2400 X-6.665 Y10.809 E639.47542
G0 F18000 X-7.776 Y10.809
G1 F2400 X-7.777 Y-10.808 E639.92479
G0 F18000 X-8.888 Y-10.808
G1 F2400 X-8.887 Y10.809 E640.37416
G0 F18000 X-9.998 Y10.809
G1 F2400 X-9.999 Y-10.808 E640.82352
G0 F18000 X-11.11 Y-10.808
G1 F2400 X-11.109 Y10.809 E641.27289
G0 F18000 X-12.22 Y10.809
G1 F2400 X-12.221 Y-10.808 E641.72225
G0 F18000 X-13.332 Y-10.808
G1 F2400 X-13.331 Y10.809 E642.17162
G0 F18000 X-14.442 Y10.809
G1 F2400 X-14.443 Y-10.808 E642.62098
G0 F18000 X-15.554 Y-10.808
G1 F2400 X-15.553 Y10.809 E643.07035
G0 F18000 X-16.665 Y10.809
G1 F2400 X-16.665 Y-10.808 E643.51971
G0 F18000 X-17.776 Y-10.808
G1 F2400 X-17.776 Y10.809 E643.96908
G0 F18000 X-18.887 Y10.809
G1 F2400 X-18.887 Y-10.808 E644.41844
G0 F18000 X-19.998 Y-10.808
G1 F2400 X-19.998 Y10.809 E644.86781
G0 F18000 X-21.109 Y10.809
G1 F2400 X-21.109 Y-10.808 E645.31717
G0 F18000 X-22.22 Y-10.808
G1 F2400 X-22.22 Y10.809 E645.76654
; Layer Change GCode
; LAYER:11
G0 F18000 X-24.304 Y11.351 Z1.4
G0 X-24.692 Y11.452
G0 X-24.488 Y11.4
G0 X-24.488 Y11.4
G0 X-24.748 Y11.75
G0 X-24.748 Y11.75
G0 X-24.248 Y11.25
; TYPE:WALL-INNER
G1 F2400 X-24.248 Y11.25 E645.76654
G1 X-24.248 Y-11.249 E646.23424
G1 X24.25 Y-11.249 E647.24239
G1 X24.25 Y11.25 E647.71009
G1 X-24.248 Y11.25 E648.71825
G0 F18000 X-24.748 Y11.75
; TYPE:WALL-OUTER
G1 F2100 X-24.748 Y11.75 E648.71825
G1 X-24.748 Y-11.749 E649.20674
G1 X24.75 Y-11.749 E650.23568
G1 X24.75 Y11.75 E650.72417
G1 X-24.748 Y11.75 E651.75311
G0 F18000 X-24.488 Y11.4
G0 X-23.331 Y10.809
G0 X-23.331 Y10.809
; TYPE:FILL
G1 F2400 X-23.331 Y-10.808 E652.20248
G0 F18000 X-23.808 Y-9.998
G1 F2400 X23.81 Y-9.999 E653.19234
G0 F18000 X23.331 Y-10.808
G1 F2400 X23.331 Y10.809 E653.64171
G0 F18000 X23.81 Y9.998
G1 F2400 X-23.808 Y9.999 E654.63157
G0 F18000 X-23.808 Y8.888
G1 F2400 X23.81 Y8.887 E655.62143
G0 F18000 X23.81 Y7.776
G1 F2400 X-23.808 Y7.777 E656.6113
G0 F18000 X-23.808 Y6.666
G1 F2400 X23.81 Y6.665 E657.60116
G0 F18000 X23.81 Y5.554
G1 F2400 X-23.808 Y5.555 E658.59102
G0 F18000 X-23.808 Y4.444
G1 F2400 X23.81 Y4.443 E659.58089
G0 F18000 X23.81 Y3.332
G1 F2400 X-23.808 Y3.333 E660.57075
G0 F18000 X-23.808 Y2.222
G1 F2400 X23.81 Y2.221 E661.56061
G0 F18000 X23.81 Y1.11
G1 F2400 X-23.808 Y1.111 E662.55047
G0 F18000 X-23.808 Y0
G1 F2400 X23.81 Y0 E663.54034
G0 F18000 X23.81 Y-1.111
G1 F2400 X-23.808 Y-1.11 E664.5302
G0 F18000 X-23.808 Y-2.221
G1 F2400 X23.81 Y-2.222 E665.52006
G0 F18000 X23.81 Y-3.333
G1 F2400 X-23.808 Y-3.332 E666.50993
G0 F18000 X-23.808 Y-4.443
G1 F2400 X23.81 Y-4.444 E667.49979
G0 F18000 X23.81 Y-5.555
G1 F2400 X-23.808 Y-5.554 E668.48965
G0 F18000 X-23.808 Y-6.665
G1 F2400 X23.81 Y-6.666 E669.47952
G0 F18000 X23.81 Y-7.777
G1 F2400 X-23.808 Y-7.776 E670.46938
G0 F18000 X-23.808 Y-8.887
G1 F2400 X23.81 Y-8.888 E671.45924
G0 F18000 X22.22 Y-10.808
G0 X22.22 Y-10.808
G1 F2400 X22.22 Y10.809 E671.90861
G0 F18000 X21.109 Y10.809
G1 F2400 X21.109 Y-10.808 E672.35797
G0 F18000 X19.998 Y-10.808
G1 F2400 X19.998 Y10.809 E672.80734
G0 F18000 X18.887 Y10.809
G1 F2400 X18.887 Y-10.808 E673.2567
G0 F18000 X17.776 Y-10.808
G1 F2400 X17.776 Y10.809 E673.70607
G0 F18000 X16.665 Y10.809
G1 F2400 X16.665 Y-10.808 E674.15543
G0 F18000 X15.553 Y-10.808
G1 F2400 X15.554 Y10.809 E674.6048
G0 F18000 X14.443 Y10.809
G1 F2400 X14.442 Y-10.808 E675.05417
G0 F18000 X13.331 Y-10.808
G1 F2400 X13.332 Y10.809 E675.50353
G0 F18000 X12.221 Y10.809
G1 F2400 X12.22 Y-10.808 E675.9529
G0 F18000 X11.109 Y-10.808
G1 F2400 X11.11 Y10.809 E676.40226
G0 F18000 X9.999 Y10.809
G1 F2400 X9.998 Y-10.808 E676.85163
G0 F18000 X8.887 Y-10.808
G1 F2400 X8.888 Y10.809 E677.30099
G0 F18000 X7.777 Y10.809
G1 F2400 X7.776 Y-10.808 E677.75036
G0 F18000 X6.665 Y-10.808
G1 F2400 X6.666 Y10.81 E678.19974
G0 F18000 X5.555 Y10.81
G1 F2400 X5.554 Y-10.808 E678.64913
G0 F18000 X4.443 Y-10.808
G1 F2400 X4.444 Y10.81 E679.09851
G0 F18000 X3.333 Y10.81
G1 F2400 X3.332 Y-10.808 E679.5479
G0 F18000 X2.221 Y-10.808
G1 F2400 X2.222 Y10.81 E679.99729
G0 F18000 X1.111 Y10.81
G1 F2400 X1.11 Y-10.808 E680.44667
G0 F18000 X0 Y-10.809
G1 F2400 X0 Y10.809 E680.89606
G0 F18000 X-1.11 Y10.809
G1 F2400 X-1.111 Y-10.809 E681.34544
G0 F18000 X-2.222 Y-10.809
G1 F2400 X-2.221 Y10.809 E681.79483
G0 F18000 X-3.332 Y10.809
G1 F2400 X-3.333 Y-10.809 E682.24422
G0 F18000 X-4.444 Y-10.809
G1 F2400 X-4.443 Y10.809 E682.6936
G0 F18000 X-5.554 Y10.809
G1 F2400 X-5.555 Y-10.809 E683.14299
G0 F18000 X-6.666 Y-10.809
G1 F2400 X-6.665 Y10.809 E683.59237
G0 F18000 X-7.776 Y10.809
G1 F2400 X-7.777 Y-10.808 E684.04174
G0 F18000 X-8.888 Y-10.808
G1 F2400 X-8.887 Y10.809 E684.49111
G0 F18000 X-9.998 Y10.809
G1 F2400 X-9.999 Y-10.808 E684.94047
G0 F18000 X-11.11 Y-10.808
G1 F2400 X-11.109 Y10.809 E685.38984
G0 F18000 X-12.22 Y10.809
G1 F2400 X-12.221 Y-10.808 E685.8392
G0 F18000 X-13.332 Y-10.808
G1 F2400 X-13.331 Y10.809 E686.28857
G0 F18000 X-14.442 Y10.809
G1 F2400 X-14.443 Y-10.808 E686.73793
G0 F18000 X-15.554 Y-10.808
G1 F2400 X-15.553 Y10.809 E687.1873
G0 F18000 X-16.665 Y10.809
G1 F2400 X-16.665 Y-10.808 E687.63666
G0 F18000 X-17.776 Y-10.808
G1 F2400 X-17.776 Y10.809 E688.08603
G0 F18000 X-18.887 Y10.809
G1 F2400 X-18.887 Y-10.808 E688.53539
G0 F18000 X-19.998 Y-10.808
G1 F2400 X-19.998 Y10.809 E688.98476
G0 F18000 X-21.109 Y10.809
G1 F2400 X-21.109 Y-10.808 E689.43412
G0 F18000 X-22.22 Y-10.808
G1 F2400 X-22.22 Y10.809 E689.88349
; Layer Change GCode
; LAYER:12
G0 F18000 X-24.304 Y11.351 Z1.5
G0 X-24.692 Y11.452
G0 X-24.488 Y11.4
G0 X-24.488 Y11.4
G0 X-24.748 Y11.75
G0 X-24.748 Y11.75
G0 X-24.248 Y11.25
; TYPE:WALL-INNER
G1 F2400 X-24.248 Y11.25 E689.88349
G1 X-24.248 Y-11.249 E690.35119
G1 X24.25 Y-11.249 E691.35934
G1 X24.25 Y11.25 E691.82704
G1 X-24.248 Y11.25 E692.8352
G0 F18000 X-24.748 Y11.75
; TYPE:WALL-OUTER
G1 F2100 X-24.748 Y11.75 E692.8352
G1 X-24.748 Y-11.749 E693.32369
G1 X24.75 Y-11.749 E694.35263
G1 X24.75 Y11.75 E694.84112
G1 X-24.748 Y11.75 E695.87006
G0 F18000 X-24.488 Y11.4
G0 X-23.331 Y10.809
G0 X-23.331 Y10.809
; TYPE:FILL
G1 F2400 X-23.331 Y-10.808 E696.31943
G0 F18000 X-23.808 Y-9.998
G1 F2400 X23.81 Y-9.999 E697.30929
G0 F18000 X23.331 Y-10.808
G1 F2400 X23.331 Y10.809 E697.75866
G0 F18000 X23.81 Y9.998
G1 F2400 X-23.808 Y9.999 E698.74852
G0 F18000 X-23.808 Y8.888
G1 F2400 X23.81 Y8.887 E699.73838
G0 F18000 X23.81 Y7.776
G1 F2400 X-23.808 Y7.777 E700.72825
G0 F18000 X-23.808 Y6.666
G1 F2400 X23.81 Y6.665 E701.71811
G0 F18000 X23.81 Y5.554
G1 F2400 X-23.808 Y5.555 E702.70797
G0 F18000 X-23.808 Y4.444
G1 F2400 X23.81 Y4.443 E703.69784
G0 F18000 X23.81 Y3.332
G1 F2400 X-23.808 Y3.333 E704.6877
G0 F18000 X-23.808 Y2.222
G1 F2400 X23.81 Y2.221 E705.67756
G0 F18000 X23.81 Y1.11
G1 F2400 X-23.808 Y1.111 E706.66742
G0 F18000 X-23.808 Y0
G1 F2400 X23.81 Y0 E707.65729
G0 F18000 X23.81 Y-1.111
G1 F2400 X-23.808 Y-1.11 E708.64715
G0 F18000 X-23.808 Y-2.221
G1 F2400 X23.81 Y-2.222 E709.63701
G0 F18000 X23.81 Y-3.333
G1 F2400 X-23.808 Y-3.332 E710.62688
G0 F18000 X-23.808 Y-4.443
G1 F2400 X23.81 Y-4.444 E711.61674
G0 F18000 X23.81 Y-5.555
G1 F2400 X-23.808 Y-5.554 E712.6066
G0 F18000 X-23.808 Y-6.665
G1 F2400 X23.81 Y-6.666 E713.59647
G0 F18000 X23.81 Y-7.777
G1 F2400 X-23.808 Y-7.776 E714.58633
G0 F18000 X-23.808 Y-8.887
G1 F2400 X23.81 Y-8.888 E715.57619
G0 F18000 X22.22 Y-10.808
G0 X22.22 Y-10.808
G1 F2400 X22.22 Y10.809 E716.02556
G0 F18000 X21.109 Y10.809
G1 F2400 X21.109 Y-10.808 E716.47492
G0 F18000 X19.998 Y-10.808
G1 F2400 X19.998 Y10.809 E716.92429
G0 F18000 X18.887 Y10.809
G1 F2400 X18.887 Y-10.808 E717.37365
G0 F18000 X17.776 Y-10.808
G1 F2400 X17.776 Y10.809 E717.82302
G0 F18000 X16.665 Y10.809
G1 F2400 X16.665 Y-10.808 E718.27238
G0 F18000 X15.553 Y-10.808
G1 F2400 X15.554 Y10.809 E718.72175
G0 F18000 X14.443 Y10.809
G1 F2400 X14.442 Y-10.808 E719.17112
G0 F18000 X13.331 Y-10.808
G1 F2400 X13.332 Y10.809 E719.62048
G0 F18000 X12.221 Y10.809
G1 F2400 X12.22 Y-10.808 E720.06985
G0 F18000 X11.109 Y-10.808
G1 F2400 X11.11 Y10.809 E720.51921
G0 F18000 X9.999 Y10.809
G1 F2400 X9.998 Y-10.808 E720.96858
G0 F18000 X8.887 Y-10.808
G1 F2400 X8.888 Y10.809 E721.41794
G0 F18000 X7.777 Y10.809
G1 F2400 X7.776 Y-10.808 E721.86731
G0 F18000 X6.665 Y-10.808
G1 F2400 X6.666 Y10.81 E722.31669
G0 F18000 X5.555 Y10.81
G1 F2400 X5.554 Y-10.808 E722.76608
G0 F18000 X4.443 Y-10.808
G1 F2400 X4.444 Y10.81 E723.21546
G0 F18000 X3.333 Y10.81
G1 F2400 X3.332 Y-10.808 E723.66485
G0 F18000 X2.221 Y-10.808
G1 F2400 X2.222 Y10.81 E724.11424
G0 F18000 X1.111 Y10.81
G1 F2400 X1.11 Y-10.808 E724.56362
G0 F18000 X0 Y-10.809
G1 F2400 X0 Y10.809 E725.01301
G0 F18000 X-1.11 Y10.809
G1 F2400 X-1.111 Y-10.809 E725.46239
G0 F18000 X-2.222 Y-10.809
G1 F2400 X-2.221 Y10.809 E725.91178
G0 F18000 X-3.332 Y10.809
G1 F2400 X-3.333 Y-10.809 E726.36117
G0 F18000 X-4.444 Y-10.809
G1 F2400 X-4.443 Y10.809 E726.81055
G0 F18000 X-5.554 Y10.809
G1 F2400 X-5.555 Y-10.809 E727.25994
G0 F18000 X-6.666 Y-10.809
G1 F2400 X-6.665 Y10.809 E727.70932
G0 F18000 X-7.776 Y10.809
G1 F2400 X-7.777 Y-10.808 E728.15869
G0 F18000 X-8.888 Y-10.808
G1 F2400 X-8.887 Y10.809 E728.60805
G0 F18000 X-9.998 Y10.809
G1 F2400 X-9.999 Y-10.808 E729.05742
G0 F18000 X-11.11 Y-10.808
G1 F2400 X-11.109 Y10.809 E729.50679
G0 F18000 X-12.22 Y10.809
G1 F2400 X-12.221 Y-10.808 E729.95615
G0 F18000 X-13.332 Y-10.808
G1 F2400 X-13.331 Y10.809 E730.40552
G0 F18000 X-14.442 Y10.809
G1 F2400 X-14.443 Y-10.808 E730.85488
G0 F18000 X-15.554 Y-10.808
G1 F2400 X-15.553 Y10.809 E731.30425
G0 F18000 X-16.665 Y10.809
G1 F2400 X-16.665 Y-10.808 E731.75361
G0 F18000 X-17.776 Y-10.808
G1 F2400 X-17.776 Y10.809 E732.20298
G0 F18000 X-18.887 Y10.809
G1 F2400 X-18.887 Y-10.808 E732.65234
G0 F18000 X-19.998 Y-10.808
G1 F2400 X-19.998 Y10.809 E733.10171
G0 F18000 X-21.109 Y10.809
G1 F2400 X-21.109 Y-10.808 E733.55107
G0 F18000 X-22.22 Y-10.808
G1 F2400 X-22.22 Y10.809 E734.00044
; Layer Change GCode
; LAYER:13
G0 F18000 X-24.304 Y11.351 Z1.6
G0 X-24.692 Y11.452
G0 X-24.488 Y11.4
G0 X-24.488 Y11.4
G0 X-24.748 Y11.75
G0 X-24.748 Y11.75
G0 X-24.248 Y11.25
; TYPE:WALL-INNER
G1 F2400 X-24.248 Y11.25 E734.00044
G1 X-24.248 Y-11.249 E734.46814
G1 X24.25 Y-11.249 E735.47629
G1 X24.25 Y11.25 E735.94399
G1 X-24.248 Y11.25 E736.95215
G0 F18000 X-24.748 Y11.75
; TYPE:WALL-OUTER
G1 F2100 X-24.748 Y11.75 E736.95215
G1 X-24.748 Y-11.749 E737.44064
G1 X24.75 Y-11.749 E738.46958
G1 X24.75 Y11.75 E738.95807
G1 X-24.748 Y11.75 E739.98701
G0 F18000 X-24.488 Y11.4
G0 X-23.331 Y10.809
G0 X-23.331 Y10.809
; TYPE:FILL
G1 F2400 X-23.331 Y-10.808 E740.43638
G0 F18000 X-23.808 Y-9.998
G1 F2400 X23.81 Y-9.999 E741.42624
G0 F18000 X23.331 Y-10.808
G1 F2400 X23.331 Y10.809 E741.87561
G0 F18000 X23.81 Y9.998
G1 F2400 X-23.808 Y9.999 E742.86547
G0 F18000 X-23.808 Y8.888
G1 F2400 X23.81 Y8.887 E743.85533
G0 F18000 X23.81 Y7.776
G1 F2400 X-23.808 Y7.777 E744.8452
G0 F18000 X-23.808 Y6.666
G1 F2400 X23.81 Y6.665 E745.83506
G0 F18000 X23.81 Y5.554
G1 F2400 X-23.808 Y5.555 E746.82492
G0 F18000 X-23.808 Y4.444
G1 F2400 X23.81 Y4.443 E747.81479
G0 F18000 X23.81 Y3.332
G1 F2400 X-23.808 Y3.333 E748.80465
G0 F18000 X-23.808 Y2.222
G1 F2400 X23.81 Y2.221 E749.79451
G0 F18000 X23.81 Y1.11
G1 F2400 X-23.808 Y1.111 E750.78437
G0 F18000 X-23.808 Y0
G1 F2400 X23.81 Y0 E751.77424
G0 F18000 X23.81 Y-1.111
G1 F2400 X-23.808 Y-1.11 E752.7641
G0 F18000 X-23.808 Y-2.221
G1 F2400 X23.81 Y-2.222 E753.75396
G0 F18000 X23.81 Y-3.333
G1 F2400 X-23.808 Y-3.332 E754.74383
G0 F18000 X-23.808 Y-4.443
G1 F2400 X23.81 Y-4.444 E755.73369
G0 F18000 X23.81 Y-5.555
G1 F2400 X-23.808 Y-5.554 E756.72355
G0 F18000 X-23.808 Y-6.665
G1 F2400 X23.81 Y-6.666 E757.71342
G0 F18000 X23.81 Y-7.777
G1 F2400 X-23.808 Y-7.776 E758.70328
G0 F18000 X-23.808 Y-8.887
G1 F2400 X23.81 Y-8.888 E759.69314
G0 F18000 X22.22 Y-10.808
G0 X22.22 Y-10.808
G1 F2400 X22.22 Y10.809 E760.14251
G0 F18000 X21.109 Y10.809
G1 F2400 X21.109 Y-10.808 E760.59187
G0 F18000 X19.998 Y-10.808
G1 F2400 X19.998 Y10.809 E761.04124
G0 F18000 X18.887 Y10.809
G1 F2400 X18.887 Y-10.808 E761.4906
G0 F18000 X17.776 Y-10.808
G1 F2400 X17.776 Y10.809 E761.93997
G0 F18000 X16.665 Y10.809
G1 F2400 X16.665 Y-10.808 E762.38933
G0 F18000 X15.553 Y-10.808
G1 F2400 X15.554 Y10.809 E762.8387
G0 F18000 X14.443 Y10.809
G1 F2400 X14.442 Y-10.808 E763.28807
G0 F18000 X13.331 Y-10.808
G1 F2400 X13.332 Y10.809 E763.73743
G0 F18000 X12.221 Y10.809
G1 F2400 X12.22 Y-10.808 E764.1868
G0 F18000 X11.109 Y-10.808
G1 F2400 X11.11 Y10.809 E764.63616
G0 F18000 X9.999 Y10.809
G1 F2400 X9.998 Y-10.808 E765.08553
G0 F18000 X8.887 Y-10.808
G1 F2400 X8.888 Y10.809 E765.53489
G0 F18000 X7.777 Y10.809
G1 F2400 X7.776 Y-10.808 E765.98426
G0 F18000 X6.665 Y-10.808
G1 F2400 X6.666 Y10.81 E766.43364
G0 F18000 X5.555 Y10.81
G1 F2400 X5.554 Y-10.808 E766.88303
G0 F18000 X4.443 Y-10.808
G1 F2400 X4.444 Y10.81 E767.33241
G0 F18000 X3.333 Y10.81
G1 F2400 X3.332 Y-10.808 E767.7818
G0 F18000 X2.221 Y-10.808
G1 F2400 X2.222 Y10.81 E768.23119
G0 F18000 X1.111 Y10.81
G1 F2400 X1.11 Y-10.808 E768.68057
G0 F18000 X0 Y-10.809
G1 F2400 X0 Y10.809 E769.12996
G0 F18000 X-1.11 Y10.809
G1 F2400 X-1.111 Y-10.809 E769.57934
G0 F18000 X-2.222 Y-10.809
G1 F2400 X-2.221 Y10.809 E770.02873
G0 F18000 X-3.332 Y10.809
G1 F2400 X-3.333 Y-10.809 E770.47812
G0 F18000 X-4.444 Y-10.809
G1 F2400 X-4.443 Y10.809 E770.9275
G0 F18000 X-5.554 Y10.809
G1 F2400 X-5.555 Y-10.809 E771.37689
G0 F18000 X-6.666 Y-10.809
G1 F2400 X-6.665 Y10.809 E771.82627
G0 F18000 X-7.776 Y10.809
G1 F2400 X-7.777 Y-10.808 E772.27564
G0 F18000 X-8.888 Y-10.808
G1 F2400 X-8.887 Y10.809 E772.725
G0 F18000 X-9.998 Y10.809
G1 F2400 X-9.999 Y-10.808 E773.17437
G0 F18000 X-11.11 Y-10.808
G1 F2400 X-11.109 Y10.809 E773.62374
G0 F18000 X-12.22 Y10.809
G1 F2400 X-12.221 Y-10.808 E774.0731
G0 F18000 X-13.332 Y-10.808
G1 F2400 X-13.331 Y10.809 E774.52247
G0 F18000 X-14.442 Y10.809
G1 F2400 X-14.443 Y-10.808 E774.97183
G0 F18000 X-15.554 Y-10.808
G1 F2400 X-15.553 Y10.809 E775.4212
G0 F18000 X-16.665 Y10.809
G1 F2400 X-16.665 Y-10.808 E775.87056
G0 F18000 X-17.776 Y-10.808
G1 F2400 X-17.776 Y10.809 E776.31993
G0 F18000 X-18.887 Y10.809
G1 F2400 X-18.887 Y-10.808 E776.76929
G0 F18000 X-19.998 Y-10.808
G1 F2400 X-19.998 Y10.809 E777.21866
G0 F18000 X-21.109 Y10.809
G1 F2400 X-21.109 Y-10.808 E777.66802
G0 F18000 X-22.22 Y-10.808
G1 F2400 X-22.22 Y10.809 E778.11739
; Layer Change GCode
; LAYER:14
G0 F18000 X-24.304 Y11.351 Z1.7
G0 X-24.692 Y11.452
G0 X-24.488 Y11.4
G0 X-24.488 Y11.4
G0 X-24.748 Y11.75
G0 X-24.748 Y11.75
G0 X-24.248 Y11.25
; TYPE:WALL-INNER
G1 F2400 X-24.248 Y11.25 E778.11739
G1 X-24.248 Y-11.249 E778.58509
G1 X24.25 Y-11.249 E779.59324
G1 X24.25 Y11.25 E780.06094
G1 X-24.248 Y11.25 E781.0691
G0 F18000 X-24.748 Y11.75
; TYPE:WALL-OUTER
G1 F2100 X-24.748 Y11.75 E781.0691
G1 X-24.748 Y-11.749 E781.55759
G1 X24.75 Y-11.749 E782.58653
G1 X24.75 Y11.75 E783.07502
G1 X-24.748 Y11.75 E784.10396
G0 F18000 X-24.488 Y11.4
G0 X-23.331 Y10.809
G0 X-23.331 Y10.809
; TYPE:FILL
G1 F2400 X-23.331 Y-10.808 E784.55333
G0 F18000 X-23.808 Y-9.998
G1 F2400 X23.81 Y-9.999 E785.54319
G0 F18000 X23.331 Y-10.808
G1 F2400 X23.331 Y10.809 E785.99256
G0 F18000 X23.81 Y9.998
G1 F2400 X-23.808 Y9.999 E786.98242
G0 F18000 X-23.808 Y8.888
G1 F2400 X23.81 Y8.887 E787.97228
G0 F18000 X23.81 Y7.776
G1 F2400 X-23.808 Y7.777 E788.96215
G0 F18000 X-23.808 Y6.666
G1 F2400 X23.81 Y6.665 E789.95201
G0 F18000 X23.81 Y5.554
G1 F2400 X-23.808 Y5.555 E790.94187
G0 F18000 X-23.808 Y4.444
G1 F2400 X23.81 Y4.443 E791.93174
G0 F18000 X23.81 Y3.332
G1 F2400 X-23.808 Y3.333 E792.9216
G0 F18000 X-23.808 Y2.222
G1 F2400 X23.81 Y2.221 E793.91146
G0 F18000 X23.81 Y1.11
G1 F2400 X-23.808 Y1.111 E794.90132
G0 F18000 X-23.808 Y0
G1 F2400 X23.81 Y0 E795.89119
G0 F18000 X23.81 Y-1.111
G1 F2400 X-23.808 Y-1.11 E796.88105
G0 F18000 X-23.808 Y-2.221
G1 F2400 X23.81 Y-2.222 E797.87091
G0 F18000 X23.81 Y-3.333
G1 F2400 X-23.808 Y-3.332 E798.86078
G0 F18000 X-23.808 Y-4.443
G1 F2400 X23.81 Y-4.444 E799.85064
G0 F18000 X23.81 Y-5.555
G1 F2400 X-23.808 Y-5.554 E800.8405
G0 F18000 X-23.808 Y-6.665
G1 F2400 X23.81 Y-6.666 E801.83037
G0 F18000 X23.81 Y-7.777
G1 F2400 X-23.808 Y-7.776 E802.82023
G0 F18000 X-23.808 Y-8.887
G1 F2400 X23.81 Y-8.888 E803.81009
G0 F18000 X22.22 Y-10.808
G0 X22.22 Y-10.808
G1 F2400 X22.22 Y10.809 E804.25946
G0 F18000 X21.109 Y10.809
G1 F2400 X21.109 Y-10.808 E804.70882
G0 F18000 X19.998 Y-10.808
G1 F2400 X19.998 Y10.809 E805.15819
G0 F18000 X18.887 Y10.809
G1 F2400 X18.887 Y-10.808 E805.60755
G0 F18000 X17.776 Y-10.808
G1 F2400 X17.776 Y10.809 E806.05692
G0 F18000 X16.665 Y10.809
G1 F2400 X16.665 Y-10.808 E806.50628
G0 F18000 X15.553 Y-10.808
G1 F2400 X15.554 Y10.809 E806.95565
G0 F18000 X14.443 Y10.809
G1 F2400 X14.442 Y-10.808 E807.40502
G0 F18000 X13.331 Y-10.808
G1 F2400 X13.332 Y10.809 E807.85438
G0 F18000 X12.221 Y10.809
G1 F2400 X12.22 Y-10.808 E808.30375
G0 F18000 X11.109 Y-10.808
G1 F2400 X11.11 Y10.809 E808.75311
G0 F18000 X9.999 Y10.809
G1 F2400 X9.998 Y-10.808 E809.20248
G0 F18000 X8.887 Y-10.808
G1 F2400 X8.888 Y10.809 E809.65184
G0 F18000 X7.777 Y10.809
G1 F2400 X7.776 Y-10.808 E810.10121
G0 F18000 X6.665 Y-10.808
G1 F2400 X6.666 Y10.81 E810.55059
G0 F18000 X5.555 Y10.81
G1 F2400 X5.554 Y-10.808 E810.99998
G0 F18000 X4.443 Y-10.808
G1 F2400 X4.444 Y10.81 E811.44936
G0 F18000 X3.333 Y10.81
G1 F2400 X3.332 Y-10.808 E811.89875
G0 F18000 X2.221 Y-10.808
G1 F2400 X2.222 Y10.81 E812.34814
G0 F18000 X1.111 Y10.81
G1 F2400 X1.11 Y-10.808 E812.79752
G0 F18000 X0 Y-10.809
G1 F2400 X0 Y10.809 E813.24691
G0 F18000 X-1.11 Y10.809
G1 F2400 X-1.111 Y-10.809 E813.69629
G0 F18000 X-2.222 Y-10.809
G1 F2400 X-2.221 Y10.809 E814.14568
G0 F18000 X-3.332 Y10.809
G1 F2400 X-3.333 Y-10.809 E814.59507
G0 F18000 X-4.444 Y-10.809
G1 F2400 X-4.443 Y10.809 E815.04445
G0 F18000 X-5.554 Y10.809
G1 F2400 X-5.555 Y-10.809 E815.49384
G0 F18000 X-6.666 Y-10.809
G1 F2400 X-6.665 Y10.809 E815.94322
G0 F18000 X-7.776 Y10.809
G1 F2400 X-7.777 Y-10.808 E816.39259
G0 F18000 X-8.888 Y-10.808
G1 F2400 X-8.887 Y10.809 E816.84195
G0 F18000 X-9.998 Y10.809
G1 F2400 X-9.999 Y-10.808 E817.29132
G0 F18000 X-11.11 Y-10.808
G1 F2400 X-11.109 Y10.809 E817.74069
G0 F18000 X-12.22 Y10.809
G1 F2400 X-12.221 Y-10.808 E818.19005
G0 F18000 X-13.332 Y-10.808
G1 F2400 X-13.331 Y10.809 E818.63942
G0 F18000 X-14.442 Y10.809
G1 F2400 X-14.443 Y-10.808 E819.08878
G0 F18000 X-15.554 Y-10.808
G1 F2400 X-15.553 Y10.809 E819.53815
G0 F18000 X-16.665 Y10.809
G1 F2400 X-16.665 Y-10.808 E819.98751
G0 F18000 X-17.776 Y-10.808
G1 F2400 X-17.776 Y10.809 E820.43688
G0 F18000 X-18.887 Y10.809
G1 F2400 X-18.887 Y-10.808 E820.88624
G0 F18000 X-19.998 Y-10.808
G1 F2400 X-19.998 Y10.809 E821.33561
G0 F18000 X-21.109 Y10.809
G1 F2400 X-21.109 Y-10.808 E821.78497
G0 F18000 X-22.22 Y-10.808
G1 F2400 X-22.22 Y10.809 E822.23434
; Layer Change GCode
; LAYER:15
G0 F18000 X-24.304 Y11.351 Z1.8
G0 X-24.692 Y11.452
G0 X-24.488 Y11.4
G0 X-24.488 Y11.4
G0 X-24.748 Y11.75
G0 X-24.748 Y11.75
G0 X-24.248 Y11.25
; TYPE:WALL-INNER
G1 F2400 X-24.248 Y11.25 E822.23434
G1 X-24.248 Y-11.249 E822.70204
G1 X24.25 Y-11.249 E823.71019
G1 X24.25 Y11.25 E824.17789
G1 X-24.248 Y11.25 E825.18605
G0 F18000 X-24.748 Y11.75
; TYPE:WALL-OUTER
G1 F2100 X-24.748 Y11.75 E825.18605
G1 X-24.748 Y-11.749 E825.67454
G1 X24.75 Y-11.749 E826.70348
G1 X24.75 Y11.75 E827.19197
G1 X-24.748 Y11.75 E828.22091
G0 F18000 X-24.488 Y11.4
G0 X-23.331 Y10.809
G0 X-23.331 Y10.809
; TYPE:FILL
G1 F2400 X-23.331 Y-10.808 E828.67028
G0 F18000 X-23.808 Y-9.998
G1 F2400 X23.81 Y-9.999 E829.66014
G0 F18000 X23.331 Y-10.808
G1 F2400 X23.331 Y10.809 E830.10951
G0 F18000 X23.81 Y9.998
G1 F2400 X-23.808 Y9.999 E831.09937
G0 F18000 X-23.808 Y8.888
G1 F2400 X23.81 Y8.887 E832.08923
G0 F18000 X23.81 Y7.776
G1 F2400 X-23.808 Y7.777 E833.0791
G0 F18000 X-23.808 Y6.666
G1 F2400 X23.81 Y6.665 E834.06896
G0 F18000 X23.81 Y5.554
G1 F2400 X-23.808 Y5.555 E835.05882
G0 F18000 X-23.808 Y4.444
G1 F2400 X23.81 Y4.443 E836.04868
G0 F18000 X23.81 Y3.332
G1 F2400 X-23.808 Y3.333 E837.03855
G0 F18000 X-23.808 Y2.222
G1 F2400 X23.81 Y2.221 E838.02841
G0 F18000 X23.81 Y1.11
G1 F2400 X-23.808 Y1.111 E839.01827
G0 F18000 X-23.808 Y0
G1 F2400 X23.81 Y0 E840.00814
G0 F18000 X23.81 Y-1.111
G1 F2400 X-23.808 Y-1.11 E840.998
G0 F18000 X-23.808 Y-2.221
G1 F2400 X23.81 Y-2.222 E841.98786
G0 F18000 X23.81 Y-3.333
G1 F2400 X-23.808 Y-3.332 E842.97773
G0 F18000 X-23.808 Y-4.443
G1 F2400 X23.81 Y-4.444 E843.96759
G0 F18000 X23.81 Y-5.555
G1 F2400 X-23.808 Y-5.554 E844.95745
G0 F18000 X-23.808 Y-6.665
G1 F2400 X23.81 Y-6.666 E845.94732
G0 F18000 X23.81 Y-7.777
G1 F2400 X-23.808 Y-7.776 E846.93718
G0 F18000 X-23.808 Y-8.887
G1 F2400 X23.81 Y-8.888 E847.92704
G0 F18000 X22.22 Y-10.808
G0 X22.22 Y-10.808
G1 F2400 X22.22 Y10.809 E848.37641
G0 F18000 X21.109 Y10.809
G1 F2400 X21.109 Y-10.808 E848.82577
G0 F18000 X19.998 Y-10.808
G1 F2400 X19.998 Y10.809 E849.27514
G0 F18000 X18.887 Y10.809
G1 F2400 X18.887 Y-10.808 E849.7245
G0 F18000 X17.776 Y-10.808
G1 F2400 X17.776 Y10.809 E850.17387
G0 F18000 X16.665 Y10.809
G1 F2400 X16.665 Y-10.808 E850.62323
G0 F18000 X15.553 Y-10.808
G1 F2400 X15.554 Y10.809 E851.0726
G0 F18000 X14.443 Y10.809
G1 F2400 X14.442 Y-10.808 E851.52197
G0 F18000 X13.331 Y-10.808
G1 F2400 X13.332 Y10.809 E851.97133
G0 F18000 X12.221 Y10.809
G1 F2400 X12.22 Y-10.808 E852.4207
G0 F18000 X11.109 Y-10.808
G1 F2400 X11.11 Y10.809 E852.87006
G0 F18000 X9.999 Y10.809
G1 F2400 X9.998 Y-10.808 E853.31943
G0 F18000 X8.887 Y-10.808
G1 F2400 X8.888 Y10.809 E853.76879
G0 F18000 X7.777 Y10.809
G1 F2400 X7.776 Y-10.808 E854.21816
G0 F18000 X6.665 Y-10.808
G1 F2400 X6.666 Y10.81 E854.66754
G0 F18000 X5.555 Y10.81
G1 F2400 X5.554 Y-10.808 E855.11693
G0 F18000 X4.443 Y-10.808
G1 F2400 X4.444 Y10.81 E855.56631
G0 F18000 X3.333 Y10.81
G1 F2400 X3.332 Y-10.808 E856.0157
G0 F18000 X2.221 Y-10.808
G1 F2400 X2.222 Y10.81 E856.46509
G0 F18000 X1.111 Y10.81
G1 F2400 X1.11 Y-10.808 E856.91447
G0 F18000 X0 Y-10.809
G1 F2400 X0 Y10.809 E857.36386
G0 F18000 X-1.11 Y10.809
G1 F2400 X-1.111 Y-10.809 E857.81324
G0 F18000 X-2.222 Y-10.809
G1 F2400 X-2.221 Y10.809 E858.26263
G0 F18000 X-3.332 Y10.809
G1 F2400 X-3.333 Y-10.809 E858.71202
G0 F18000 X-4.444 Y-10.809
G1 F2400 X-4.443 Y10.809 E859.1614
G0 F18000 X-5.554 Y10.809
G1 F2400 X-5.555 Y-10.809 E859.61079
G0 F18000 X-6.666 Y-10.809
G1 F2400 X-6.665 Y10.809 E860.06017
G0 F18000 X-7.776 Y10.809
G1 F2400 X-7.777 Y-10.808 E860.50954
G0 F18000 X-8.888 Y-10.808
G1 F2400 X-8.887 Y10.809 E860.9589
G0 F18000 X-9.998 Y10.809
G1 F2400 X-9.999 Y-10.808 E861.40827
G0 F18000 X-11.11 Y-10.808
G1 F2400 X-11.109 Y10.809 E861.85764
G0 F18000 X-12.22 Y10.809
G1 F2400 X-12.221 Y-10.808 E862.307
G0 F18000 X-13.332 Y-10.808
G1 F2400 X-13.331 Y10.809 E862.75637
G0 F18000 X-14.442 Y10.809
G1 F2400 X-14.443 Y-10.808 E863.20573
G0 F18000 X-15.554 Y-10.808
G1 F2400 X-15.553 Y10.809 E863.6551
G0 F18000 X-16.665 Y10.809
G1 F2400 X-16.665 Y-10.808 E864.10446
G0 F18000 X-17.776 Y-10.808
G1 F2400 X-17.776 Y10.809 E864.55383
G0 F18000 X-18.887 Y10.809
G1 F2400 X-18.887 Y-10.808 E865.00319
G0 F18000 X-19.998 Y-10.808
G1 F2400 X-19.998 Y10.809 E865.45256
G0 F18000 X-21.109 Y10.809
G1 F2400 X-21.109 Y-10.808 E865.90192
G0 F18000 X-22.22 Y-10.808
G1 F2400 X-22.22 Y10.809 E866.35129
; Layer Change GCode
; LAYER:16
G0 F18000 X-24.304 Y11.351 Z1.9
G0 X-24.692 Y11.452
G0 X-24.488 Y11.4
G0 X-24.488 Y11.4
G0 X-24.748 Y11.75
G0 X-24.748 Y11.75
G0 X-24.248 Y11.25
; TYPE:WALL-INNER
G1 F2400 X-24.248 Y11.25 E866.35129
G1 X-24.248 Y-11.249 E866.81899
G1 X24.25 Y-11.249 E867.82714
G1 X24.25 Y11.25 E868.29484
G1 X-24.248 Y11.25 E869.303
G0 F18000 X-24.748 Y11.75
; TYPE:WALL-OUTER
G1 F2100 X-24.748 Y11.75 E869.303
G1 X-24.748 Y-11.749 E869.79149
G1 X24.75 Y-11.749 E870.82043
G1 X24.75 Y11.75 E871.30892
G1 X-24.748 Y11.75 E872.33786
G0 F18000 X-24.488 Y11.4
G0 X-23.331 Y10.809
G0 X-23.331 Y10.809
; TYPE:FILL
G1 F2400 X-23.331 Y-10.808 E872.78723
G0 F18000 X-23.808 Y-9.998
G1 F2400 X23.81 Y-9.999 E873.77709
G0 F18000 X23.331 Y-10.808
G1 F2400 X23.331 Y10.809 E874.22646
G0 F18000 X23.81 Y9.998
G1 F2400 X-23.808 Y9.999 E875.21632
G0 F18000 X-23.808 Y8.888
G1 F2400 X23.81 Y8.887 E876.20618
G0 F18000 X23.81 Y7.776
G1 F2400 X-23.808 Y7.777 E877.19605
G0 F18000 X-23.808 Y6.666
G1 F2400 X23.81 Y6.665 E878.18591
G0 F18000 X23.81 Y5.554
G1 F2400 X-23.808 Y5.555 E879.17577
G0 F18000 X-23.808 Y4.444
G1 F2400 X23.81 Y4.443 E880.16563
G0 F18000 X23.81 Y3.332
G1 F2400 X-23.808 Y3.333 E881.1555
G0 F18000 X-23.808 Y2.222
G1 F2400 X23.81 Y2.221 E882.14536
G0 F18000 X23.81 Y1.11
G1 F2400 X-23.808 Y1.111 E883.13522
G0 F18000 X-23.808 Y0
G1 F2400 X23.81 Y0 E884.12509
G0 F18000 X23.81 Y-1.111
G1 F2400 X-23.808 Y-1.11 E885.11495
G0 F18000 X-23.808 Y-2.221
G1 F2400 X23.81 Y-2.222 E886.10481
G0 F18000 X23.81 Y-3.333
G1 F2400 X-23.808 Y-3.332 E887.09468
G0 F18000 X-23.808 Y-4.443
G1 F2400 X23.81 Y-4.444 E888.08454
G0 F18000 X23.81 Y-5.555
G1 F2400 X-23.808 Y-5.554 E889.0744
G0 F18000 X-23.808 Y-6.665
G1 F2400 X23.81 Y-6.666 E890.06427
G0 F18000 X23.81 Y-7.777
G1 F2400 X-23.808 Y-7.776 E891.05413
G0 F18000 X-23.808 Y-8.887
G1 F2400 X23.81 Y-8.888 E892.04399
G0 F18000 X22.22 Y-10.808
G0 X22.22 Y-10.808
G1 F2400 X22.22 Y10.809 E892.49336
G0 F18000 X21.109 Y10.809
G1 F2400 X21.109 Y-10.808 E892.94272
G0 F18000 X19.998 Y-10.808
G1 F2400 X19.998 Y10.809 E893.39209
G0 F18000 X18.887 Y10.809
G1 F2400 X18.887 Y-10.808 E893.84145
G0 F18000 X17.776 Y-10.808
G1 F2400 X17.776 Y10.809 E894.29082
G0 F18000 X16.665 Y10.809
G1 F2400 X16.665 Y-10.808 E894.74018
G0 F18000 X15.553 Y-10.808
G1 F2400 X15.554 Y10.809 E895.18955
G0 F18000 X14.443 Y10.809
G1 F2400 X14.442 Y-10.808 E895.63891
G0 F18000 X13.331 Y-10.808
G1 F2400 X13.332 Y10.809 E896.08828
G0 F18000 X12.221 Y10.809
G1 F2400 X12.22 Y-10.808 E896.53765
G0 F18000 X11.109 Y-10.808
G1 F2400 X11.11 Y10.809 E896.98701
G0 F18000 X9.999 Y10.809
G1 F2400 X9.998 Y-10.808 E897.43638
G0 F18000 X8.887 Y-10.808
G1 F2400 X8.888 Y10.809 E897.88574
G0 F18000 X7.777 Y10.809
G1 F2400 X7.776 Y-10.808 E898.33511
G0 F18000 X6.665 Y-10.808
G1 F2400 X6.666 Y10.81 E898.78449
G0 F18000 X5.555 Y10.81
G1 F2400 X5.554 Y-10.808 E899.23388
G0 F18000 X4.443 Y-10.808
G1 F2400 X4.444 Y10.81 E899.68326
G0 F18000 X3.333 Y10.81
G1 F2400 X3.332 Y-10.808 E900.13265
G0 F18000 X2.221 Y-10.808
G1 F2400 X2.222 Y10.81 E900.58204
G0 F18000 X1.111 Y10.81
G1 F2400 X1.11 Y-10.808 E901.03142
G0 F18000 X0 Y-10.809
G1 F2400 X0 Y10.809 E901.48081
G0 F18000 X-1.11 Y10.809
G1 F2400 X-1.111 Y-10.809 E901.93019
G0 F18000 X-2.222 Y-10.809
G1 F2400 X-2.221 Y10.809 E902.37958
G0 F18000 X-3.332 Y10.809
G1 F2400 X-3.333 Y-10.809 E902.82897
G0 F18000 X-4.444 Y-10.809
G1 F2400 X-4.443 Y10.809 E903.27835
G0 F18000 X-5.554 Y10.809
G1 F2400 X-5.555 Y-10.809 E903.72774
G0 F18000 X-6.666 Y-10.809
G1 F2400 X-6.665 Y10.809 E904.17712
G0 F18000 X-7.776 Y10.809
G1 F2400 X-7.777 Y-10.808 E904.62649
G0 F18000 X-8.888 Y-10.808
G1 F2400 X-8.887 Y10.809 E905.07585
G0 F18000 X-9.998 Y10.809
G1 F2400 X-9.999 Y-10.808 E905.52522
G0 F18000 X-11.11 Y-10.808
G1 F2400 X-11.109 Y10.809 E905.97459
G0 F18000 X-12.22 Y10.809
G1 F2400 X-12.221 Y-10.808 E906.42395
G0 F18000 X-13.332 Y-10.808
G1 F2400 X-13.331 Y10.809 E906.87332
G0 F18000 X-14.442 Y10.809
G1 F2400 X-14.443 Y-10.808 E907.32268
G0 F18000 X-15.554 Y-10.808
G1 F2400 X-15.553 Y10.809 E907.77205
G0 F18000 X-16.665 Y10.809
G1 F2400 X-16.665 Y-10.808 E908.22141
G0 F18000 X-17.776 Y-10.808
G1 F2400 X-17.776 Y10.809 E908.67078
G0 F18000 X-18.887 Y10.809
G1 F2400 X-18.887 Y-10.808 E909.12014
G0 F18000 X-19.998 Y-10.808
G1 F2400 X-19.998 Y10.809 E909.56951
G0 F18000 X-21.109 Y10.809
G1 F2400 X-21.109 Y-10.808 E910.01887
G0 F18000 X-22.22 Y-10.808
G1 F2400 X-22.22 Y10.809 E910.46824
; Layer Change GCode
; LAYER:17
G0 F18000 X-24.304 Y11.351 Z2
G0 X-24.692 Y11.452
G0 X-24.488 Y11.4
G0 X-24.488 Y11.4
G0 X-24.748 Y11.75
G0 X-24.748 Y11.75
G0 X-24.248 Y11.25
; TYPE:WALL-INNER
G1 F2400 X-24.248 Y11.25 E910.46824
G1 X-24.248 Y-11.249 E910.93594
G1 X24.25 Y-11.249 E911.94409
G1 X24.25 Y11.25 E912.41179
G1 X-24.248 Y11.25 E913.41995
G0 F18000 X-24.748 Y11.75
; TYPE:WALL-OUTER
G1 F2100 X-24.748 Y11.75 E913.41995
G1 X-24.748 Y-11.749 E913.90844
G1 X24.75 Y-11.749 E914.93738
G1 X24.75 Y11.75 E915.42587
G1 X-24.748 Y11.75 E916.45481
G0 F18000 X-24.488 Y11.4
G0 X-23.331 Y10.809
G0 X-23.331 Y10.809
; TYPE:FILL
G1 F2400 X-23.331 Y-10.808 E916.90418
G0 F18000 X-23.808 Y-9.998
G1 F2400 X23.81 Y-9.999 E917.89404
G0 F18000 X23.331 Y-10.808
G1 F2400 X23.331 Y10.809 E918.34341
G0 F18000 X23.81 Y9.998
G1 F2400 X-23.808 Y9.999 E919.33327
G0 F18000 X-23.808 Y8.888
G1 F2400 X23.81 Y8.887 E920.32313
G0 F18000 X23.81 Y7.776
G1 F2400 X-23.808 Y7.777 E921.313
G0 F18000 X-23.808 Y6.666
G1 F2400 X23.81 Y6.665 E922.30286
G0 F18000 X23.81 Y5.554
G1 F2400 X-23.808 Y5.555 E923.29272
G0 F18000 X-23.808 Y4.444
G1 F2400 X23.81 Y4.443 E924.28258
G0 F18000 X23.81 Y3.332
G1 F2400 X-23.808 Y3.333 E925.27245
G0 F18000 X-23.808 Y2.222
G1 F2400 X23.81 Y2.221 E926.26231
G0 F18000 X23.81 Y1.11
G1 F2400 X-23.808 Y1.111 E927.25217
G0 F18000 X-23.808 Y0
G1 F2400 X23.81 Y0 E928.24204
G0 F18000 X23.81 Y-1.111
G1 F2400 X-23.808 Y-1.11 E929.2319
G0 F18000 X-23.808 Y-2.221
G1 F2400 X23.81 Y-2.222 E930.22176
G0 F18000 X23.81 Y-3.333
G1 F2400 X-23.808 Y-3.332 E931.21163
G0 F18000 X-23.808 Y-4.443
G1 F2400 X23.81 Y-4.444 E932.20149
G0 F18000 X23.81 Y-5.555
G1 F2400 X-23.808 Y-5.554 E933.19135
G0 F18000 X-23.808 Y-6.665
G1 F2400 X23.81 Y-6.666 E934.18122
G0 F18000 X23.81 Y-7.777
G1 F2400 X-23.808 Y-7.776 E935.17108
G0 F18000 X-23.808 Y-8.887
G1 F2400 X23.81 Y-8.888 E936.16094
G0 F18000 X22.22 Y-10.808
G0 X22.22 Y-10.808
G1 F2400 X22.22 Y10.809 E936.61031
G0 F18000 X21.109 Y10.809
G1 F2400 X21.109 Y-10.808 E937.05967
G0 F18000 X19.998 Y-10.808
G1 F2400 X19.998 Y10.809 E937.50904
G0 F18000 X18.887 Y10.809
G1 F2400 X18.887 Y-10.808 E937.9584
G0 F18000 X17.776 Y-10.808
G1 F2400 X17.776 Y10.809 E938.40777
G0 F18000 X16.665 Y10.809
G1 F2400 X16.665 Y-10.808 E938.85713
G0 F18000 X15.553 Y-10.808
G1 F2400 X15.554 Y10.809 E939.3065
G0 F18000 X14.443 Y10.809
G1 F2400 X14.442 Y-10.808 E939.75586
G0 F18000 X13.331 Y-10.808
G1 F2400 X13.332 Y10.809 E940.20523
G0 F18000 X12.221 Y10.809
G1 F2400 X12.22 Y-10.808 E940.6546
G0 F18000 X11.109 Y-10.808
G1 F2400 X11.11 Y10.809 E941.10396
G0 F18000 X9.999 Y10.809
G1 F2400 X9.998 Y-10.808 E941.55333
G0 F18000 X8.887 Y-10.808
G1 F2400 X8.888 Y10.809 E942.00269
G0 F18000 X7.777 Y10.809
G1 F2400 X7.776 Y-10.808 E942.45206
G0 F18000 X6.665 Y-10.808
G1 F2400 X6.666 Y10.81 E942.90144
G0 F18000 X5.555 Y10.81
G1 F2400 X5.554 Y-10.808 E943.35083
G0 F18000 X4.443 Y-10.808
G1 F2400 X4.444 Y10.81 E943.80021
G0 F18000 X3.333 Y10.81
G1 F2400 X3.332 Y-10.808 E944.2496
G0 F18000 X2.221 Y-10.808
G1 F2400 X2.222 Y10.81 E944.69899
G0 F18000 X1.111 Y10.81
G1 F2400 X1.11 Y-10.808 E945.14837
G0 F18000 X0 Y-10.809
G1 F2400 X0 Y10.809 E945.59776
G0 F18000 X-1.11 Y10.809
G1 F2400 X-1.111 Y-10.809 E946.04714
G0 F18000 X-2.222 Y-10.809
G1 F2400 X-2.221 Y10.809 E946.49653
G0 F18000 X-3.332 Y10.809
G1 F2400 X-3.333 Y-10.809 E946.94592
G0 F18000 X-4.444 Y-10.809
G1 F2400 X-4.443 Y10.809 E947.3953
G0 F18000 X-5.554 Y10.809
G1 F2400 X-5.555 Y-10.809 E947.84469
G0 F18000 X-6.666 Y-10.809
G1 F2400 X-6.665 Y10.809 E948.29407
G0 F18000 X-7.776 Y10.809
G1 F2400 X-7.777 Y-10.808 E948.74344
G0 F18000 X-8.888 Y-10.808
G1 F2400 X-8.887 Y10.809 E949.1928
G0 F18000 X-9.998 Y10.809
G1 F2400 X-9.999 Y-10.808 E949.64217
G0 F18000 X-11.11 Y-10.808
G1 F2400 X-11.109 Y10.809 E950.09153
G0 F18000 X-12.22 Y10.809
G1 F2400 X-12.221 Y-10.808 E950.5409
G0 F18000 X-13.332 Y-10.808
G1 F2400 X-13.331 Y10.809 E950.99027
G0 F18000 X-14.442 Y10.809
G1 F2400 X-14.443 Y-10.808 E951.43963
G0 F18000 X-15.554 Y-10.808
G1 F2400 X-15.553 Y10.809 E951.889
G0 F18000 X-16.665 Y10.809
G1 F2400 X-16.665 Y-10.808 E952.33836
G0 F18000 X-17.776 Y-10.808
G1 F2400 X-17.776 Y10.809 E952.78773
G0 F18000 X-18.887 Y10.809
G1 F2400 X-18.887 Y-10.808 E953.23709
G0 F18000 X-19.998 Y-10.808
G1 F2400 X-19.998 Y10.809 E953.68646
G0 F18000 X-21.109 Y10.809
G1 F2400 X-21.109 Y-10.808 E954.13582
G0 F18000 X-22.22 Y-10.808
G1 F2400 X-22.22 Y10.809 E954.58519
; Layer Change GCode
; LAYER:18
G0 F18000 X-24.304 Y11.351 Z2.1
G0 X-24.692 Y11.452
G0 X-24.488 Y11.4
G0 X-24.488 Y11.4
G0 X-24.748 Y11.75
G0 X-24.748 Y11.75
G0 X-24.248 Y11.25
; TYPE:WALL-INNER
G1 F2400 X-24.248 Y11.25 E954.58519
G1 X-24.248 Y-11.249 E955.05289
G1 X24.25 Y-11.249 E956.06104
G1 X24.25 Y11.25 E956.52874
G1 X-24.248 Y11.25 E957.5369
G0 F18000 X-24.748 Y11.75
; TYPE:WALL-OUTER
G1 F2100 X-24.748 Y11.75 E957.5369
G1 X-24.748 Y-11.749 E958.02539
G1 X24.75 Y-11.749 E959.05433
G1 X24.75 Y11.75 E959.54282
G1 X-24.748 Y11.75 E960.57176
G0 F18000 X-24.488 Y11.4
G0 X-23.808 Y10.5
G0 X-23.808 Y10.5
; TYPE:FILL
G1 F2400 X23.81 Y10.499 E961.56163
G0 F18000 X23.81 Y9.999
G1 F2400 X-23.808 Y10 E962.55149
G0 F18000 X-23.808 Y9.5
G1 F2400 X23.81 Y9.499 E963.54135
G0 F18000 X23.81 Y8.999
G1 F2400 X-23.808 Y9 E964.53121
G0 F18000 X-23.808 Y8.5
G1 F2400 X23.81 Y8.499 E965.52108
G0 F18000 X23.81 Y7.999
G1 F2400 X-23.808 Y8 E966.51094
G0 F18000 X-23.808 Y7.5
G1 F2400 X23.81 Y7.499 E967.5008
G0 F18000 X23.81 Y6.999
G1 F2400 X-23.808 Y7 E968.49067
G0 F18000 X-23.808 Y6.5
G1 F2400 X23.81 Y6.499 E969.48053
G0 F18000 X23.81 Y5.999
G1 F2400 X-23.808 Y6 E970.47039
G0 F18000 X-23.808 Y5.5
G1 F2400 X23.81 Y5.499 E971.46026
G0 F18000 X23.331 Y5.306
G1 F2400 X23.331 Y2.689 E971.51466
G0 F18000 X23.81 Y2.499
G1 F2400 X-23.808 Y2.5 E972.50452
G0 F18000 X-23.808 Y2
G1 F2400 X23.81 Y1.999 E973.49438
G0 F18000 X23.81 Y1.499
G1 F2400 X-23.808 Y1.5 E974.48425
G0 F18000 X-23.808 Y1
G1 F2400 X23.81 Y0.999 E975.47411
G0 F18000 X23.81 Y0.499
G1 F2400 X-23.808 Y0.5 E976.46397
G0 F18000 X-23.808 Y0
G1 F2400 X23.81 Y0 E977.45384
G0 F18000 X23.81 Y-0.5
G1 F2400 X-23.808 Y-0.499 E978.4437
G0 F18000 X-23.808 Y-0.999
G1 F2400 X23.81 Y-1 E979.43356
G0 F18000 X23.81 Y-1.5
G1 F2400 X-23.808 Y-1.499 E980.42343
G0 F18000 X-23.808 Y-1.999
G1 F2400 X23.81 Y-2 E981.41329
G0 F18000 X23.81 Y-2.5
G1 F2400 X-23.808 Y-2.499 E982.40315
G0 F18000 X-23.331 Y-2.688
G1 F2400 X-23.331 Y-5.308 E982.45762
G0 F18000 X-23.808 Y-5.499
G1 F2400 X23.81 Y-5.5 E983.44748
G0 F18000 X23.81 Y-6
G1 F2400 X-23.808 Y-5.999 E984.43734
G0 F18000 X-23.808 Y-6.499
G1 F2400 X23.81 Y-6.5 E985.42721
G0 F18000 X23.81 Y-7
G1 F2400 X-23.808 Y-6.999 E986.41707
G0 F18000 X-23.808 Y-7.499
G1 F2400 X23.81 Y-7.5 E987.40693
G0 F18000 X23.81 Y-8
G1 F2400 X-23.808 Y-7.999 E988.3968
G0 F18000 X-23.808 Y-8.499
G1 F2400 X23.81 Y-8.5 E989.38666
G0 F18000 X23.81 Y-9
G1 F2400 X-23.808 Y-8.999 E990.37652
G0 F18000 X-23.808 Y-9.499
G1 F2400 X23.81 Y-9.5 E991.36639
G0 F18000 X23.81 Y-10
G1 F2400 X-23.808 Y-9.999 E992.35625
G0 F18000 X-23.808 Y-10.499
G1 F2400 X23.81 Y-10.5 E993.34611
G0 F18000 X23.331 Y-5.308
G0 X23.331 Y-5.308
G1 F2400 X23.331 Y-2.691 E993.40051
G0 F18000 X23.81 Y-3.333
G1 F2400 X-23.808 Y-3.332 E994.39038
G0 F18000 X-23.808 Y-4.443
G1 F2400 X23.81 Y-4.444 E995.38024
G0 F18000 X22.22 Y-5.308
G1 F2400 X22.22 Y-2.691 E995.43464
G0 F18000 X21.109 Y-2.691
G1 F2400 X21.109 Y-5.308 E995.48904
G0 F18000 X19.998 Y-5.308
G1 F2400 X19.998 Y-2.691 E995.54344
G0 F18000 X18.887 Y-2.691
G1 F2400 X18.887 Y-5.308 E995.59784
G0 F18000 X17.776 Y-5.308
G1 F2400 X17.776 Y-2.691 E995.65224
G0 F18000 X16.665 Y-2.691
G1 F2400 X16.665 Y-5.308 E995.70665
G0 F18000 X15.554 Y-5.308
G1 F2400 X15.554 Y-2.691 E995.76105
G0 F18000 X14.443 Y-2.691
G1 F2400 X14.443 Y-5.308 E995.81545
G0 F18000 X13.332 Y-5.308
G1 F2400 X13.332 Y-2.691 E995.86985
G0 F18000 X12.221 Y-2.691
G1 F2400 X12.221 Y-5.308 E995.92425
G0 F18000 X11.11 Y-5.308
G1 F2400 X11.11 Y-2.69 E995.97867
G0 F18000 X9.999 Y-2.69
G1 F2400 X9.999 Y-5.308 E996.03309
G0 F18000 X8.888 Y-5.308
G1 F2400 X8.888 Y-2.69 E996.08752
G0 F18000 X7.777 Y-2.69
G1 F2400 X7.776 Y-5.308 E996.14194
G0 F18000 X6.665 Y-5.308
G1 F2400 X6.666 Y-2.69 E996.19636
G0 F18000 X5.555 Y-2.69
G1 F2400 X5.554 Y-5.308 E996.25078
G0 F18000 X4.443 Y-5.308
G1 F2400 X4.444 Y-2.69 E996.3052
G0 F18000 X3.332 Y-2.69
G1 F2400 X3.332 Y-5.308 E996.35963
G0 F18000 X2.221 Y-5.308
G1 F2400 X2.221 Y-2.69 E996.41405
G0 F18000 X1.11 Y-2.69
G1 F2400 X1.11 Y-5.308 E996.46847
G0 F18000 X0 Y-5.309
G1 F2400 X0 Y-2.69 E996.52291
G0 F18000 X-1.111 Y-2.69
G1 F2400 X-1.111 Y-5.309 E996.57735
G0 F18000 X-2.222 Y-5.309
G1 F2400 X-2.222 Y-2.689 E996.63182
G0 F18000 X-3.333 Y-2.689
G1 F2400 X-3.333 Y-5.309 E996.68628
G0 F18000 X-4.444 Y-5.308
G1 F2400 X-4.444 Y-2.689 E996.74072
G0 F18000 X-5.555 Y-2.689
G1 F2400 X-5.555 Y-5.308 E996.79517
G0 F18000 X-6.666 Y-5.308
G1 F2400 X-6.666 Y-2.689 E996.84961
G0 F18000 X-7.777 Y-2.689
G1 F2400 X-7.777 Y-5.308 E996.90405
G0 F18000 X-8.888 Y-5.308
G1 F2400 X-8.888 Y-2.689 E996.9585
G0 F18000 X-9.999 Y-2.689
G1 F2400 X-9.999 Y-5.308 E997.01294
G0 F18000 X-11.11 Y-5.308
G1 F2400 X-11.11 Y-2.689 E997.06738
G0 F18000 X-12.221 Y-2.688
G1 F2400 X-12.221 Y-5.308 E997.12184
G0 F18000 X-13.332 Y-5.308
G1 F2400 X-13.332 Y-2.688 E997.17631
G0 F18000 X-14.443 Y-2.688
G1 F2400 X-14.443 Y-5.308 E997.23077
G0 F18000 X-15.554 Y-5.308
G1 F2400 X-15.554 Y-2.688 E997.28523
G0 F18000 X-16.665 Y-2.688
G1 F2400 X-16.665 Y-5.308 E997.3397
G0 F18000 X-17.776 Y-5.308
G1 F2400 X-17.776 Y-2.688 E997.39416
G0 F18000 X-18.887 Y-2.688
G1 F2400 X-18.887 Y-5.308 E997.44862
G0 F18000 X-19.998 Y-5.308
G1 F2400 X-19.998 Y-2.688 E997.50309
G0 F18000 X-21.109 Y-2.688
G1 F2400 X-21.109 Y-5.308 E997.55755
G0 F18000 X-22.22 Y-5.308
G1 F2400 X-22.22 Y-2.688 E997.61202
G0 F18000 X-22.22 Y2.689
G1 F2400 X-22.22 Y5.309 E997.66648
G0 F18000 X-21.109 Y5.309
G1 F2400 X-21.109 Y2.689 E997.72094
G0 F18000 X-19.998 Y2.689
G1 F2400 X-19.998 Y5.309 E997.77541
G0 F18000 X-18.887 Y5.309
G1 F2400 X-18.887 Y2.689 E997.82987
G0 F18000 X-17.776 Y2.689
G1 F2400 X-17.776 Y5.309 E997.88433
G0 F18000 X-16.665 Y5.309
G1 F2400 X-16.665 Y2.689 E997.9388
G0 F18000 X-15.554 Y2.689
G1 F2400 X-15.554 Y5.309 E997.99326
G0 F18000 X-14.443 Y5.309
G1 F2400 X-14.443 Y2.689 E998.04772
G0 F18000 X-13.332 Y2.689
G1 F2400 X-13.332 Y5.309 E998.10219
G0 F18000 X-12.221 Y5.309
G1 F2400 X-12.221 Y2.689 E998.15665
G0 F18000 X-11.11 Y2.689
G1 F2400 X-11.11 Y5.308 E998.21109
G0 F18000 X-9.999 Y5.308
G1 F2400 X-9.999 Y2.689 E998.26554
G0 F18000 X-8.888 Y2.689
G1 F2400 X-8.888 Y5.308 E998.31998
G0 F18000 X-7.776 Y5.308
G1 F2400 X-7.777 Y2.689 E998.37442
G0 F18000 X-6.666 Y2.689
G1 F2400 X-6.665 Y5.308 E998.42886
G0 F18000 X-5.554 Y5.308
G1 F2400 X-5.555 Y2.689 E998.48331
G0 F18000 X-4.444 Y2.689
G1 F2400 X-4.443 Y5.308 E998.53775
G0 F18000 X-3.332 Y5.308
G1 F2400 X-3.332 Y2.689 E998.59219
G0 F18000 X-2.221 Y2.689
G1 F2400 X-2.221 Y5.308 E998.64663
G0 F18000 X-1.11 Y5.308
G1 F2400 X-1.11 Y2.689 E998.70108
G0 F18000 X0 Y2.689
G1 F2400 X0 Y5.308 E998.75552
G0 F18000 X1.111 Y5.308
G1 F2400 X1.111 Y2.69 E998.80994
G0 F18000 X2.222 Y2.689
G1 F2400 X2.222 Y5.308 E998.86438
G0 F18000 X3.333 Y5.308
G1 F2400 X3.333 Y2.689 E998.91883
G0 F18000 X4.444 Y2.689
G1 F2400 X4.444 Y5.307 E998.97325
G0 F18000 X5.555 Y5.307
G1 F2400 X5.555 Y2.689 E999.02767
G0 F18000 X6.666 Y2.689
G1 F2400 X6.666 Y5.307 E999.08209
G0 F18000 X7.777 Y5.307
G1 F2400 X7.777 Y2.689 E999.13651
G0 F18000 X8.888 Y2.689
G1 F2400 X8.888 Y5.307 E999.19094
G0 F18000 X9.999 Y5.307
G1 F2400 X9.999 Y2.689 E999.24536
G0 F18000 X11.11 Y2.689
G1 F2400 X11.11 Y5.307 E999.29978
G0 F18000 X12.221 Y5.306
G1 F2400 X12.221 Y2.689 E999.35418
G0 F18000 X13.332 Y2.689
G1 F2400 X13.332 Y5.306 E999.40858
G0 F18000 X14.443 Y5.306
G1 F2400 X14.443 Y2.689 E999.46298
G0 F18000 X15.554 Y2.689
G1 F2400 X15.554 Y5.306 E999.51738
G0 F18000 X16.665 Y5.306
G1 F2400 X16.665 Y2.689 E999.57179
G0 F18000 X17.776 Y2.689
G1 F2400 X17.776 Y5.306 E999.62619
G0 F18000 X18.887 Y5.306
G1 F2400 X18.887 Y2.689 E999.68059
G0 F18000 X19.998 Y2.689
G1 F2400 X19.998 Y5.306 E999.73499
G0 F18000 X21.109 Y5.306
G1 F2400 X21.109 Y2.689 E999.78939
G0 F18000 X22.22 Y2.689
G1 F2400 X22.22 Y5.306 E999.84379
G0 F18000 X23.81 Y4.443
G1 F2400 X-23.808 Y4.444 E1000.83365
G0 F18000 X-23.331 Y5.309
G1 F2400 X-23.331 Y2.689 E1000.88812
G0 F18000 X-23.808 Y3.333
G1 F2400 X23.81 Y3.332 E1001.87798
; Layer Change GCode
; LAYER:19
G0 F18000 X-24.3 Y11.368 Z2.2
G0 X-24.694 Y11.434
G0 X-24.488 Y11.4
G0 X-24.488 Y11.4
G0 X-24.748 Y11.75
G0 X-24.748 Y11.75
G0 X-24.248 Y11.25
; TYPE:WALL-INNER
G1 F2400 X-24.248 Y11.25 E1001.87798
G1 X-24.248 Y-11.249 E1002.34568
G1 X24.25 Y-11.249 E1003.35384
G1 X24.25 Y11.25 E1003.82154
G1 X-24.248 Y11.25 E1004.82969
G0 F18000 X-24.748 Y11.75
; TYPE:WALL-OUTER
G1 F2100 X-24.748 Y11.75 E1004.82969
G1 X-24.748 Y-11.749 E1005.31818
G1 X24.75 Y-11.749 E1006.34712
G1 X24.75 Y11.75 E1006.83561
G1 X-24.748 Y11.75 E1007.86456
G0 F18000 X-24.488 Y11.4
G0 X-23.5 Y10.809
G0 X-23.5 Y10.809
; TYPE:FILL
G1 F2400 X-23.5 Y5.189 E1007.98138
G0 F18000 X-23.331 Y5.309
G1 F2400 X-23.331 Y2.69 E1008.03582
G0 F18000 X-23.5 Y2.81
G1 F2400 X-23.5 Y-2.808 E1008.15261
G0 F18000 X-23.331 Y-2.688
G1 F2400 X-23.331 Y-5.307 E1008.20705
G0 F18000 X-23.5 Y-5.187
G1 F2400 X-23.5 Y-10.808 E1008.3239
G0 F18000 X-23 Y-10.808
G1 F2400 X-23 Y-5.187 E1008.44075
G0 F18000 X-22.5 Y-5.187
G1 F2400 X-22.5 Y-10.808 E1008.55759
G0 F18000 X-22 Y-10.808
G1 F2400 X-22 Y-5.187 E1008.67444
G0 F18000 X-22.22 Y-5.307
G1 F2400 X-22.22 Y-2.688 E1008.72888
G0 F18000 X-22 Y-2.808
G1 F2400 X-22 Y2.81 E1008.84567
G0 F18000 X-22.22 Y2.69
G1 F2400 X-22.22 Y5.309 E1008.90011
G0 F18000 X-22 Y5.189
G1 F2400 X-22 Y10.809 E1009.01694
G0 F18000 X-22.5 Y10.809
G1 F2400 X-22.5 Y5.189 E1009.13376
G0 F18000 X-23 Y5.189
G1 F2400 X-23 Y10.809 E1009.25059
G0 F18000 X-21.5 Y10.809
G1 F2400 X-21.5 Y5.189 E1009.36742
G0 F18000 X-21.109 Y5.309
G1 F2400 X-21.109 Y2.69 E1009.42186
G0 F18000 X-21 Y2.81
G1 F2400 X-21 Y-2.808 E1009.53864
G0 F18000 X-21.109 Y-2.688
G1 F2400 X-21.109 Y-5.307 E1009.59309
G0 F18000 X-21 Y-5.187
G1 F2400 X-21 Y-10.808 E1009.70993
G0 F18000 X-21.5 Y-10.808
G1 F2400 X-21.5 Y-5.187 E1009.82678
G0 F18000 X-20.5 Y-5.187
G1 F2400 X-20.5 Y-10.808 E1009.94363
G0 F18000 X-20 Y-10.808
G1 F2400 X-20 Y-5.187 E1010.06047
G0 F18000 X-19.998 Y-5.307
G1 F2400 X-19.998 Y-2.688 E1010.11492
G0 F18000 X-20 Y-2.808
G1 F2400 X-20 Y2.81 E1010.2317
G0 F18000 X-19.998 Y2.69
G1 F2400 X-19.998 Y5.309 E1010.28614
G0 F18000 X-20 Y5.189
G1 F2400 X-20 Y10.809 E1010.40297
G0 F18000 X-20.5 Y10.809
G1 F2400 X-20.5 Y5.189 E1010.5198
G0 F18000 X-21 Y5.189
G1 F2400 X-21 Y10.809 E1010.63662
G0 F18000 X-19.5 Y10.809
G1 F2400 X-19.5 Y5.189 E1010.75345
G0 F18000 X-19 Y5.188
G1 F2400 X-19 Y10.809 E1010.8703
G0 F18000 X-18.5 Y10.809
G1 F2400 X-18.5 Y5.188 E1010.98714
G0 F18000 X-18.887 Y5.308
G1 F2400 X-18.887 Y2.69 E1011.04156
G0 F18000 X-19 Y2.81
G1 F2400 X-19 Y-2.809 E1011.15837
G0 F18000 X-18.887 Y-2.689
G1 F2400 X-18.887 Y-5.307 E1011.21279
G0 F18000 X-19 Y-5.187
G1 F2400 X-19 Y-10.808 E1011.32964
G0 F18000 X-19.5 Y-10.808
G1 F2400 X-19.5 Y-5.187 E1011.44649
G0 F18000 X-18.5 Y-5.187
G1 F2400 X-18.5 Y-10.808 E1011.56333
G0 F18000 X-18 Y-10.808
G1 F2400 X-18 Y-5.187 E1011.68018
G0 F18000 X-17.776 Y-5.307
G1 F2400 X-17.776 Y-2.689 E1011.7346
G0 F18000 X-18 Y-2.809
G1 F2400 X-18 Y2.81 E1011.85141
G0 F18000 X-17.776 Y2.69
G1 F2400 X-17.776 Y5.308 E1011.90583
G0 F18000 X-18 Y5.188
G1 F2400 X-18 Y10.809 E1012.02268
G0 F18000 X-17.5 Y10.809
G1 F2400 X-17.5 Y5.188 E1012.13952
G0 F18000 X-17 Y5.188
G1 F2400 X-17 Y10.809 E1012.25637
G0 F18000 X-16.5 Y10.809
G1 F2400 X-16.5 Y5.188 E1012.37322
G0 F18000 X-16.665 Y5.308
G1 F2400 X-16.665 Y2.69 E1012.42764
G0 F18000 X-16.5 Y2.81
G1 F2400 X-16.5 Y-2.809 E1012.54444
G0 F18000 X-16.665 Y-2.689
G1 F2400 X-16.665 Y-5.307 E1012.59887
G0 F18000 X-16.5 Y-5.187
G1 F2400 X-16.5 Y-10.808 E1012.71571
G0 F18000 X-17 Y-10.808
G1 F2400 X-17 Y-5.187 E1012.83256
G0 F18000 X-17.5 Y-5.187
G1 F2400 X-17.5 Y-10.808 E1012.94941
G0 F18000 X-16 Y-10.808
G1 F2400 X-16 Y-5.187 E1013.06625
G0 F18000 X-15.554 Y-5.307
G1 F2400 X-15.554 Y-2.689 E1013.12068
G0 F18000 X-15.5 Y-2.809
G1 F2400 X-15.5 Y2.81 E1013.23748
G0 F18000 X-15.554 Y2.69
G1 F2400 X-15.554 Y5.308 E1013.2919
G0 F18000 X-15.5 Y5.188
G1 F2400 X-15.499 Y10.809 E1013.40875
G0 F18000 X-15.999 Y10.809
G1 F2400 X-16 Y5.188 E1013.5256
G0 F18000 X-15 Y5.188
G1 F2400 X-14.999 Y10.809 E1013.64244
G0 F18000 X-14.499 Y10.809
G1 F2400 X-14.5 Y5.188 E1013.75929
G0 F18000 X-14.443 Y5.308
G1 F2400 X-14.443 Y2.69 E1013.81371
G0 F18000 X-14.5 Y2.81
G1 F2400 X-14.5 Y-2.809 E1013.93052
G0 F18000 X-14.443 Y-2.689
G1 F2400 X-14.443 Y-5.307 E1013.98494
G0 F18000 X-14.5 Y-5.187
G1 F2400 X-14.5 Y-10.808 E1014.10179
G0 F18000 X-15 Y-10.808
G1 F2400 X-15 Y-5.187 E1014.21863
G0 F18000 X-15.5 Y-5.187
G1 F2400 X-15.5 Y-10.808 E1014.33548
G0 F18000 X-14 Y-10.808
G1 F2400 X-14 Y-5.187 E1014.45233
G0 F18000 X-13.5 Y-5.187
G1 F2400 X-13.5 Y-10.808 E1014.56918
G0 F18000 X-13 Y-10.808
G1 F2400 X-13 Y-5.187 E1014.68602
G0 F18000 X-13.332 Y-5.307
G1 F2400 X-13.332 Y-2.689 E1014.74044
G0 F18000 X-13.5 Y-2.809
G1 F2400 X-13.5 Y2.81 E1014.85725
G0 F18000 X-13.332 Y2.69
G1 F2400 X-13.332 Y5.308 E1014.91167
G0 F18000 X-13.5 Y5.188
G1 F2400 X-13.499 Y10.809 E1015.02852
G0 F18000 X-13.999 Y10.809
G1 F2400 X-14 Y5.188 E1015.14537
G0 F18000 X-13 Y5.188
G1 F2400 X-12.999 Y10.809 E1015.26221
G0 F18000 X-12.499 Y10.809
G1 F2400 X-12.5 Y5.188 E1015.37906
G0 F18000 X-12.221 Y5.308
G1 F2400 X-12.221 Y2.69 E1015.43348
G0 F18000 X-12 Y2.81
G1 F2400 X-12 Y-2.809 E1015.55029
G0 F18000 X-12.221 Y-2.689
G1 F2400 X-12.221 Y-5.307 E1015.60471
G0 F18000 X-12 Y-5.187
G1 F2400 X-12 Y-10.808 E1015.72156
G0 F18000 X-12.5 Y-10.808
G1 F2400 X-12.5 Y-5.187 E1015.8384
G0 F18000 X-11.5 Y-5.187
G1 F2400 X-11.5 Y-10.808 E1015.95525
G0 F18000 X-11 Y-10.808
G1 F2400 X-11 Y-5.187 E1016.0721
G0 F18000 X-11.11 Y-5.307
G1 F2400 X-11.11 Y-2.689 E1016.12652
G0 F18000 X-11 Y-2.809
G1 F2400 X-11 Y2.81 E1016.24332
G0 F18000 X-11.11 Y2.69
G1 F2400 X-11.11 Y5.308 E1016.29775
G0 F18000 X-11 Y5.188
G1 F2400 X-10.999 Y10.809 E1016.41459
G0 F18000 X-11.499 Y10.809
G1 F2400 X-11.5 Y5.188 E1016.53144
G0 F18000 X-12 Y5.188
G1 F2400 X-11.999 Y10.809 E1016.64829
G0 F18000 X-10.499 Y10.809
G1 F2400 X-10.5 Y5.188 E1016.76513
G0 F18000 X-10 Y5.188
G1 F2400 X-9.999 Y10.809 E1016.88198
G0 F18000 X-9.499 Y10.809
G1 F2400 X-9.5 Y5.187 E1016.99885
G0 F18000 X-9 Y5.187
G1 F2400 X-8.999 Y10.809 E1017.11572
G0 F18000 X-8.499 Y10.809
G1 F2400 X-8.5 Y5.187 E1017.23258
G0 F18000 X-8.888 Y5.307
G1 F2400 X-8.888 Y2.69 E1017.28699
G0 F18000 X-9 Y2.81
G1 F2400 X-9 Y-2.81 E1017.40381
G0 F18000 X-8.888 Y-2.69
G1 F2400 X-8.888 Y-5.307 E1017.45821
G0 F18000 X-9 Y-5.187
G1 F2400 X-9 Y-10.808 E1017.57506
G0 F18000 X-9.5 Y-10.808
G1 F2400 X-9.5 Y-5.187 E1017.69191
G0 F18000 X-10 Y-5.187
G1 F2400 X-10 Y-10.808 E1017.80875
G0 F18000 X-10.5 Y-10.808
G1 F2400 X-10.5 Y-5.187 E1017.9256
G0 F18000 X-9.999 Y-5.307
G1 F2400 X-9.999 Y-2.689 E1017.98002
G0 F18000 X-10 Y-2.809
G1 F2400 X-10 Y2.81 E1018.09683
G0 F18000 X-9.999 Y2.69
G1 F2400 X-9.999 Y5.308 E1018.15125
G0 F18000 X-7.999 Y5.187
G1 F2400 X-7.999 Y10.809 E1018.26812
G0 F18000 X-7.499 Y10.809
G1 F2400 X-7.499 Y5.187 E1018.38499
G0 F18000 X-7.776 Y5.307
G1 F2400 X-7.777 Y2.69 E1018.43939
G0 F18000 X-8 Y2.81
G1 F2400 X-8 Y-2.81 E1018.55621
G0 F18000 X-7.777 Y-2.69
G1 F2400 X-7.777 Y-5.307 E1018.61061
G0 F18000 X-8 Y-5.187
G1 F2400 X-8 Y-10.808 E1018.72746
G0 F18000 X-8.5 Y-10.808
G1 F2400 X-8.5 Y-5.187 E1018.84431
G0 F18000 X-7.5 Y-5.187
G1 F2400 X-7.5 Y-10.808 E1018.96116
G0 F18000 X-7 Y-10.809
G1 F2400 X-7 Y-5.187 E1019.07802
G0 F18000 X-6.666 Y-5.307
G1 F2400 X-6.666 Y-2.69 E1019.13242
G0 F18000 X-6.5 Y-2.81
G1 F2400 X-6.5 Y2.81 E1019.24925
G0 F18000 X-6.666 Y2.69
G1 F2400 X-6.665 Y5.307 E1019.30365
G0 F18000 X-6.499 Y5.187
G1 F2400 X-6.499 Y10.809 E1019.42052
G0 F18000 X-6.999 Y10.809
G1 F2400 X-6.999 Y5.187 E1019.53739
G0 F18000 X-5.999 Y5.187
G1 F2400 X-5.999 Y10.809 E1019.65426
G0 F18000 X-5.499 Y10.809
G1 F2400 X-5.499 Y5.187 E1019.77112
G0 F18000 X-5.554 Y5.307
G1 F2400 X-5.555 Y2.69 E1019.82552
G0 F18000 X-5.5 Y2.81
G1 F2400 X-5.5 Y-2.81 E1019.94235
G0 F18000 X-5.555 Y-2.69
G1 F2400 X-5.555 Y-5.307 E1019.99675
G0 F18000 X-5.5 Y-5.187
G1 F2400 X-5.5 Y-10.809 E1020.11362
G0 F18000 X-6 Y-10.809
G1 F2400 X-6 Y-5.187 E1020.23049
G0 F18000 X-6.5 Y-5.187
G1 F2400 X-6.5 Y-10.809 E1020.34735
G0 F18000 X-5 Y-10.809
G1 F2400 X-5 Y-5.187 E1020.46422
G0 F18000 X-4.5 Y-5.187
G1 F2400 X-4.5 Y-10.809 E1020.58109
G0 F18000 X-4 Y-10.809
G1 F2400 X-4 Y-5.187 E1020.69796
G0 F18000 X-4.444 Y-5.307
G1 F2400 X-4.444 Y-2.69 E1020.75236
G0 F18000 X-4.5 Y-2.81
G1 F2400 X-4.5 Y2.81 E1020.86919
G0 F18000 X-4.444 Y2.69
G1 F2400 X-4.443 Y5.307 E1020.92359
G0 F18000 X-4.499 Y5.187
G1 F2400 X-4.499 Y10.809 E1021.04045
G0 F18000 X-4.999 Y10.809
G1 F2400 X-4.999 Y5.187 E1021.15732
G0 F18000 X-3.999 Y5.187
