; Generated with MatterSlice 1.0
; filamentDiameter = 1.75
; extrusionWidth = 0.5
; firstLayerExtrusionWidth = 0.4
; layerThickness = 0.2
; firstLayerThickness = 0.3
; automatic settings before start_gcode
G21 ; set units to millimeters
M107 ; fan off
T0 ; set the active extruder to 0
; settings from start_gcode
M104 S190
M190 S60
M109 S190
G28
; automatic settings after start_gcode
T0 ; set the active extruder to 0
G90 ; use absolute coordinates
G92 E0 ; reset the expected extruder position
M82 ; use absolute distance for extrusion
; Layer count: 120
; Layer Change GCode
; LAYER:0
G4 P0
M107
G0 F18000 X14.6 Y26.6 Z0.6
; TYPE:SKIRT
G1 Z0.3
G1 F6600 E0
G1 F720 X-14.599 Y26.6 E1.45674
G1 X-14.599 Y-26.598 E4.1108
G1 X14.6 Y-26.598 E5.56755
G1 X14.6 Y26.6 E8.22161
G0 F18000 X14.2 Y26.2
G1 F720 X-14.199 Y26.2 E9.63844
G1 X-14.199 Y-26.198 E12.25258
G1 X14.2 Y-26.198 E13.66942
G1 X14.2 Y26.2 E16.28356
G1 F6600 E9.48356
G1 Z0.6
G0 F18000 X-10.799 Y22.8
; TYPE:WALL-OUTER
G1 Z0.3
G1 F6600 E16.38356
G1 F720 X-10.799 Y22.8 E16.38356
G1 X-10.799 Y-22.798 E18.65846
G1 X10.8 Y-22.798 E19.73604
G1 X10.8 Y22.8 E22.01093
G1 X-10.799 Y22.8 E23.08851
G0 F18000 X-10.399 Y22.4
; TYPE:WALL-INNER
G1 F720 X-10.399 Y22.4 E23.08851
G1 X-10.399 Y-22.398 E25.32349
G1 X10.4 Y-22.398 E26.36115
G1 X10.4 Y22.4 E28.59614
G1 X-10.399 Y22.4 E29.6338
G0 F18000 X-1.559 Y21.692
G0 X-1.161 Y21.66
G0 X0.874 Y21.498
G0 X0.874 Y21.498
G0 X0.915 Y21.202
; TYPE:WALL-OUTER
G1 F720 X0.915 Y21.202 E29.6338
G1 X3.04 Y20.944 E29.7406
G1 X5.027 Y20.146 E29.84743
G1 X6.739 Y18.859 E29.95428
G1 X8.06 Y17.175 E30.06106
G1 X8.899 Y15.205 E30.16789
G1 X9.201 Y13.085 E30.27472
G1 X8.943 Y10.96 E30.38152
G1 X8.145 Y8.973 E30.48834
G1 X6.858 Y7.261 E30.5952
G1 X5.174 Y5.94 E30.70198
G1 X3.204 Y5.101 E30.80881
G1 X1.084 Y4.799 E30.91564
G1 X-1.04 Y5.057 E31.02239
G1 X-3.027 Y5.855 E31.12921
G1 X-4.739 Y7.142 E31.23607
G1 X-6.06 Y8.826 E31.34285
G1 X-6.899 Y10.796 E31.44967
G1 X-7.201 Y12.916 E31.55651
G1 X-6.943 Y15.041 E31.6633
G1 X-6.145 Y17.028 E31.77013
G1 X-4.858 Y18.74 E31.87699
G1 X-3.174 Y20.061 E31.98377
G1 X-1.204 Y20.9 E32.09059
G1 X0.915 Y21.202 E32.19738
G0 F18000 X0.911 Y21.605
; TYPE:WALL-INNER
G1 F720 X0.911 Y21.605 E32.19738
G1 X3.141 Y21.335 E32.30945
G1 X5.225 Y20.497 E32.42151
G1 X7.022 Y19.147 E32.53364
G1 X8.407 Y17.38 E32.64565
G1 X9.288 Y15.314 E32.7577
G1 X9.604 Y13.089 E32.86982
G1 X9.334 Y10.859 E32.98189
G1 X8.496 Y8.775 E33.09395
G1 X7.146 Y6.978 E33.20609
G1 X5.379 Y5.593 E33.3181
G1 X3.313 Y4.712 E33.43015
G1 X1.088 Y4.396 E33.54227
G1 X-1.141 Y4.666 E33.65429
G1 X-3.225 Y5.504 E33.76635
G1 X-5.022 Y6.854 E33.87848
G1 X-6.407 Y8.621 E33.99049
G1 X-7.288 Y10.687 E34.10254
G1 X-7.604 Y12.912 E34.21466
G1 X-7.334 Y15.142 E34.32673
G1 X-6.496 Y17.226 E34.43879
G1 X-5.146 Y19.023 E34.55093
G1 X-3.379 Y20.408 E34.66294
G1 X-1.313 Y21.289 E34.77499
G1 X0.911 Y21.605 E34.88706
G1 F6600 E28.08706
G1 Z0.6
G0 F18000 X0.91 Y21.603
G0 X0.911 Y21.603
G0 X-1.311 Y21.287
G0 X-3.377 Y20.406
G0 X-5.144 Y19.021
G0 X-6.494 Y17.225
G0 X-7.332 Y15.14
G0 X-7.602 Y12.912
G0 X-7.286 Y10.689
G0 X-6.405 Y8.623
G0 X-5.02 Y6.856
G0 X-3.224 Y5.506
G0 X-1.139 Y4.668
G0 X0.486 Y4.469
G0 X0.266 Y-4.419
G0 X0.256 Y-4.819
G0 X0.265 Y-4.532
G0 X0.265 Y-4.532
G0 X0.328 Y-4.824
; TYPE:WALL-OUTER
G1 Z0.3
G1 F6600 E34.98706
G1 F720 X0.328 Y-4.824 E34.98706
G1 X2.466 Y-4.93 E35.09386
G1 X4.505 Y-5.584 E35.20069
G1 X6.304 Y-6.744 E35.30748
G1 X7.743 Y-8.33 E35.41432
G1 X8.721 Y-10.234 E35.52111
G1 X9.174 Y-12.327 E35.62795
G1 X9.068 Y-14.465 E35.73474
G1 X8.414 Y-16.504 E35.84158
G1 X7.254 Y-18.303 E35.94837
G1 X5.668 Y-19.742 E36.05521
G1 X3.764 Y-20.72 E36.162
G1 X1.671 Y-21.173 E36.26884
G1 X-0.466 Y-21.067 E36.37558
G1 X-2.505 Y-20.413 E36.48241
G1 X-4.304 Y-19.253 E36.58921
G1 X-5.743 Y-17.667 E36.69605
G1 X-6.721 Y-15.763 E36.80284
G1 X-7.174 Y-13.67 E36.90968
G1 X-7.068 Y-11.532 E37.01647
G1 X-6.414 Y-9.493 E37.1233
G1 X-5.254 Y-7.694 E37.2301
G1 X-3.668 Y-6.255 E37.33694
G1 X-1.764 Y-5.277 E37.44373
G1 X0.328 Y-4.824 E37.55051
G0 F18000 X0.295 Y-4.422
; TYPE:WALL-INNER
G1 F720 X0.295 Y-4.422 E37.55051
G1 X2.538 Y-4.533 E37.66256
G1 X4.678 Y-5.219 E37.77467
G1 X6.565 Y-6.437 E37.88672
G1 X8.075 Y-8.1 E37.99879
G1 X9.101 Y-10.098 E38.11084
G1 X9.576 Y-12.294 E38.22294
G1 X9.465 Y-14.537 E38.33498
G1 X8.779 Y-16.677 E38.44709
G1 X7.561 Y-18.564 E38.55915
G1 X5.898 Y-20.074 E38.67121
G1 X3.9 Y-21.1 E38.78327
G1 X1.704 Y-21.575 E38.89536
G1 X-0.538 Y-21.464 E39.00735
G1 X-2.678 Y-20.778 E39.11947
G1 X-4.565 Y-19.56 E39.23152
G1 X-6.075 Y-17.897 E39.34358
G1 X-7.101 Y-15.899 E39.45564
G1 X-7.576 Y-13.703 E39.56773
G1 X-7.465 Y-11.46 E39.67977
G1 X-6.779 Y-9.32 E39.79189
G1 X-5.561 Y-7.433 E39.90394
G1 X-3.898 Y-5.923 E40.01601
G1 X-1.9 Y-4.897 E40.12806
G1 X0.295 Y-4.422 E40.2401
G0 F18000 X-1.21 Y-4.4
G0 X-1.21 Y-4.4
; TYPE:BOTTOM-FILL
G1 F720 X-10.058 Y-4.399 E40.68153
G0 F18000 X-10.058 Y-3.999
G1 F720 X10.06 Y-4 E41.68522
G0 F18000 X10.06 Y-4.4
G1 F720 X3.236 Y-4.4 E42.02567
G0 F18000 X4.487 Y-4.8
G1 F720 X10.06 Y-4.8 E42.30371
G0 F18000 X10.06 Y-5.2
G1 F720 X5.276 Y-5.2 E42.54239
G0 F18000 X5.896 Y-5.6
G1 F720 X10.06 Y-5.6 E42.75013
G0 F18000 X10.06 Y-6
G1 F720 X6.515 Y-6 E42.92699
G0 F18000 X6.992 Y-6.4
G1 F720 X10.06 Y-6.4 E43.08005
G0 F18000 X10.06 Y-6.8
G1 F720 X7.355 Y-6.8 E43.21501
G0 F18000 X7.719 Y-7.2
G1 F720 X10.06 Y-7.2 E43.3318
G0 F18000 X10.06 Y-7.6
G1 F720 X8.082 Y-7.6 E43.43048
G0 F18000 X8.408 Y-8
G1 F720 X10.06 Y-8 E43.5129
G0 F18000 X10.06 Y-8.4
G1 F720 X8.613 Y-8.4 E43.58509
G0 F18000 X8.818 Y-8.8
G1 F720 X10.06 Y-8.8 E43.64706
G0 F18000 X10.06 Y-9.2
G1 F720 X9.023 Y-9.2 E43.69879
G0 F18000 X9.229 Y-9.6
G1 F720 X10.06 Y-9.6 E43.74025
G0 F18000 X10.06 Y-10
G1 F720 X9.471 Y-10.2 E43.77175
G1 X10.06 Y-10.6 E43.79901
G1 X9.644 Y-11 E43.8219
G1 X10.06 Y-11.4 E43.84047
G1 X9.817 Y-11.8 E43.85472
G1 X10.06 Y-12.2 E43.86464
G1 X9.901 Y-12.6 E43.87205
G1 X10.06 Y-13 E43.88048
G1 X9.862 Y-13.4 E43.88983
G1 X10.06 Y-13.8 E43.90018
G1 X9.822 Y-14.2 E43.91156
G1 X10.06 Y-14.6 E43.92393
G1 X9.673 Y-15 E43.93996
G1 X10.059 Y-15.4 E43.96243
G1 X9.416 Y-15.8 E43.99123
G1 X10.059 Y-16 E44.02483
G0 F18000 X10.059 Y-16.4
G1 F720 X9.224 Y-16.4 E44.06649
G0 F18000 X9.096 Y-16.8
G1 F720 X10.059 Y-16.8 E44.11453
G0 F18000 X10.059 Y-17.2
G1 F720 X8.846 Y-17.2 E44.17505
G0 F18000 X8.587 Y-17.6
G1 F720 X10.059 Y-17.6 E44.24849
G0 F18000 X10.059 Y-18
G1 F720 X8.329 Y-18 E44.3348
G0 F18000 X8.071 Y-18.4
G1 F720 X10.059 Y-18.4 E44.43398
G0 F18000 X10.059 Y-18.8
G1 F720 X7.807 Y-18.8 E44.54633
G0 F18000 X7.366 Y-19.2
G1 F720 X10.059 Y-19.2 E44.68069
G0 F18000 X10.059 Y-19.6
G1 F720 X6.926 Y-19.6 E44.83699
G0 F18000 X6.486 Y-20
G1 F720 X10.059 Y-20 E45.01525
G0 F18000 X10.059 Y-20.4
G1 F720 X6.009 Y-20.4 E45.21731
G0 F18000 X5.23 Y-20.8
G1 F720 X10.059 Y-20.8 E45.45823
G0 F18000 X10.059 Y-21.2
G1 F720 X4.451 Y-21.2 E45.73801
G0 F18000 X3.195 Y-21.6
G1 F720 X10.059 Y-21.6 E46.08046
G0 F18000 X10.059 Y-22
G1 F720 X-10.058 Y-22 E47.0841
G0 F18000 X-10.058 Y-21.6
G1 F720 X-1.227 Y-21.6 E47.52468
G0 F18000 X-2.476 Y-21.2
G1 F720 X-10.058 Y-21.2 E47.90295
G0 F18000 X-10.058 Y-20.8
G1 F720 X-3.271 Y-20.8 E48.24155
G0 F18000 X-3.89 Y-20.4
G1 F720 X-10.058 Y-20.4 E48.54927
G0 F18000 X-10.058 Y-20
G1 F720 X-4.51 Y-20 E48.82606
G0 F18000 X-4.988 Y-19.6
G1 F720 X-10.058 Y-19.6 E49.07901
G0 F18000 X-10.058 Y-19.2
G1 F720 X-5.351 Y-19.2 E49.31384
G0 F18000 X-5.715 Y-18.8
G1 F720 X-10.058 Y-18.8 E49.53051
G0 F18000 X-10.058 Y-18.4
G1 F720 X-6.078 Y-18.4 E49.72908
G0 F18000 X-6.405 Y-18
G1 F720 X-10.058 Y-18 E49.91133
G0 F18000 X-10.058 Y-17.6
G1 F720 X-6.61 Y-17.6 E50.08335
G0 F18000 X-6.815 Y-17.2
G1 F720 X-10.058 Y-17.2 E50.24514
G0 F18000 X-10.058 Y-16.8
G1 F720 X-7.021 Y-16.8 E50.39666
G0 F18000 X-7.226 Y-16.4
G1 F720 X-10.058 Y-16.4 E50.53795
G0 F18000 X-10.058 Y-16
G1 F720 X-7.426 Y-16 E50.66926
G0 F18000 X-7.512 Y-15.6
G1 F720 X-10.058 Y-15.6 E50.79628
G0 F18000 X-10.058 Y-15.2
G1 F720 X-7.599 Y-15.2 E50.91896
G0 F18000 X-7.686 Y-14.8
G1 F720 X-10.058 Y-14.8 E51.0373
G0 F18000 X-10.058 Y-14.4
G1 F720 X-7.772 Y-14.4 E51.15135
G0 F18000 X-7.859 Y-14
G1 F720 X-10.058 Y-14 E51.26105
G0 F18000 X-10.058 Y-13.6
G1 F720 X-7.911 Y-13.6 E51.36817
G0 F18000 X-7.891 Y-13.2
G1 F720 X-10.058 Y-13.2 E51.47628
G0 F18000 X-10.058 Y-12.8
G1 F720 X-7.871 Y-12.8 E51.58539
G0 F18000 X-7.851 Y-12.4
G1 F720 X-10.058 Y-12.4 E51.6955
G0 F18000 X-10.058 Y-12
G1 F720 X-7.831 Y-12 E51.8066
G0 F18000 X-7.811 Y-11.6
G1 F720 X-10.058 Y-11.6 E51.91871
G0 F18000 X-10.058 Y-11.2
G1 F720 X-7.738 Y-11.2 E52.03445
G0 F18000 X-7.61 Y-10.8
G1 F720 X-10.058 Y-10.8 E52.15658
G0 F18000 X-10.058 Y-10.4
G1 F720 X-7.481 Y-10.4 E52.28515
G0 F18000 X-7.353 Y-10
G1 F720 X-10.058 Y-10 E52.4201
G0 F18000 X-10.058 Y-9.6
G1 F720 X-7.225 Y-9.6 E52.56144
G0 F18000 X-7.097 Y-9.2
G1 F720 X-10.058 Y-9.2 E52.70917
G0 F18000 X-10.058 Y-8.8
G1 F720 X-6.848 Y-8.8 E52.86932
G0 F18000 X-6.59 Y-8.4
G1 F720 X-10.058 Y-8.4 E53.04233
G0 F18000 X-10.058 Y-7.999
G1 F720 X-6.332 Y-8 E53.22823
G0 F18000 X-6.074 Y-7.6
G1 F720 X-10.058 Y-7.599 E53.42699
G0 F18000 X-10.058 Y-7.199
G1 F720 X-5.811 Y-7.2 E53.63887
G0 F18000 X-5.37 Y-6.8
G1 F720 X-10.058 Y-6.799 E53.87276
G0 F18000 X-10.058 Y-6.399
G1 F720 X-4.93 Y-6.4 E54.12859
G0 F18000 X-4.489 Y-6
G1 F720 X-10.058 Y-5.999 E54.40643
G0 F18000 X-10.058 Y-5.599
G1 F720 X-4.015 Y-5.6 E54.70792
G0 F18000 X-3.236 Y-5.2
G1 F720 X-10.058 Y-5.199 E55.04827
G0 F18000 X-10.058 Y-4.799
G1 F720 X-2.456 Y-4.8 E55.42754
G0 F18000 X-10.058 Y-3.599
G0 X-10.058 Y-3.599
G1 F720 X10.06 Y-3.6 E56.43123
G0 F18000 X10.06 Y-3.2
G1 F720 X-10.058 Y-3.199 E57.43492
G0 F18000 X-10.058 Y-2.799
G1 F720 X10.06 Y-2.8 E58.43861
G0 F18000 X10.06 Y-2.4
G1 F720 X-10.058 Y-2.399 E59.4423
G0 F18000 X-10.058 Y-1.999
G1 F720 X10.06 Y-2 E60.44599
G0 F18000 X10.06 Y-1.6
G1 F720 X-10.058 Y-1.599 E61.44968
G0 F18000 X-10.058 Y-1.199
G1 F720 X10.06 Y-1.2 E62.45337
G0 F18000 X10.06 Y-0.8
G1 F720 X-10.058 Y-0.799 E63.45706
G0 F18000 X-10.058 Y-0.399
G1 F720 X10.06 Y-0.4 E64.46076
G0 F18000 X10.06 Y0
G1 F720 X-10.058 Y0 E65.46445
G0 F18000 X-10.059 Y0.4
G1 F720 X10.06 Y0.399 E66.46819
G0 F18000 X10.06 Y0.799
G1 F720 X-10.059 Y0.8 E67.47193
G0 F18000 X-10.059 Y1.2
G1 F720 X10.06 Y1.199 E68.47567
G0 F18000 X10.06 Y1.599
G1 F720 X-10.059 Y1.6 E69.47941
G0 F18000 X-10.059 Y2
G1 F720 X10.06 Y1.999 E70.48315
G0 F18000 X10.06 Y2.399
G1 F720 X-10.059 Y2.4 E71.48689
G0 F18000 X-10.059 Y2.8
G1 F720 X10.06 Y2.799 E72.49063
G0 F18000 X10.06 Y3.199
G1 F720 X-10.059 Y3.2 E73.49437
G0 F18000 X-10.059 Y3.6
G1 F720 X10.06 Y3.599 E74.49812
G0 F18000 X10.06 Y3.999
G1 F720 X-10.059 Y4 E75.50186
G0 F18000 X-10.059 Y4.4
G1 F720 X-1.39 Y4.4 E75.93435
G0 F18000 X-2.384 Y4.8
G1 F720 X-10.059 Y4.8 E76.31726
G0 F18000 X-10.059 Y5.2
G1 F720 X-3.378 Y5.2 E76.65058
G0 F18000 X-3.917 Y5.6
G1 F720 X-10.059 Y5.6 E76.957
G0 F18000 X-10.059 Y6
G1 F720 X-4.45 Y6 E77.23684
G0 F18000 X-4.983 Y6.4
G1 F720 X-10.059 Y6.4 E77.49008
G0 F18000 X-10.059 Y6.8
G1 F720 X-5.411 Y6.8 E77.72197
G0 F18000 X-5.725 Y7.2
G1 F720 X-10.059 Y7.2 E77.93819
G0 F18000 X-10.059 Y7.6
G1 F720 X-6.037 Y7.6 E78.13885
G0 F18000 X-6.351 Y8
G1 F720 X-10.059 Y8 E78.32385
G0 F18000 X-10.059 Y8.4
G1 F720 X-6.665 Y8.4 E78.49317
G0 F18000 X-6.852 Y8.8
G1 F720 X-10.059 Y8.8 E78.65317
G0 F18000 X-10.059 Y9.2
G1 F720 X-7.022 Y9.2 E78.80469
G0 F18000 X-7.193 Y9.6
G1 F720 X-10.059 Y9.6 E78.94767
G0 F18000 X-10.059 Y10
G1 F720 X-7.363 Y10 E79.08218
G0 F18000 X-7.534 Y10.4
G1 F720 X-10.059 Y10.4 E79.20815
G0 F18000 X-10.059 Y10.8
G1 F720 X-7.647 Y10.8 E79.32848
G0 F18000 X-7.703 Y11.2
G1 F720 X-10.059 Y11.2 E79.44603
G0 F18000 X-10.059 Y11.6
G1 F720 X-7.76 Y11.6 E79.56072
G0 F18000 X-7.817 Y12
G1 F720 X-10.059 Y12 E79.67258
G0 F18000 X-10.059 Y12.4
G1 F720 X-7.873 Y12.4 E79.78164
G0 F18000 X-7.93 Y12.8
G1 F720 X-10.059 Y12.8 E79.88785
G0 F18000 X-10.059 Y13.2
G1 F720 X-7.909 Y13.2 E79.99512
G0 F18000 X-7.861 Y13.6
G1 F720 X-10.059 Y13.6 E80.10478
G0 F18000 X-10.059 Y14
G1 F720 X-7.813 Y14 E80.21683
G0 F18000 X-7.765 Y14.4
G1 F720 X-10.059 Y14.4 E80.33128
G0 F18000 X-10.059 Y14.8
G1 F720 X-7.717 Y14.8 E80.44812
G0 F18000 X-7.668 Y15.2
G1 F720 X-10.058 Y15.2 E80.56736
G0 F18000 X-10.058 Y15.6
G1 F720 X-7.515 Y15.6 E80.69423
G0 F18000 X-7.354 Y16
G1 F720 X-10.058 Y16 E80.82913
G0 F18000 X-10.058 Y16.4
G1 F720 X-7.193 Y16.4 E80.97207
G0 F18000 X-7.032 Y16.8
G1 F720 X-10.058 Y16.8 E81.12304
G0 F18000 X-10.058 Y17.2
G1 F720 X-6.871 Y17.2 E81.28204
G0 F18000 X-6.639 Y17.6
G1 F720 X-10.058 Y17.6 E81.45261
G0 F18000 X-10.058 Y18
G1 F720 X-6.338 Y18 E81.6382
G0 F18000 X-6.038 Y18.4
G1 F720 X-10.058 Y18.4 E81.83876
G0 F18000 X-10.058 Y18.8
G1 F720 X-5.737 Y18.8 E82.05434
G0 F18000 X-5.436 Y19.2
G1 F720 X-10.058 Y19.2 E82.28493
G0 F18000 X-10.058 Y19.6
G1 F720 X-4.959 Y19.6 E82.53932
G0 F18000 X-4.449 Y20
G1 F720 X-10.058 Y20 E82.81915
G0 F18000 X-10.058 Y20.4
G1 F720 X-3.939 Y20.4 E83.12443
G0 F18000 X-3.325 Y20.8
G1 F720 X-10.058 Y20.8 E83.46034
G0 F18000 X-10.058 Y21.2
G1 F720 X-2.387 Y21.2 E83.84305
G0 F18000 X-1.449 Y21.6
G1 F720 X-10.058 Y21.6 E84.27255
G0 F18000 X-10.058 Y22
G1 F720 X0.91 Y22 E84.81975
G0 F18000 X0.912 Y22
G1 F720 X10.059 Y22 E85.2761
G0 F18000 X10.059 Y21.6
G1 F720 X3.393 Y21.6 E85.60866
G0 F18000 X4.387 Y21.2
G1 F720 X10.059 Y21.2 E85.89164
G0 F18000 X10.059 Y20.8
G1 F720 X5.381 Y20.8 E86.12503
G0 F18000 X5.919 Y20.4
G1 F720 X10.059 Y20.4 E86.33157
G0 F18000 X10.059 Y20
G1 F720 X6.451 Y20 E86.51158
G0 F18000 X6.983 Y19.6
G1 F720 X10.059 Y19.6 E86.66504
G0 F18000 X10.059 Y19.2
G1 F720 X7.411 Y19.2 E86.79715
G0 F18000 X7.725 Y18.8
G1 F720 X10.059 Y18.8 E86.91359
G0 F18000 X10.059 Y18.4
G1 F720 X8.038 Y18.4 E87.01442
G0 F18000 X8.352 Y18
G1 F720 X10.059 Y18 E87.09958
G0 F18000 X10.059 Y17.6
G1 F720 X8.666 Y17.6 E87.16908
G0 F18000 X8.852 Y17.2
G1 F720 X10.06 Y17.2 E87.22935
G0 F18000 X10.06 Y16.8
G1 F720 X9.023 Y16.8 E87.28108
G0 F18000 X9.193 Y16.4
G1 F720 X10.06 Y16.4 E87.32434
G0 F18000 X10.06 Y16
G1 F720 X9.449 Y15.8 E87.35906
G1 X10.06 Y15.4 E87.38529
G1 X9.675 Y15 E87.40586
G1 X10.06 Y14.6 E87.42358
G1 X9.788 Y14.2 E87.43855
G1 X10.06 Y13.8 E87.45067
G1 X9.902 Y13.4 E87.45995
G1 X10.06 Y13 E87.46639
G1 X9.887 Y12.6 E87.47384
G1 X10.06 Y12.2 E87.48367
G1 X9.79 Y11.8 E87.49595
G1 X10.06 Y11.4 E87.51058
G1 X9.693 Y11 E87.52764
G1 X10.06 Y10.6 E87.54714
G1 X9.435 Y10.2 E87.57426
G1 X10.06 Y10 E87.607
G0 F18000 X10.06 Y9.6
G1 F720 X9.194 Y9.6 E87.6502
G0 F18000 X9.033 Y9.2
G1 F720 X10.06 Y9.2 E87.70144
G0 F18000 X10.06 Y8.8
G1 F720 X8.872 Y8.8 E87.76071
G0 F18000 X8.639 Y8.4
G1 F720 X10.06 Y8.4 E87.8316
G0 F18000 X10.06 Y7.999
G1 F720 X8.339 Y7.999 E87.91747
G0 F18000 X8.038 Y7.599
G1 F720 X10.06 Y7.599 E88.01834
G0 F18000 X10.06 Y7.199
G1 F720 X7.737 Y7.199 E88.13424
G0 F18000 X7.437 Y6.799
G1 F720 X10.06 Y6.799 E88.2651
G0 F18000 X10.06 Y6.399
G1 F720 X6.959 Y6.4 E88.41981
G0 F18000 X6.449 Y6
G1 F720 X10.06 Y5.999 E88.59996
G0 F18000 X10.06 Y5.599
G1 F720 X5.939 Y5.6 E88.80556
G0 F18000 X5.324 Y5.2
G1 F720 X10.06 Y5.199 E89.04184
G0 F18000 X10.06 Y4.799
G1 F720 X4.385 Y4.8 E89.32497
G0 F18000 X3.447 Y4.4
G1 F720 X10.06 Y4.399 E89.65489
; Layer Change GCode
; LAYER:1
G1 F6600 E82.85489
G1 Z0.6
G0 F18000 X7.203 Y6.9 Z0.8
G0 X5.429 Y5.508
G0 X3.339 Y4.617
G0 X1.089 Y4.297
G0 X-1.164 Y4.571
G0 X-3.274 Y5.418
G0 X-5.09 Y6.784
G0 X-6.492 Y8.571
G0 X-7.383 Y10.661
G0 X-7.703 Y12.911
G0 X-7.429 Y15.165
G0 X-6.582 Y17.275
G0 X-5.81 Y18.3
G0 X-10.348 Y22.276
G0 X-10.649 Y22.539
G0 X-10.489 Y22.4
G0 X-10.489 Y22.4
G0 X-10.749 Y22.75
G0 X-10.749 Y22.75
G0 X-10.249 Y22.25
; TYPE:WALL-INNER
G1 Z0.5
G1 F6600 E89.75489
G1 F1776 X-10.249 Y22.25 E89.75489
G1 X-10.249 Y-22.248 E91.6049
G1 X10.25 Y-22.248 E92.45715
G1 X10.25 Y22.25 E94.30717
G1 X-10.249 Y22.25 E95.15941
G0 F18000 X-10.749 Y22.75
; TYPE:WALL-OUTER
G1 F1554 X-10.749 Y22.75 E95.15941
G1 X-10.749 Y-22.748 E97.051
G1 X10.75 Y-22.748 E97.94483
G1 X10.75 Y22.75 E99.83641
G1 X-10.749 Y22.75 E100.73024
G0 F18000 X-10.489 Y22.4
G0 X-5.254 Y19.128
G0 X-5.254 Y19.128
; TYPE:WALL-INNER
G1 F1776 X-5.254 Y19.128 E100.73024
G1 X-3.456 Y20.538 E100.82523
G1 X-1.353 Y21.435 E100.92029
G1 X0.909 Y21.756 E101.01527
G1 X3.178 Y21.482 E101.11029
G1 X5.299 Y20.629 E101.20534
G1 X7.127 Y19.255 E101.30041
G1 X8.537 Y17.457 E101.39541
G1 X9.434 Y15.354 E101.49046
G1 X9.755 Y13.091 E101.58549
G1 X9.481 Y10.822 E101.68051
G1 X8.628 Y8.701 E101.77555
G1 X7.254 Y6.873 E101.87063
G1 X5.456 Y5.463 E101.96562
G1 X3.353 Y4.566 E102.06068
G1 X1.09 Y4.245 E102.1557
G1 X-1.178 Y4.519 E102.25068
G1 X-3.299 Y5.372 E102.34573
G1 X-5.127 Y6.746 E102.4408
G1 X-6.537 Y8.544 E102.5358
G1 X-7.434 Y10.647 E102.63085
G1 X-7.755 Y12.91 E102.72588
G1 X-7.481 Y15.179 E102.8209
G1 X-6.628 Y17.3 E102.91594
G1 X-5.254 Y19.128 E103.01102
G0 F18000 X-4.608 Y19.387
G0 X-3.429 Y20.493
G0 X-1.339 Y21.384
G0 X0.665 Y21.516
G0 X0.864 Y21.598
G0 X0.864 Y21.598
G0 X0.914 Y21.252
; TYPE:WALL-OUTER
G1 F1554 X0.914 Y21.252 E103.01102
G1 X3.053 Y20.993 E103.10059
G1 X5.052 Y20.19 E103.19016
G1 X6.774 Y18.895 E103.27974
G1 X8.103 Y17.2 E103.36928
G1 X8.948 Y15.219 E103.45882
G1 X9.251 Y13.086 E103.54839
G1 X8.992 Y10.947 E103.63797
G1 X8.189 Y8.948 E103.72754
G1 X6.894 Y7.226 E103.81711
G1 X5.199 Y5.897 E103.90666
G1 X3.218 Y5.052 E103.9962
G1 X1.085 Y4.749 E104.08577
G1 X-1.053 Y5.008 E104.17531
G1 X-3.052 Y5.811 E104.26487
G1 X-4.774 Y7.106 E104.35445
G1 X-6.103 Y8.801 E104.444
G1 X-6.948 Y10.782 E104.53354
G1 X-7.251 Y12.915 E104.62311
G1 X-6.992 Y15.054 E104.71269
G1 X-6.189 Y17.053 E104.80225
G1 X-4.894 Y18.775 E104.89183
G1 X-3.199 Y20.104 E104.98138
G1 X-1.218 Y20.949 E105.07092
G1 X0.914 Y21.252 E105.16045
G1 F6600 E98.36045
G1 Z0.8
G0 F18000 X0.864 Y21.598
G0 X0.865 Y21.709
G0 X0.91 Y21.704
G0 X-1.339 Y21.384
G0 X-3.429 Y20.493
G0 X-5.216 Y19.091
G0 X-6.582 Y17.275
G0 X-7.429 Y15.165
G0 X-7.703 Y12.911
G0 X-7.383 Y10.661
G0 X-6.492 Y8.571
G0 X-5.09 Y6.784
G0 X-3.274 Y5.418
G0 X-1.164 Y4.571
G0 X0.476 Y4.369
G0 X0.283 Y-4.271
G0 X0.283 Y-4.271
; TYPE:WALL-INNER
G1 Z0.5
G1 F6600 E105.26045
G1 F1776 X0.283 Y-4.271 E105.26045
G1 X2.565 Y-4.384 E105.35544
G1 X4.742 Y-5.082 E105.45049
G1 X6.663 Y-6.321 E105.54552
G1 X8.199 Y-8.014 E105.64056
G1 X9.243 Y-10.047 E105.73558
G1 X9.727 Y-12.282 E105.83065
G1 X9.614 Y-14.564 E105.92564
G1 X8.916 Y-16.741 E106.02069
G1 X7.677 Y-18.662 E106.11573
G1 X5.984 Y-20.198 E106.21077
G1 X3.951 Y-21.242 E106.30578
G1 X1.716 Y-21.726 E106.40086
G1 X-0.565 Y-21.613 E106.49581
G1 X-2.742 Y-20.915 E106.59085
G1 X-4.663 Y-19.676 E106.68589
G1 X-6.199 Y-17.983 E106.78093
G1 X-7.243 Y-15.95 E106.87594
G1 X-7.727 Y-13.715 E106.97102
G1 X-7.614 Y-11.433 E107.06601
G1 X-6.916 Y-9.256 E107.16106
G1 X-5.677 Y-7.335 E107.25609
G1 X-3.984 Y-5.799 E107.35113
G1 X-1.951 Y-4.755 E107.44615
G1 X0.283 Y-4.271 E107.54118
G0 F18000 X0.324 Y-4.774
; TYPE:WALL-OUTER
G1 F1554 X0.324 Y-4.774 E107.54118
G1 X2.475 Y-4.88 E107.63072
G1 X4.527 Y-5.538 E107.72031
G1 X6.337 Y-6.706 E107.80987
G1 X7.784 Y-8.301 E107.8994
G1 X8.768 Y-10.217 E107.98895
G1 X9.224 Y-12.323 E108.07854
G1 X9.118 Y-14.474 E108.16807
G1 X8.46 Y-16.526 E108.25767
G1 X7.292 Y-18.336 E108.34722
G1 X5.697 Y-19.783 E108.43676
G1 X3.781 Y-20.767 E108.52631
G1 X1.675 Y-21.223 E108.61589
G1 X-0.475 Y-21.117 E108.70539
G1 X-2.527 Y-20.459 E108.79498
G1 X-4.337 Y-19.291 E108.88454
G1 X-5.784 Y-17.696 E108.97407
G1 X-6.768 Y-15.78 E109.06362
G1 X-7.224 Y-13.674 E109.15321
G1 X-7.118 Y-11.523 E109.24275
G1 X-6.46 Y-9.471 E109.33234
G1 X-5.292 Y-7.661 E109.4219
G1 X-3.697 Y-6.214 E109.51143
G1 X-1.781 Y-5.23 E109.60098
G1 X0.324 Y-4.774 E109.69053
G0 F18000 X0 Y-3.882
; TYPE:FILL
G1 F1776 X0 Y3.934 E110.01548
G0 F18000 X-0.499 Y3.995
G1 F1776 X-0.5 Y-3.99 E110.34746
G0 F18000 X-1 Y-4.099
G1 F1776 X-0.999 Y4.055 E110.68646
G0 F18000 X-1.499 Y4.175
G1 F1776 X-1.5 Y-4.207 E111.03494
G0 F18000 X-2 Y-4.316
G1 F1776 X-1.999 Y4.376 E111.39631
G0 F18000 X-2.499 Y4.577
G1 F1776 X-2.5 Y-4.542 E111.77544
G0 F18000 X-3 Y-4.798
G1 F1776 X-2.999 Y4.778 E112.17356
G0 F18000 X-3.499 Y4.979
G1 F1776 X-3.5 Y-5.055 E112.59073
G0 F18000 X-4 Y-5.311
G1 F1776 X-3.999 Y5.348 E113.03388
G0 F18000 X-4.499 Y5.724
G1 F1776 X-4.5 Y-5.672 E113.50767
G0 F18000 X-5 Y-6.126
G1 F1776 X-4.999 Y6.1 E114.01596
G0 F18000 X-5.499 Y6.508
G1 F1776 X-5.5 Y-6.579 E114.56006
G0 F18000 X-6 Y-7.033
G1 F1776 X-5.999 Y7.145 E115.14951
G0 F18000 X-6.499 Y7.783
G1 F1776 X-6.5 Y-7.799 E115.79734
G0 F18000 X-7 Y-8.575
G1 F1776 X-6.999 Y8.507 E116.50752
G0 F18000 X-7.499 Y9.679
G1 F1776 X-7.5 Y-9.637 E117.31059
G0 F18000 X-8 Y-11.199
G0 X-8 Y-11.199
G1 F1776 X-7.999 Y11.503 E118.25443
G0 F18000 X-7.999 Y14.543
G0 X-7.999 Y14.543
G1 F1776 X-7.999 Y21.81 E118.55656
G0 F18000 X-7.499 Y21.81
G1 F1776 X-7.499 Y16.309 E118.78526
G0 F18000 X-6.999 Y17.538
G1 F1776 X-6.999 Y21.81 E118.96287
G0 F18000 X-6.499 Y21.81
G1 F1776 X-6.499 Y18.202 E119.11287
G0 F18000 X-5.999 Y18.867
G1 F1776 X-5.999 Y21.81 E119.23523
G0 F18000 X-5.499 Y21.81
G1 F1776 X-5.499 Y19.494 E119.33152
G0 F18000 X-4.999 Y19.886
G1 F1776 X-4.999 Y21.81 E119.41151
G0 F18000 X-4.499 Y21.81
G1 F1776 X-4.499 Y20.279 E119.47516
G0 F18000 X-3.999 Y20.671
G1 F1776 X-3.999 Y21.81 E119.52251
G0 F18000 X-3.499 Y21.81
G1 F1776 X-3.249 Y21.104 E119.55627
G1 X-2.749 Y21.81 E119.58116
G1 X-2.249 Y21.531 E119.5972
G1 X-1.999 Y21.81 E119.61278
G0 F18000 X4 Y21.81
G0 X4 Y21.81
G1 F1776 X4.25 Y21.717 E119.62047
G1 X4.75 Y21.323 E119.63651
G1 X5.25 Y21.81 E119.66094
G1 X5.5 Y21.022 E119.69531
G0 F18000 X6 Y20.652
G1 F1776 X6 Y21.81 E119.74346
G0 F18000 X6.5 Y21.81
G1 F1776 X6.5 Y20.276 E119.80723
G0 F18000 X7 Y19.9
G1 F1776 X7 Y21.81 E119.88664
G0 F18000 X7.5 Y21.81
G1 F1776 X7.5 Y19.491 E119.98306
G0 F18000 X8 Y18.854
G1 F1776 X8 Y21.81 E120.10595
G0 F18000 X8.5 Y21.81
G1 F1776 X8.5 Y18.217 E120.25533
G0 F18000 X9 Y17.492
G1 F1776 X9 Y21.81 E120.43485
G0 F18000 X9.5 Y21.81
G1 F1776 X9.5 Y16.318 E120.66318
G0 F18000 X9.5 Y13.264
G0 X9.5 Y12.864
G0 X9.5 Y9.692
G0 X9.5 Y9.692
G1 F1776 X9.499 Y-9.581 E121.46446
G0 F18000 X8.999 Y-8.607
G1 F1776 X9 Y8.464 E122.17419
G0 F18000 X8.5 Y7.799
G1 F1776 X8.499 Y-7.688 E122.81807
G0 F18000 X7.999 Y-7.138
G1 F1776 X8 Y7.134 E123.41143
G0 F18000 X7.5 Y6.507
G1 F1776 X7.499 Y-6.587 E123.95581
G0 F18000 X6.999 Y-6.036
G1 F1776 X7 Y6.114 E124.46095
G0 F18000 X6.5 Y5.722
G1 F1776 X6.499 Y-5.691 E124.93545
G0 F18000 X5.999 Y-5.368
G1 F1776 X6 Y5.33 E125.38022
G0 F18000 X5.5 Y5.002
G1 F1776 X5.499 Y-5.046 E125.79797
G0 F18000 X4.999 Y-4.723
G1 F1776 X5 Y4.789 E126.19343
G0 F18000 X4.5 Y4.576
G1 F1776 X4.499 Y-4.541 E126.57247
G0 F18000 X3.999 Y-4.381
G1 F1776 X4 Y4.363 E126.936
G0 F18000 X3.5 Y4.151
G1 F1776 X3.499 Y-4.221 E127.28407
G0 F18000 X2.999 Y-4.061
G1 F1776 X3 Y4.07 E127.62212
G0 F18000 X2.5 Y4
G1 F1776 X2.499 Y-3.94 E127.95223
G0 F18000 X1.999 Y-3.915
G1 F1776 X2 Y3.929 E128.27834
G0 F18000 X1.5 Y3.859
G1 F1776 X1.499 Y-3.89 E128.60051
G0 F18000 X0.999 Y-3.865
G1 F1776 X1 Y3.814 E128.91976
G0 F18000 X0.5 Y3.874
G1 F1776 X0.499 Y-3.841 E129.24052
G0 F18000 X0.009 Y-4.456
G0 X-1.933 Y-4.804
G0 X-3.953 Y-5.842
G0 X-5.637 Y-7.369
G0 X-6.868 Y-9.278
G0 X-7.562 Y-11.443
G0 X-7.675 Y-13.71
G0 X-7.571 Y-13.989
G0 X-8 Y-14.529
G0 X-8 Y-14.529
G1 F1776 X-8 Y-21.808 E129.54314
G0 F18000 X-7.5 Y-21.808
G1 F1776 X-7.5 Y-16.413 E129.76744
G0 F18000 X-7 Y-17.387
G1 F1776 X-7 Y-21.808 E129.95124
G0 F18000 X-6.5 Y-21.808
G1 F1776 X-6.5 Y-18.307 E130.0968
G0 F18000 X-6 Y-18.857
G1 F1776 X-6 Y-21.808 E130.21949
G0 F18000 X-5.5 Y-21.808
G1 F1776 X-5.5 Y-19.408 E130.31927
G0 F18000 X-5 Y-19.959
G1 F1776 X-5 Y-21.808 E130.39614
G0 F18000 X-4.5 Y-21.808
G1 F1776 X-4.5 Y-20.304 E130.45867
G0 F18000 X-4 Y-20.627
G1 F1776 X-4 Y-21.808 E130.50777
G0 F18000 X-3.5 Y-21.808
G1 F1776 X-3.25 Y-21.111 E130.54342
G1 X-2.75 Y-21.808 E130.56567
G1 X-2.25 Y-21.535 E130.58036
G1 X-2 Y-21.808 E130.59575
G0 F18000 X3.999 Y-21.808
G0 X3.999 Y-21.808
G1 F1776 X4.249 Y-21.745 E130.601
G1 X4.749 Y-21.327 E130.61563
G1 X5.249 Y-21.808 E130.64096
G1 X5.499 Y-20.942 E130.67843
G0 F18000 X5.999 Y-20.686
G1 F1776 X5.999 Y-21.808 E130.72508
G0 F18000 X6.499 Y-21.808
G1 F1776 X6.499 Y-20.325 E130.78673
G0 F18000 X6.999 Y-19.871
G1 F1776 X6.999 Y-21.808 E130.86726
G0 F18000 X7.499 Y-21.808
G1 F1776 X7.499 Y-19.417 E130.96667
G0 F18000 X7.999 Y-18.964
G1 F1776 X7.999 Y-21.808 E131.08491
G0 F18000 X8.499 Y-21.808
G1 F1776 X8.499 Y-18.198 E131.235
G0 F18000 X8.999 Y-17.424
G1 F1776 X8.999 Y-21.808 E131.41726
G0 F18000 X9.499 Y-21.808
G1 F1776 X9.499 Y-16.362 E131.64368
G0 F18000 X8.9 Y-16.542
G0 X7.637 Y-18.628
G0 X5.953 Y-20.155
G0 X3.933 Y-21.193
G0 X1.711 Y-21.674
G0 X-0.555 Y-21.561
G0 X-2.72 Y-20.867
G0 X-3.515 Y-20.299
G0 X-8.5 Y-21.808
G0 X-8.5 Y-21.808
G1 F1776 X-8.499 Y21.81 E133.45711
G0 F18000 X-8.999 Y21.81
G1 F1776 X-9 Y-21.808 E135.27053
G0 F18000 X-9.5 Y-21.808
G1 F1776 X-9.499 Y21.81 E137.08396
; Layer Change GCode
; LAYER:2
G4 P0
M106 S255
G0 F18000 X-10.327 Y22.303 Z0.7
G0 X-10.67 Y22.507
G0 X-10.489 Y22.4
G0 X-10.489 Y22.4
G0 X-10.749 Y22.75
G0 X-10.749 Y22.75
G0 X-10.249 Y22.25
; TYPE:WALL-INNER
G1 F1776 X-10.249 Y22.25 E137.08396
G1 X-10.249 Y-22.248 E138.93397
G1 X10.25 Y-22.248 E139.78622
G1 X10.25 Y22.25 E141.63623
G1 X-10.249 Y22.25 E142.48848
G0 F18000 X-10.749 Y22.75
; TYPE:WALL-OUTER
G1 F1554 X-10.749 Y22.75 E142.48848
G1 X-10.749 Y-22.748 E144.38007
G1 X10.75 Y-22.748 E145.27389
G1 X10.75 Y22.75 E147.16548
G1 X-10.749 Y22.75 E148.0593
G0 F18000 X-10.489 Y22.4
G0 X-5.254 Y19.128
G0 X-5.254 Y19.128
; TYPE:WALL-INNER
G1 F1776 X-5.254 Y19.128 E148.0593
G1 X-3.456 Y20.538 E148.1543
G1 X-1.353 Y21.435 E148.24935
G1 X0.909 Y21.756 E148.34434
G1 X3.178 Y21.482 E148.43936
G1 X5.299 Y20.629 E148.5344
G1 X7.127 Y19.255 E148.62948
G1 X8.537 Y17.457 E148.72447
G1 X9.434 Y15.354 E148.81953
G1 X9.755 Y13.091 E148.91455
G1 X9.481 Y10.822 E149.00957
G1 X8.628 Y8.701 E149.10462
G1 X7.254 Y6.873 E149.19969
G1 X5.456 Y5.463 E149.29469
G1 X3.353 Y4.566 E149.38974
G1 X1.09 Y4.245 E149.48477
G1 X-1.178 Y4.519 E149.57975
G1 X-3.299 Y5.372 E149.67479
G1 X-5.127 Y6.746 E149.76987
G1 X-6.537 Y8.544 E149.86486
G1 X-7.434 Y10.647 E149.95992
G1 X-7.755 Y12.91 E150.05494
G1 X-7.481 Y15.179 E150.14996
G1 X-6.628 Y17.3 E150.24501
G1 X-5.254 Y19.128 E150.34008
G0 F18000 X-4.608 Y19.387
G0 X-3.429 Y20.493
G0 X-1.339 Y21.384
G0 X0.665 Y21.516
G0 X0.864 Y21.598
G0 X0.864 Y21.598
G0 X0.914 Y21.252
; TYPE:WALL-OUTER
G1 F1554 X0.914 Y21.252 E150.34008
G1 X3.053 Y20.993 E150.42966
G1 X5.052 Y20.19 E150.51922
G1 X6.774 Y18.895 E150.6088
G1 X8.103 Y17.2 E150.69835
G1 X8.948 Y15.219 E150.78789
G1 X9.251 Y13.086 E150.87746
G1 X8.992 Y10.947 E150.96704
G1 X8.189 Y8.948 E151.0566
G1 X6.894 Y7.226 E151.14618
G1 X5.199 Y5.897 E151.23573
G1 X3.218 Y5.052 E151.32527
G1 X1.085 Y4.749 E151.41484
G1 X-1.053 Y5.008 E151.50438
G1 X-3.052 Y5.811 E151.59394
G1 X-4.774 Y7.106 E151.68352
G1 X-6.103 Y8.801 E151.77307
G1 X-6.948 Y10.782 E151.86261
G1 X-7.251 Y12.915 E151.95218
G1 X-6.992 Y15.054 E152.04175
G1 X-6.189 Y17.053 E152.13132
G1 X-4.894 Y18.775 E152.2209
G1 X-3.199 Y20.104 E152.31044
G1 X-1.218 Y20.949 E152.39999
G1 X0.914 Y21.252 E152.48951
G1 F6600 E145.68951
G1 Z1
G0 F18000 X0.864 Y21.598
G0 X0.865 Y21.709
G0 X0.91 Y21.704
G0 X-1.339 Y21.384
G0 X-3.429 Y20.493
G0 X-5.216 Y19.091
G0 X-6.582 Y17.275
G0 X-7.429 Y15.165
G0 X-7.703 Y12.911
G0 X-7.383 Y10.661
G0 X-6.492 Y8.571
G0 X-5.09 Y6.784
G0 X-3.274 Y5.418
G0 X-1.164 Y4.571
G0 X0.476 Y4.369
G0 X0.283 Y-4.271
G0 X0.283 Y-4.271
; TYPE:WALL-INNER
G1 Z0.7
G1 F6600 E152.58951
G1 F1776 X0.283 Y-4.271 E152.58951
G1 X2.565 Y-4.384 E152.6845
G1 X4.742 Y-5.082 E152.77955
G1 X6.663 Y-6.321 E152.87459
G1 X8.199 Y-8.014 E152.96963
G1 X9.243 Y-10.047 E153.06464
G1 X9.727 Y-12.282 E153.15972
G1 X9.614 Y-14.564 E153.25471
G1 X8.916 Y-16.741 E153.34976
G1 X7.677 Y-18.662 E153.44479
G1 X5.984 Y-20.198 E153.53983
G1 X3.951 Y-21.242 E153.63485
G1 X1.716 Y-21.726 E153.72992
G1 X-0.565 Y-21.613 E153.82487
G1 X-2.742 Y-20.915 E153.91992
G1 X-4.663 Y-19.676 E154.01496
G1 X-6.199 Y-17.983 E154.10999
G1 X-7.243 Y-15.95 E154.20501
G1 X-7.727 Y-13.715 E154.30008
G1 X-7.614 Y-11.433 E154.39507
G1 X-6.916 Y-9.256 E154.49012
G1 X-5.677 Y-7.335 E154.58516
G1 X-3.984 Y-5.799 E154.6802
G1 X-1.951 Y-4.755 E154.77521
G1 X0.283 Y-4.271 E154.87025
G0 F18000 X0.324 Y-4.774
; TYPE:WALL-OUTER
G1 F1554 X0.324 Y-4.774 E154.87025
G1 X2.475 Y-4.88 E154.95978
G1 X4.527 Y-5.538 E155.04937
G1 X6.337 Y-6.706 E155.13893
G1 X7.784 Y-8.301 E155.22847
G1 X8.768 Y-10.217 E155.31802
G1 X9.224 Y-12.323 E155.4076
G1 X9.118 Y-14.474 E155.49714
G1 X8.46 Y-16.526 E155.58673
G1 X7.292 Y-18.336 E155.67629
G1 X5.697 Y-19.783 E155.76582
G1 X3.781 Y-20.767 E155.85537
G1 X1.675 Y-21.223 E155.94496
G1 X-0.475 Y-21.117 E156.03446
G1 X-2.527 Y-20.459 E156.12405
G1 X-4.337 Y-19.291 E156.2136
G1 X-5.784 Y-17.696 E156.30314
G1 X-6.768 Y-15.78 E156.39269
G1 X-7.224 Y-13.674 E156.48227
G1 X-7.118 Y-11.523 E156.57181
G1 X-6.46 Y-9.471 E156.6614
G1 X-5.292 Y-7.661 E156.75096
G1 X-3.697 Y-6.214 E156.8405
G1 X-1.781 Y-5.23 E156.93005
G1 X0.324 Y-4.774 E157.01959
G0 F18000 X-0.545 Y-4
; TYPE:FILL
G1 F1776 X-9.808 Y-3.999 E157.4047
G0 F18000 X-9.808 Y-3.499
G1 F1776 X9.81 Y-3.5 E158.22032
G0 F18000 X9.81 Y-4
G1 F1776 X2.806 Y-4 E158.51152
G0 F18000 X4.37 Y-4.5
G0 X4.37 Y-4.5
G1 F1776 X9.81 Y-4.5 E158.73768
G0 F18000 X9.81 Y-5
G1 F1776 X5.428 Y-5 E158.91987
G0 F18000 X6.203 Y-5.5
G1 F1776 X9.81 Y-5.5 E159.06983
G0 F18000 X9.81 Y-6
G1 F1776 X6.966 Y-6 E159.18807
G0 F18000 X7.421 Y-6.5
G1 F1776 X9.81 Y-6.5 E159.28739
G0 F18000 X9.81 Y-7
G1 F1776 X7.875 Y-7 E159.36784
G0 F18000 X8.329 Y-7.5
G1 F1776 X9.81 Y-7.5 E159.42941
G0 F18000 X9.81 Y-8
G1 F1776 X8.688 Y-8 E159.47606
G0 F18000 X8.945 Y-8.5
G1 F1776 X9.81 Y-8.5 E159.51202
G0 F18000 X9.81 Y-9
G1 F1776 X9.329 Y-9.25 E159.53731
G1 X9.81 Y-9.75 E159.5519
G1 X9.683 Y-10 E159.56356
G0 F18000 X9.615 Y-16
G0 X9.615 Y-16
G1 F1776 X9.809 Y-16.25 E159.57161
G1 X9.363 Y-16.75 E159.58632
G1 X9.809 Y-17.25 E159.60861
G1 X8.95 Y-17.5 E159.6458
G0 F18000 X8.627 Y-18
G1 F1776 X9.809 Y-18 E159.69494
G0 F18000 X9.809 Y-18.5
G1 F1776 X8.304 Y-18.5 E159.75751
G0 F18000 X7.959 Y-19
G1 F1776 X9.809 Y-19 E159.83443
G0 F18000 X9.809 Y-19.5
G1 F1776 X7.408 Y-19.5 E159.93425
G0 F18000 X6.857 Y-20
G1 F1776 X9.809 Y-20 E160.05698
G0 F18000 X9.809 Y-20.5
G1 F1776 X6.307 Y-20.5 E160.20258
G0 F18000 X5.387 Y-21
G1 F1776 X9.809 Y-21 E160.38642
G0 F18000 X9.809 Y-21.5
G1 F1776 X4.413 Y-21.5 E160.61076
G0 F18000 X2.398 Y-21.5
G0 X1.711 Y-21.674
G0 X1.38 Y-21.5
G0 X-2.36 Y-21.5
G0 X-2.36 Y-21.5
G1 F1776 X-9.808 Y-21.5 E160.92041
G0 F18000 X-9.808 Y-21
G1 F1776 X-3.422 Y-21 E161.18591
G0 F18000 X-4.197 Y-20.5
G1 F1776 X-9.808 Y-20.5 E161.41919
G0 F18000 X-9.808 Y-20
G1 F1776 X-4.963 Y-20 E161.62062
G0 F18000 X-5.417 Y-19.5
G1 F1776 X-9.808 Y-19.5 E161.80318
G0 F18000 X-9.808 Y-19
G1 F1776 X-5.87 Y-19 E161.9669
G0 F18000 X-6.324 Y-18.5
G1 F1776 X-9.808 Y-18.5 E162.11175
G0 F18000 X-9.808 Y-18
G1 F1776 X-6.685 Y-18 E162.24159
G0 F18000 X-6.942 Y-17.5
G1 F1776 X-9.808 Y-17.5 E162.36074
G0 F18000 X-9.808 Y-17
G1 F1776 X-7.199 Y-17 E162.46921
G0 F18000 X-7.455 Y-16.5
G1 F1776 X-9.808 Y-16.5 E162.56704
G0 F18000 X-9.808 Y-16
G1 F1776 X-7.681 Y-16 E162.65547
G0 F18000 X-7.79 Y-15.5
G1 F1776 X-9.808 Y-15.5 E162.73937
G0 F18000 X-9.808 Y-15
G1 F1776 X-7.898 Y-15 E162.81878
G0 F18000 X-8.006 Y-14.5
G1 F1776 X-9.808 Y-14.5 E162.8937
G0 F18000 X-9.808 Y-14
G1 F1776 X-8.115 Y-14 E162.96408
G0 F18000 X-8.156 Y-13.5
G1 F1776 X-9.808 Y-13.5 E163.03276
G0 F18000 X-9.808 Y-13
G1 F1776 X-8.131 Y-13 E163.10249
G0 F18000 X-8.106 Y-12.5
G1 F1776 X-9.808 Y-12.5 E163.17325
G0 F18000 X-9.808 Y-12
G1 F1776 X-8.081 Y-12 E163.24505
G0 F18000 X-8.056 Y-11.5
G1 F1776 X-9.808 Y-11.5 E163.31789
G0 F18000 X-9.808 Y-11
G1 F1776 X-7.936 Y-11 E163.39572
G0 F18000 X-7.776 Y-10.5
G1 F1776 X-9.808 Y-10.5 E163.4802
G0 F18000 X-9.808 Y-10
G1 F1776 X-7.616 Y-10 E163.57133
G0 F18000 X-7.456 Y-9.5
G1 F1776 X-9.808 Y-9.5 E163.66911
G0 F18000 X-9.808 Y-9
G1 F1776 X-7.274 Y-9 E163.77447
G0 F18000 X-6.952 Y-8.5
G1 F1776 X-9.808 Y-8.5 E163.8932
G0 F18000 X-9.808 Y-7.999
G1 F1776 X-6.63 Y-8 E164.02533
G0 F18000 X-6.307 Y-7.5
G1 F1776 X-9.808 Y-7.499 E164.17088
G0 F18000 X-9.808 Y-6.999
G1 F1776 X-5.963 Y-7 E164.33074
G0 F18000 X-5.412 Y-6.5
G1 F1776 X-9.808 Y-6.499 E164.51351
G0 F18000 X-9.808 Y-5.999
G1 F1776 X-4.862 Y-6 E164.71914
G0 F18000 X-4.311 Y-5.5
G1 F1776 X-9.808 Y-5.499 E164.94768
G0 F18000 X-9.808 Y-4.999
G1 F1776 X-3.393 Y-5 E165.21438
G0 F18000 X-2.419 Y-4.5
G1 F1776 X-9.808 Y-4.499 E165.52158
G0 F18000 X-9.808 Y-2.999
G1 F1776 X9.81 Y-3 E166.3372
G0 F18000 X9.81 Y-2.5
G1 F1776 X-9.808 Y-2.499 E167.15282
G0 F18000 X-9.808 Y-1.999
G1 F1776 X9.81 Y-2 E167.96844
G0 F18000 X9.81 Y-1.5
G1 F1776 X-9.808 Y-1.499 E168.78407
G0 F18000 X-9.808 Y-0.999
G1 F1776 X9.81 Y-1 E169.59969
G0 F18000 X9.81 Y-0.5
G1 F1776 X-9.808 Y-0.499 E170.41531
G0 F18000 X-9.808 Y0
G1 F1776 X9.81 Y0 E171.23093
G0 F18000 X9.81 Y0.499
G1 F1776 X-9.809 Y0.5 E172.04659
G0 F18000 X-9.809 Y1
G1 F1776 X9.81 Y0.999 E172.86226
G0 F18000 X9.81 Y1.499
G1 F1776 X-9.809 Y1.5 E173.67792
G0 F18000 X-9.809 Y2
G1 F1776 X9.81 Y1.999 E174.49358
G0 F18000 X9.81 Y2.499
G1 F1776 X-9.809 Y2.5 E175.30925
G0 F18000 X-9.809 Y3
G1 F1776 X9.81 Y2.999 E176.12491
G0 F18000 X9.81 Y3.499
G1 F1776 X-9.809 Y3.5 E176.94057
G0 F18000 X-9.809 Y4
G1 F1776 X-0.542 Y4 E177.32585
G0 F18000 X-2.308 Y4.5
G0 X-2.308 Y4.5
G1 F1776 X-9.809 Y4.5 E177.63771
G0 F18000 X-9.809 Y5
G1 F1776 X-3.536 Y5 E177.89851
G0 F18000 X-4.201 Y5.5
G1 F1776 X-9.809 Y5.5 E178.13166
G0 F18000 X-9.809 Y6
G1 F1776 X-4.866 Y6 E178.33717
G0 F18000 X-5.493 Y6.5
G1 F1776 X-9.809 Y6.5 E178.5166
G0 F18000 X-9.809 Y7
G1 F1776 X-5.885 Y7 E178.67975
G0 F18000 X-6.277 Y7.5
G1 F1776 X-9.809 Y7.5 E178.82659
G0 F18000 X-9.809 Y8
G1 F1776 X-6.669 Y8 E178.95714
G0 F18000 X-6.996 Y8.5
G1 F1776 X-9.809 Y8.5 E179.07409
G0 F18000 X-9.809 Y9
G1 F1776 X-7.209 Y9 E179.18218
G0 F18000 X-7.422 Y9.5
G1 F1776 X-9.809 Y9.5 E179.28142
G0 F18000 X-9.809 Y10
G1 F1776 X-7.635 Y10 E179.37181
G0 F18000 X-7.849 Y10.5
G1 F1776 X-9.809 Y10.5 E179.45329
G0 F18000 X-9.809 Y11
G1 F1776 X-7.928 Y11 E179.5315
G0 F18000 X-7.998 Y11.5
G1 F1776 X-9.809 Y11.5 E179.60679
G0 F18000 X-9.809 Y12
G1 F1776 X-8.069 Y12 E179.67913
G0 F18000 X-8.14 Y12.5
G1 F1776 X-9.809 Y12.5 E179.74852
G0 F18000 X-9.809 Y13
G1 F1776 X-8.185 Y13 E179.81604
G0 F18000 X-8.125 Y13.5
G1 F1776 X-9.809 Y13.5 E179.88605
G0 F18000 X-9.809 Y14
G1 F1776 X-8.065 Y14 E179.95856
G0 F18000 X-8.004 Y14.5
G1 F1776 X-9.809 Y14.5 E180.0336
G0 F18000 X-9.808 Y15
G1 F1776 X-7.944 Y15 E180.1111
G0 F18000 X-7.825 Y15.5
G1 F1776 X-9.808 Y15.5 E180.19354
G0 F18000 X-9.808 Y16
G1 F1776 X-7.624 Y16 E180.28434
G0 F18000 X-7.423 Y16.5
G1 F1776 X-9.808 Y16.5 E180.3835
G0 F18000 X-9.808 Y17
G1 F1776 X-7.222 Y17 E180.49101
G0 F18000 X-7.021 Y17.5
G1 F1776 X-9.808 Y17.5 E180.60688
G0 F18000 X-9.808 Y18
G1 F1776 X-6.651 Y18 E180.73813
G0 F18000 X-6.275 Y18.5
G1 F1776 X-9.808 Y18.5 E180.88502
G0 F18000 X-9.808 Y19
G1 F1776 X-5.899 Y19 E181.04753
G0 F18000 X-5.491 Y19.5
G1 F1776 X-9.808 Y19.5 E181.22701
G0 F18000 X-9.808 Y20
G1 F1776 X-4.854 Y20 E181.43298
G0 F18000 X-4.217 Y20.5
G1 F1776 X-9.808 Y20.5 E181.66542
G0 F18000 X-9.808 Y21
G1 F1776 X-3.494 Y21 E181.92793
G0 F18000 X-2.322 Y21.5
G1 F1776 X-9.808 Y21.5 E182.23916
G0 F18000 X0.745 Y21.5
G0 X1.145 Y21.5
G0 X4.311 Y21.5
G0 X4.311 Y21.5
G1 F1776 X9.809 Y21.5 E182.46774
G0 F18000 X9.809 Y21
G1 F1776 X5.537 Y21 E182.64535
G0 F18000 X6.202 Y20.5
G1 F1776 X9.809 Y20.5 E182.79531
G0 F18000 X9.809 Y20
G1 F1776 X6.867 Y20 E182.91763
G0 F18000 X7.493 Y19.5
G1 F1776 X9.809 Y19.5 E183.01392
G0 F18000 X9.809 Y19
G1 F1776 X7.885 Y19 E183.09391
G0 F18000 X8.278 Y18.5
G1 F1776 X9.809 Y18.5 E183.15756
G0 F18000 X9.809 Y18
G1 F1776 X8.67 Y18 E183.20491
G0 F18000 X8.996 Y17.5
G1 F1776 X9.809 Y17.5 E183.23871
G0 F18000 X9.809 Y17
G1 F1776 X9.316 Y16.75 E183.26362
G1 X9.809 Y16.25 E183.27962
G1 X9.636 Y16 E183.29226
G0 F18000 X9.625 Y10
G0 X9.625 Y10
G1 F1776 X9.81 Y9.75 E183.29994
G1 X9.322 Y9.25 E183.31603
G1 X9.81 Y8.75 E183.34049
G1 X9.021 Y8.5 E183.3749
G0 F18000 X8.651 Y7.999
G1 F1776 X9.81 Y7.999 E183.42309
G0 F18000 X9.81 Y7.499
G1 F1776 X8.275 Y7.499 E183.48691
G0 F18000 X7.899 Y6.999
G1 F1776 X9.81 Y6.999 E183.56636
G0 F18000 X9.81 Y6.499
G1 F1776 X7.491 Y6.499 E183.66277
G0 F18000 X6.854 Y6
G1 F1776 X9.81 Y5.999 E183.78567
G0 F18000 X9.81 Y5.499
G1 F1776 X6.217 Y5.5 E183.93504
G0 F18000 X5.493 Y5
G1 F1776 X9.81 Y4.999 E184.11452
G0 F18000 X9.81 Y4.499
G1 F1776 X4.32 Y4.5 E184.34277
G0 F18000 X2.495 Y4
G0 X2.495 Y4
G1 F1776 X9.81 Y3.999 E184.64689
; Layer Change GCode
; LAYER:3
G1 F6600 E177.84689
G1 Z1
G0 F18000 X6.884 Y6.65 Z1.2
G0 X5.429 Y5.508
G0 X3.339 Y4.617
G0 X1.089 Y4.297
G0 X-1.164 Y4.571
G0 X-3.274 Y5.418
G0 X-5.09 Y6.784
G0 X-6.492 Y8.571
G0 X-7.383 Y10.661
G0 X-7.703 Y12.911
G0 X-7.429 Y15.165
G0 X-6.582 Y17.275
G0 X-5.874 Y18.216
G0 X-10.351 Y22.275
G0 X-10.648 Y22.543
G0 X-10.489 Y22.4
G0 X-10.489 Y22.4
G0 X-10.749 Y22.75
G0 X-10.749 Y22.75
G0 X-10.249 Y22.25
; TYPE:WALL-INNER
G1 Z0.9
G1 F6600 E184.74689
G1 F1776 X-10.249 Y22.25 E184.74689
G1 X-10.249 Y-22.248 E186.59691
G1 X10.25 Y-22.248 E187.44916
G1 X10.25 Y22.25 E189.29917
G1 X-10.249 Y22.25 E190.15142
G0 F18000 X-10.749 Y22.75
; TYPE:WALL-OUTER
G1 F1554 X-10.749 Y22.75 E190.15142
G1 X-10.749 Y-22.748 E192.043
G1 X10.75 Y-22.748 E192.93683
G1 X10.75 Y22.75 E194.82842
G1 X-10.749 Y22.75 E195.72224
G0 F18000 X-10.489 Y22.4
G0 X-5.254 Y19.128
G0 X-5.254 Y19.128
; TYPE:WALL-INNER
G1 F1776 X-5.254 Y19.128 E195.72224
G1 X-3.456 Y20.538 E195.81724
G1 X-1.353 Y21.435 E195.91229
G1 X0.909 Y21.756 E196.00728
G1 X3.178 Y21.482 E196.1023
G1 X5.299 Y20.629 E196.19734
G1 X7.127 Y19.255 E196.29241
G1 X8.537 Y17.457 E196.38741
G1 X9.434 Y15.354 E196.48246
G1 X9.755 Y13.091 E196.57749
G1 X9.481 Y10.822 E196.67251
G1 X8.628 Y8.701 E196.76756
G1 X7.254 Y6.873 E196.86263
G1 X5.456 Y5.463 E196.95763
G1 X3.353 Y4.566 E197.05268
G1 X1.09 Y4.245 E197.14771
G1 X-1.178 Y4.519 E197.24268
G1 X-3.299 Y5.372 E197.33773
G1 X-5.127 Y6.746 E197.4328
G1 X-6.537 Y8.544 E197.5278
G1 X-7.434 Y10.647 E197.62285
G1 X-7.755 Y12.91 E197.71788
G1 X-7.481 Y15.179 E197.8129
G1 X-6.628 Y17.3 E197.90794
G1 X-5.254 Y19.128 E198.00302
G0 F18000 X-4.608 Y19.387
G0 X-3.429 Y20.493
G0 X-1.339 Y21.384
G0 X0.665 Y21.516
G0 X0.864 Y21.598
G0 X0.864 Y21.598
G0 X0.914 Y21.252
; TYPE:WALL-OUTER
G1 F1554 X0.914 Y21.252 E198.00302
G1 X3.053 Y20.993 E198.0926
G1 X5.052 Y20.19 E198.18216
G1 X6.774 Y18.895 E198.27174
G1 X8.103 Y17.2 E198.36129
G1 X8.948 Y15.219 E198.45083
G1 X9.251 Y13.086 E198.5404
G1 X8.992 Y10.947 E198.62998
G1 X8.189 Y8.948 E198.71954
G1 X6.894 Y7.226 E198.80912
G1 X5.199 Y5.897 E198.89867
G1 X3.218 Y5.052 E198.98821
G1 X1.085 Y4.749 E199.07778
G1 X-1.053 Y5.008 E199.16731
G1 X-3.052 Y5.811 E199.25688
G1 X-4.774 Y7.106 E199.34645
G1 X-6.103 Y8.801 E199.436
G1 X-6.948 Y10.782 E199.52554
G1 X-7.251 Y12.915 E199.61511
G1 X-6.992 Y15.054 E199.70469
G1 X-6.189 Y17.053 E199.79426
G1 X-4.894 Y18.775 E199.88383
G1 X-3.199 Y20.104 E199.97338
G1 X-1.218 Y20.949 E200.06292
G1 X0.914 Y21.252 E200.15245
G1 F6600 E193.35245
G1 Z1.2
G0 F18000 X0.864 Y21.598
G0 X0.865 Y21.709
G0 X0.91 Y21.704
G0 X-1.339 Y21.384
G0 X-3.429 Y20.493
G0 X-5.216 Y19.091
G0 X-6.582 Y17.275
G0 X-7.429 Y15.165
G0 X-7.703 Y12.911
G0 X-7.383 Y10.661
G0 X-6.492 Y8.571
G0 X-5.09 Y6.784
G0 X-3.274 Y5.418
G0 X-1.164 Y4.571
G0 X0.476 Y4.369
G0 X0.283 Y-4.271
G0 X0.283 Y-4.271
; TYPE:WALL-INNER
G1 Z0.9
G1 F6600 E200.25245
G1 F1776 X0.283 Y-4.271 E200.25245
G1 X2.565 Y-4.384 E200.34744
G1 X4.742 Y-5.082 E200.44249
G1 X6.663 Y-6.321 E200.53753
G1 X8.199 Y-8.014 E200.63257
G1 X9.243 Y-10.047 E200.72758
G1 X9.727 Y-12.282 E200.82266
G1 X9.614 Y-14.564 E200.91765
G1 X8.916 Y-16.741 E201.01269
G1 X7.677 Y-18.662 E201.10773
G1 X5.984 Y-20.198 E201.20277
G1 X3.951 Y-21.242 E201.29778
G1 X1.716 Y-21.726 E201.39286
G1 X-0.565 Y-21.613 E201.48781
G1 X-2.742 Y-20.915 E201.58286
G1 X-4.663 Y-19.676 E201.67789
G1 X-6.199 Y-17.983 E201.77293
G1 X-7.243 Y-15.95 E201.86795
G1 X-7.727 Y-13.715 E201.96302
G1 X-7.614 Y-11.433 E202.05801
G1 X-6.916 Y-9.256 E202.15306
G1 X-5.677 Y-7.335 E202.2481
G1 X-3.984 Y-5.799 E202.34314
G1 X-1.951 Y-4.755 E202.43815
G1 X0.283 Y-4.271 E202.53318
G0 F18000 X0.324 Y-4.774
; TYPE:WALL-OUTER
G1 F1554 X0.324 Y-4.774 E202.53318
G1 X2.475 Y-4.88 E202.62272
G1 X4.527 Y-5.538 E202.71231
G1 X6.337 Y-6.706 E202.80187
G1 X7.784 Y-8.301 E202.89141
G1 X8.768 Y-10.217 E202.98095
G1 X9.224 Y-12.323 E203.07054
G1 X9.118 Y-14.474 E203.16008
G1 X8.46 Y-16.526 E203.24967
G1 X7.292 Y-18.336 E203.33923
G1 X5.697 Y-19.783 E203.42876
G1 X3.781 Y-20.767 E203.51831
G1 X1.675 Y-21.223 E203.6079
G1 X-0.475 Y-21.117 E203.69739
G1 X-2.527 Y-20.459 E203.78698
G1 X-4.337 Y-19.291 E203.87654
G1 X-5.784 Y-17.696 E203.96608
G1 X-6.768 Y-15.78 E204.05563
G1 X-7.224 Y-13.674 E204.14521
G1 X-7.118 Y-11.523 E204.23475
G1 X-6.46 Y-9.471 E204.32434
G1 X-5.292 Y-7.661 E204.4139
G1 X-3.697 Y-6.214 E204.50343
G1 X-1.781 Y-5.23 E204.59298
G1 X0.324 Y-4.774 E204.68253
G0 F18000 X0 Y-3.882
; TYPE:FILL
G1 F1776 X0 Y3.934 E205.00748
G0 F18000 X-0.499 Y3.995
G1 F1776 X-0.5 Y-3.99 E205.33946
G0 F18000 X-1 Y-4.099
G1 F1776 X-0.999 Y4.055 E205.67846
G0 F18000 X-1.499 Y4.175
G1 F1776 X-1.5 Y-4.207 E206.02694
G0 F18000 X-2 Y-4.316
G1 F1776 X-1.999 Y4.376 E206.38832
G0 F18000 X-2.499 Y4.577
G1 F1776 X-2.5 Y-4.542 E206.76744
G0 F18000 X-3 Y-4.798
G1 F1776 X-2.999 Y4.778 E207.16556
G0 F18000 X-3.499 Y4.979
G1 F1776 X-3.5 Y-5.055 E207.58273
G0 F18000 X-4 Y-5.311
G1 F1776 X-3.999 Y5.348 E208.02588
G0 F18000 X-4.499 Y5.724
G1 F1776 X-4.5 Y-5.672 E208.49967
G0 F18000 X-5 Y-6.126
G1 F1776 X-4.999 Y6.1 E209.00797
G0 F18000 X-5.499 Y6.508
G1 F1776 X-5.5 Y-6.579 E209.55206
G0 F18000 X-6 Y-7.033
G1 F1776 X-5.999 Y7.145 E210.14151
G0 F18000 X-6.499 Y7.783
G1 F1776 X-6.5 Y-7.799 E210.78934
G0 F18000 X-7 Y-8.575
G1 F1776 X-6.999 Y8.507 E211.49953
G0 F18000 X-7.499 Y9.679
G1 F1776 X-7.5 Y-9.637 E212.30259
G0 F18000 X-8 Y-11.199
G0 X-8 Y-11.199
G1 F1776 X-7.999 Y11.503 E213.24643
G0 F18000 X-7.999 Y14.543
G0 X-7.999 Y14.543
G1 F1776 X-7.999 Y21.81 E213.54856
G0 F18000 X-7.499 Y21.81
G1 F1776 X-7.499 Y16.309 E213.77726
G0 F18000 X-6.999 Y17.538
G1 F1776 X-6.999 Y21.81 E213.95487
G0 F18000 X-6.499 Y21.81
G1 F1776 X-6.499 Y18.202 E214.10488
G0 F18000 X-5.999 Y18.867
G1 F1776 X-5.999 Y21.81 E214.22723
G0 F18000 X-5.499 Y21.81
G1 F1776 X-5.499 Y19.494 E214.32352
G0 F18000 X-4.999 Y19.886
G1 F1776 X-4.999 Y21.81 E214.40351
G0 F18000 X-4.499 Y21.81
G1 F1776 X-4.499 Y20.279 E214.46716
G0 F18000 X-3.999 Y20.671
G1 F1776 X-3.999 Y21.81 E214.51452
G0 F18000 X-3.499 Y21.81
G1 F1776 X-3.499 Y20.998 E214.54827
G0 F18000 X-2.999 Y21.211
G1 F1776 X-2.999 Y21.81 E214.57318
G0 F18000 X-2.499 Y21.81
G1 F1776 X-2.249 Y21.531 E214.58925
G1 X-1.999 Y21.81 E214.60483
G0 F18000 X4 Y21.81
G0 X4 Y21.81
G1 F1776 X4.25 Y21.717 E214.61252
G1 X4.75 Y21.323 E214.62856
G1 X5.25 Y21.81 E214.65299
G1 X5.5 Y21.022 E214.68736
G0 F18000 X6 Y20.652
G1 F1776 X6 Y21.81 E214.73551
G0 F18000 X6.5 Y21.81
G1 F1776 X6.5 Y20.276 E214.79929
G0 F18000 X7 Y19.9
G1 F1776 X7 Y21.81 E214.87869
G0 F18000 X7.5 Y21.81
G1 F1776 X7.5 Y19.491 E214.97511
G0 F18000 X8 Y18.854
G1 F1776 X8 Y21.81 E215.098
G0 F18000 X8.5 Y21.81
G1 F1776 X8.5 Y18.217 E215.24738
G0 F18000 X9 Y17.492
G1 F1776 X9 Y21.81 E215.4269
G0 F18000 X9.5 Y21.81
G1 F1776 X9.5 Y16.318 E215.65523
G0 F18000 X9.5 Y13.264
G0 X9.5 Y12.864
G0 X9.5 Y9.692
G0 X9.5 Y9.692
G1 F1776 X9.499 Y-9.581 E216.45651
G0 F18000 X8.999 Y-8.607
G1 F1776 X9 Y8.464 E217.16624
G0 F18000 X8.5 Y7.799
G1 F1776 X8.499 Y-7.688 E217.81012
G0 F18000 X7.999 Y-7.138
G1 F1776 X8 Y7.134 E218.40348
G0 F18000 X7.5 Y6.507
G1 F1776 X7.499 Y-6.587 E218.94786
G0 F18000 X6.999 Y-6.036
G1 F1776 X7 Y6.114 E219.453
G0 F18000 X6.5 Y5.722
G1 F1776 X6.499 Y-5.691 E219.9275
G0 F18000 X5.999 Y-5.368
G1 F1776 X6 Y5.33 E220.37227
G0 F18000 X5.5 Y5.002
G1 F1776 X5.499 Y-5.046 E220.79002
G0 F18000 X4.999 Y-4.723
G1 F1776 X5 Y4.789 E221.18548
G0 F18000 X4.5 Y4.576
G1 F1776 X4.499 Y-4.541 E221.56452
G0 F18000 X3.999 Y-4.381
G1 F1776 X4 Y4.363 E221.92805
G0 F18000 X3.5 Y4.151
G1 F1776 X3.499 Y-4.221 E222.27612
G0 F18000 X2.999 Y-4.061
G1 F1776 X3 Y4.07 E222.61417
G0 F18000 X2.5 Y4
G1 F1776 X2.499 Y-3.94 E222.94428
G0 F18000 X1.999 Y-3.915
G1 F1776 X2 Y3.929 E223.27039
G0 F18000 X1.5 Y3.859
G1 F1776 X1.499 Y-3.89 E223.59256
G0 F18000 X0.999 Y-3.865
G1 F1776 X1 Y3.814 E223.91181
G0 F18000 X0.5 Y3.874
G1 F1776 X0.499 Y-3.841 E224.23257
G0 F18000 X0.009 Y-4.456
G0 X-1.933 Y-4.804
G0 X-3.953 Y-5.842
G0 X-5.637 Y-7.369
G0 X-6.868 Y-9.278
G0 X-7.562 Y-11.443
G0 X-7.675 Y-13.71
G0 X-7.571 Y-13.989
G0 X-8 Y-14.529
G0 X-8 Y-14.529
G1 F1776 X-8 Y-21.808 E224.53519
G0 F18000 X-7.5 Y-21.808
G1 F1776 X-7.5 Y-16.413 E224.75949
G0 F18000 X-7 Y-17.387
G1 F1776 X-7 Y-21.808 E224.94329
G0 F18000 X-6.5 Y-21.808
G1 F1776 X-6.5 Y-18.307 E225.08885
G0 F18000 X-6 Y-18.857
G1 F1776 X-6 Y-21.808 E225.21154
G0 F18000 X-5.5 Y-21.808
G1 F1776 X-5.5 Y-19.408 E225.31132
G0 F18000 X-5 Y-19.959
G1 F1776 X-5 Y-21.808 E225.38819
G0 F18000 X-4.5 Y-21.808
G1 F1776 X-4.5 Y-20.304 E225.45072
G0 F18000 X-4 Y-20.627
G1 F1776 X-4 Y-21.808 E225.49982
G0 F18000 X-3.5 Y-21.808
G1 F1776 X-3.5 Y-20.95 E225.53549
G0 F18000 X-3 Y-21.272
G1 F1776 X-3 Y-21.808 E225.55777
G0 F18000 X-2.5 Y-21.808
G1 F1776 X-2.25 Y-21.535 E225.57246
G1 X-2 Y-21.808 E225.58785
G0 F18000 X3.999 Y-21.808
G0 X3.999 Y-21.808
G1 F1776 X4.249 Y-21.745 E225.5931
G1 X4.749 Y-21.327 E225.60773
G1 X5.249 Y-21.808 E225.63306
G1 X5.499 Y-20.942 E225.67053
G0 F18000 X5.999 Y-20.686
G1 F1776 X5.999 Y-21.808 E225.71718
G0 F18000 X6.499 Y-21.808
G1 F1776 X6.499 Y-20.325 E225.77883
G0 F18000 X6.999 Y-19.871
G1 F1776 X6.999 Y-21.808 E225.85937
G0 F18000 X7.499 Y-21.808
G1 F1776 X7.499 Y-19.417 E225.95877
G0 F18000 X7.999 Y-18.964
G1 F1776 X7.999 Y-21.808 E226.07701
G0 F18000 X8.499 Y-21.808
G1 F1776 X8.499 Y-18.198 E226.2271
G0 F18000 X8.999 Y-17.424
G1 F1776 X8.999 Y-21.808 E226.40936
G0 F18000 X9.499 Y-21.808
G1 F1776 X9.499 Y-16.362 E226.63578
G0 F18000 X8.9 Y-16.542
G0 X7.637 Y-18.628
G0 X5.953 Y-20.155
G0 X3.933 Y-21.193
G0 X1.711 Y-21.674
G0 X-0.555 Y-21.561
G0 X-2.72 Y-20.867
G0 X-3.515 Y-20.299
G0 X-8.5 Y-21.808
G0 X-8.5 Y-21.808
G1 F1776 X-8.499 Y21.81 E228.44921
G0 F18000 X-8.999 Y21.81
G1 F1776 X-9 Y-21.808 E230.26263
G0 F18000 X-9.5 Y-21.808
G1 F1776 X-9.499 Y21.81 E232.07606
; Layer Change GCode
; LAYER:4
G0 F18000 X-10.327 Y22.303 Z1.1
G0 X-10.67 Y22.507
G0 X-10.489 Y22.4
G0 X-10.489 Y22.4
G0 X-10.749 Y22.75
G0 X-10.749 Y22.75
G0 X-10.249 Y22.25
; TYPE:WALL-INNER
G1 F1776 X-10.249 Y22.25 E232.07606
G1 X-10.249 Y-22.248 E233.92607
G1 X10.25 Y-22.248 E234.77832
G1 X10.25 Y22.25 E236.62833
G1 X-10.249 Y22.25 E237.48058
G0 F18000 X-10.749 Y22.75
; TYPE:WALL-OUTER
G1 F1554 X-10.749 Y22.75 E237.48058
G1 X-10.749 Y-22.748 E239.37217
G1 X10.75 Y-22.748 E240.26599
G1 X10.75 Y22.75 E242.15758
G1 X-10.749 Y22.75 E243.0514
G0 F18000 X-10.489 Y22.4
G0 X-5.254 Y19.128
G0 X-5.254 Y19.128
; TYPE:WALL-INNER
G1 F1776 X-5.254 Y19.128 E243.0514
G1 X-3.456 Y20.538 E243.1464
G1 X-1.353 Y21.435 E243.24145
G1 X0.909 Y21.756 E243.33644
G1 X3.178 Y21.482 E243.43146
G1 X5.299 Y20.629 E243.5265
G1 X7.127 Y19.255 E243.62158
G1 X8.537 Y17.457 E243.71657
G1 X9.434 Y15.354 E243.81163
G1 X9.755 Y13.091 E243.90665
G1 X9.481 Y10.822 E244.00167
G1 X8.628 Y8.701 E244.09672
G1 X7.254 Y6.873 E244.19179
G1 X5.456 Y5.463 E244.28679
G1 X3.353 Y4.566 E244.38184
G1 X1.09 Y4.245 E244.47687
G1 X-1.178 Y4.519 E244.57185
G1 X-3.299 Y5.372 E244.66689
G1 X-5.127 Y6.746 E244.76197
G1 X-6.537 Y8.544 E244.85696
G1 X-7.434 Y10.647 E244.95202
G1 X-7.755 Y12.91 E245.04704
G1 X-7.481 Y15.179 E245.14206
G1 X-6.628 Y17.3 E245.23711
G1 X-5.254 Y19.128 E245.33218
G0 F18000 X-4.608 Y19.387
G0 X-3.429 Y20.493
G0 X-1.339 Y21.384
G0 X0.665 Y21.516
G0 X0.864 Y21.598
G0 X0.864 Y21.598
G0 X0.914 Y21.252
; TYPE:WALL-OUTER
G1 F1554 X0.914 Y21.252 E245.33218
G1 X3.053 Y20.993 E245.42176
G1 X5.052 Y20.19 E245.51132
G1 X6.774 Y18.895 E245.6009
G1 X8.103 Y17.2 E245.69045
G1 X8.948 Y15.219 E245.77999
G1 X9.251 Y13.086 E245.86956
G1 X8.992 Y10.947 E245.95914
G1 X8.189 Y8.948 E246.0487
G1 X6.894 Y7.226 E246.13828
G1 X5.199 Y5.897 E246.22783
G1 X3.218 Y5.052 E246.31737
G1 X1.085 Y4.749 E246.40694
G1 X-1.053 Y5.008 E246.49648
G1 X-3.052 Y5.811 E246.58604
G1 X-4.774 Y7.106 E246.67562
G1 X-6.103 Y8.801 E246.76517
G1 X-6.948 Y10.782 E246.85471
G1 X-7.251 Y12.915 E246.94428
G1 X-6.992 Y15.054 E247.03386
G1 X-6.189 Y17.053 E247.12342
G1 X-4.894 Y18.775 E247.213
G1 X-3.199 Y20.104 E247.30255
G1 X-1.218 Y20.949 E247.39209
G1 X0.914 Y21.252 E247.48162
G1 F6600 E240.68162
G1 Z1.4
G0 F18000 X0.864 Y21.598
G0 X0.865 Y21.709
G0 X0.91 Y21.704
G0 X-1.339 Y21.384
G0 X-3.429 Y20.493
G0 X-5.216 Y19.091
G0 X-6.582 Y17.275
G0 X-7.429 Y15.165
G0 X-7.703 Y12.911
G0 X-7.383 Y10.661
G0 X-6.492 Y8.571
G0 X-5.09 Y6.784
G0 X-3.274 Y5.418
G0 X-1.164 Y4.571
G0 X0.476 Y4.369
G0 X0.283 Y-4.271
G0 X0.283 Y-4.271
; TYPE:WALL-INNER
G1 Z1.1
G1 F6600 E247.58162
G1 F1776 X0.283 Y-4.271 E247.58162
G1 X2.565 Y-4.384 E247.67661
G1 X4.742 Y-5.082 E247.77165
G1 X6.663 Y-6.321 E247.86669
G1 X8.199 Y-8.014 E247.96173
G1 X9.243 Y-10.047 E248.05674
G1 X9.727 Y-12.282 E248.15182
G1 X9.614 Y-14.564 E248.24681
G1 X8.916 Y-16.741 E248.34186
G1 X7.677 Y-18.662 E248.43689
G1 X5.984 Y-20.198 E248.53193
G1 X3.951 Y-21.242 E248.62695
G1 X1.716 Y-21.726 E248.72202
G1 X-0.565 Y-21.613 E248.81697
G1 X-2.742 Y-20.915 E248.91202
G1 X-4.663 Y-19.676 E249.00706
G1 X-6.199 Y-17.983 E249.10209
G1 X-7.243 Y-15.95 E249.19711
G1 X-7.727 Y-13.715 E249.29218
G1 X-7.614 Y-11.433 E249.38718
G1 X-6.916 Y-9.256 E249.48222
G1 X-5.677 Y-7.335 E249.57726
G1 X-3.984 Y-5.799 E249.6723
G1 X-1.951 Y-4.755 E249.76731
G1 X0.283 Y-4.271 E249.86235
G0 F18000 X0.324 Y-4.774
; TYPE:WALL-OUTER
G1 F1554 X0.324 Y-4.774 E249.86235
G1 X2.475 Y-4.88 E249.95188
G1 X4.527 Y-5.538 E250.04148
G1 X6.337 Y-6.706 E250.13103
G1 X7.784 Y-8.301 E250.22057
G1 X8.768 Y-10.217 E250.31012
G1 X9.224 Y-12.323 E250.3997
G1 X9.118 Y-14.474 E250.48924
G1 X8.46 Y-16.526 E250.57883
G1 X7.292 Y-18.336 E250.66839
G1 X5.697 Y-19.783 E250.75793
G1 X3.781 Y-20.767 E250.84747
G1 X1.675 Y-21.223 E250.93706
G1 X-0.475 Y-21.117 E251.02656
G1 X-2.527 Y-20.459 E251.11615
G1 X-4.337 Y-19.291 E251.20571
G1 X-5.784 Y-17.696 E251.29524
G1 X-6.768 Y-15.78 E251.38479
G1 X-7.224 Y-13.674 E251.47438
G1 X-7.118 Y-11.523 E251.56391
G1 X-6.46 Y-9.471 E251.6535
G1 X-5.292 Y-7.661 E251.74306
G1 X-3.697 Y-6.214 E251.8326
G1 X-1.781 Y-5.23 E251.92215
G1 X0.324 Y-4.774 E252.01169
G0 F18000 X-0.545 Y-4
; TYPE:FILL
G1 F1776 X-9.808 Y-3.999 E252.3968
G0 F18000 X-9.808 Y-3.499
G1 F1776 X9.81 Y-3.5 E253.21242
G0 F18000 X9.81 Y-4
G1 F1776 X2.806 Y-4 E253.50362
G0 F18000 X4.37 Y-4.5
G0 X4.37 Y-4.5
G1 F1776 X9.81 Y-4.5 E253.72979
G0 F18000 X9.81 Y-5
G1 F1776 X5.428 Y-5 E253.91197
G0 F18000 X6.203 Y-5.5
G1 F1776 X9.81 Y-5.5 E254.06193
G0 F18000 X9.81 Y-6
G1 F1776 X6.966 Y-6 E254.18017
G0 F18000 X7.421 Y-6.5
G1 F1776 X9.81 Y-6.5 E254.27949
G0 F18000 X9.81 Y-7
G1 F1776 X7.875 Y-7 E254.35994
G0 F18000 X8.329 Y-7.5
G1 F1776 X9.81 Y-7.5 E254.42151
G0 F18000 X9.81 Y-8
G1 F1776 X8.688 Y-8 E254.46816
G0 F18000 X8.945 Y-8.5
G1 F1776 X9.81 Y-8.5 E254.50412
G0 F18000 X9.81 Y-9
G1 F1776 X9.201 Y-9 E254.52944
G0 F18000 X9.458 Y-9.5
G1 F1776 X9.81 Y-9.5 E254.54408
G0 F18000 X9.81 Y-10
G1 F1776 X9.683 Y-10 E254.54936
G0 F18000 X9.615 Y-16
G0 X9.615 Y-16
G1 F1776 X9.809 Y-16 E254.55742
G0 F18000 X9.809 Y-16.5
G1 F1776 X9.455 Y-16.5 E254.57214
G0 F18000 X9.272 Y-17
G1 F1776 X9.809 Y-17 E254.59447
G0 F18000 X9.809 Y-17.5
G1 F1776 X8.95 Y-17.5 E254.63018
G0 F18000 X8.627 Y-18
G1 F1776 X9.809 Y-18 E254.67932
G0 F18000 X9.809 Y-18.5
G1 F1776 X8.304 Y-18.5 E254.74189
G0 F18000 X7.959 Y-19
G1 F1776 X9.809 Y-19 E254.81881
G0 F18000 X9.809 Y-19.5
G1 F1776 X7.408 Y-19.5 E254.91863
G0 F18000 X6.857 Y-20
G1 F1776 X9.809 Y-20 E255.04136
G0 F18000 X9.809 Y-20.5
G1 F1776 X6.307 Y-20.5 E255.18695
G0 F18000 X5.387 Y-21
G1 F1776 X9.809 Y-21 E255.3708
G0 F18000 X9.809 Y-21.5
G1 F1776 X4.413 Y-21.5 E255.59514
G0 F18000 X2.398 Y-21.5
G0 X1.711 Y-21.674
G0 X1.38 Y-21.5
G0 X-2.36 Y-21.5
G0 X-2.36 Y-21.5
G1 F1776 X-9.808 Y-21.5 E255.90479
G0 F18000 X-9.808 Y-21
G1 F1776 X-3.422 Y-21 E256.17029
G0 F18000 X-4.197 Y-20.5
G1 F1776 X-9.808 Y-20.5 E256.40357
G0 F18000 X-9.808 Y-20
G1 F1776 X-4.963 Y-20 E256.605
G0 F18000 X-5.417 Y-19.5
G1 F1776 X-9.808 Y-19.5 E256.78756
G0 F18000 X-9.808 Y-19
G1 F1776 X-5.87 Y-19 E256.95128
G0 F18000 X-6.324 Y-18.5
G1 F1776 X-9.808 Y-18.5 E257.09613
G0 F18000 X-9.808 Y-18
G1 F1776 X-6.685 Y-18 E257.22597
G0 F18000 X-6.942 Y-17.5
G1 F1776 X-9.808 Y-17.5 E257.34512
G0 F18000 X-9.808 Y-17
G1 F1776 X-7.199 Y-17 E257.45359
G0 F18000 X-7.455 Y-16.5
G1 F1776 X-9.808 Y-16.5 E257.55142
G0 F18000 X-9.808 Y-16
G1 F1776 X-7.681 Y-16 E257.63985
G0 F18000 X-7.79 Y-15.5
G1 F1776 X-9.808 Y-15.5 E257.72375
G0 F18000 X-9.808 Y-15
G1 F1776 X-7.898 Y-15 E257.80315
G0 F18000 X-8.006 Y-14.5
G1 F1776 X-9.808 Y-14.5 E257.87807
G0 F18000 X-9.808 Y-14
G1 F1776 X-8.115 Y-14 E257.94846
G0 F18000 X-8.156 Y-13.5
G1 F1776 X-9.808 Y-13.5 E258.01714
G0 F18000 X-9.808 Y-13
G1 F1776 X-8.131 Y-13 E258.08686
G0 F18000 X-8.106 Y-12.5
G1 F1776 X-9.808 Y-12.5 E258.15762
G0 F18000 X-9.808 Y-12
G1 F1776 X-8.081 Y-12 E258.22942
G0 F18000 X-8.056 Y-11.5
G1 F1776 X-9.808 Y-11.5 E258.30226
G0 F18000 X-9.808 Y-11
G1 F1776 X-7.936 Y-11 E258.38009
G0 F18000 X-7.776 Y-10.5
G1 F1776 X-9.808 Y-10.5 E258.46457
G0 F18000 X-9.808 Y-10
G1 F1776 X-7.616 Y-10 E258.55571
G0 F18000 X-7.456 Y-9.5
G1 F1776 X-9.808 Y-9.5 E258.65349
G0 F18000 X-9.808 Y-9
G1 F1776 X-7.274 Y-9 E258.75884
G0 F18000 X-6.952 Y-8.5
G1 F1776 X-9.808 Y-8.5 E258.87758
G0 F18000 X-9.808 Y-7.999
G1 F1776 X-6.63 Y-8 E259.00971
G0 F18000 X-6.307 Y-7.5
G1 F1776 X-9.808 Y-7.499 E259.15526
G0 F18000 X-9.808 Y-6.999
G1 F1776 X-5.963 Y-7 E259.31512
G0 F18000 X-5.412 Y-6.5
G1 F1776 X-9.808 Y-6.499 E259.49788
G0 F18000 X-9.808 Y-5.999
G1 F1776 X-4.862 Y-6 E259.70351
G0 F18000 X-4.311 Y-5.5
G1 F1776 X-9.808 Y-5.499 E259.93205
G0 F18000 X-9.808 Y-4.999
G1 F1776 X-3.393 Y-5 E260.19876
G0 F18000 X-2.419 Y-4.5
G1 F1776 X-9.808 Y-4.499 E260.50596
G0 F18000 X-9.808 Y-2.999
G1 F1776 X9.81 Y-3 E261.32158
G0 F18000 X9.81 Y-2.5
G1 F1776 X-9.808 Y-2.499 E262.1372
G0 F18000 X-9.808 Y-1.999
G1 F1776 X9.81 Y-2 E262.95282
G0 F18000 X9.81 Y-1.5
G1 F1776 X-9.808 Y-1.499 E263.76844
G0 F18000 X-9.808 Y-0.999
G1 F1776 X9.81 Y-1 E264.58406
G0 F18000 X9.81 Y-0.5
G1 F1776 X-9.808 Y-0.499 E265.39969
G0 F18000 X-9.808 Y0
G1 F1776 X9.81 Y0 E266.21531
G0 F18000 X9.81 Y0.499
G1 F1776 X-9.809 Y0.5 E267.03097
G0 F18000 X-9.809 Y1
G1 F1776 X9.81 Y0.999 E267.84663
G0 F18000 X9.81 Y1.499
G1 F1776 X-9.809 Y1.5 E268.6623
G0 F18000 X-9.809 Y2
G1 F1776 X9.81 Y1.999 E269.47796
G0 F18000 X9.81 Y2.499
G1 F1776 X-9.809 Y2.5 E270.29362
G0 F18000 X-9.809 Y3
G1 F1776 X9.81 Y2.999 E271.10929
G0 F18000 X9.81 Y3.499
G1 F1776 X-9.809 Y3.5 E271.92495
G0 F18000 X-9.809 Y4
G1 F1776 X-0.542 Y4 E272.31023
G0 F18000 X-2.308 Y4.5
G0 X-2.308 Y4.5
G1 F1776 X-9.809 Y4.5 E272.62208
G0 F18000 X-9.809 Y5
G1 F1776 X-3.536 Y5 E272.88288
G0 F18000 X-4.201 Y5.5
G1 F1776 X-9.809 Y5.5 E273.11604
G0 F18000 X-9.809 Y6
G1 F1776 X-4.866 Y6 E273.32154
G0 F18000 X-5.493 Y6.5
G1 F1776 X-9.809 Y6.5 E273.50098
G0 F18000 X-9.809 Y7
G1 F1776 X-5.885 Y7 E273.66412
G0 F18000 X-6.277 Y7.5
G1 F1776 X-9.809 Y7.5 E273.81097
G0 F18000 X-9.809 Y8
G1 F1776 X-6.669 Y8 E273.94151
G0 F18000 X-6.996 Y8.5
G1 F1776 X-9.809 Y8.5 E274.05846
G0 F18000 X-9.809 Y9
G1 F1776 X-7.209 Y9 E274.16656
G0 F18000 X-7.422 Y9.5
G1 F1776 X-9.809 Y9.5 E274.2658
G0 F18000 X-9.809 Y10
G1 F1776 X-7.635 Y10 E274.35618
G0 F18000 X-7.849 Y10.5
G1 F1776 X-9.809 Y10.5 E274.43767
G0 F18000 X-9.809 Y11
G1 F1776 X-7.928 Y11 E274.51587
G0 F18000 X-7.998 Y11.5
G1 F1776 X-9.809 Y11.5 E274.59117
G0 F18000 X-9.809 Y12
G1 F1776 X-8.069 Y12 E274.66351
G0 F18000 X-8.14 Y12.5
G1 F1776 X-9.809 Y12.5 E274.7329
G0 F18000 X-9.809 Y13
G1 F1776 X-8.185 Y13 E274.80041
G0 F18000 X-8.125 Y13.5
G1 F1776 X-9.809 Y13.5 E274.87043
G0 F18000 X-9.809 Y14
G1 F1776 X-8.065 Y14 E274.94293
G0 F18000 X-8.004 Y14.5
G1 F1776 X-9.809 Y14.5 E275.01798
G0 F18000 X-9.808 Y15
G1 F1776 X-7.944 Y15 E275.09547
G0 F18000 X-7.825 Y15.5
G1 F1776 X-9.808 Y15.5 E275.17792
G0 F18000 X-9.808 Y16
G1 F1776 X-7.624 Y16 E275.26872
G0 F18000 X-7.423 Y16.5
G1 F1776 X-9.808 Y16.5 E275.36787
G0 F18000 X-9.808 Y17
G1 F1776 X-7.222 Y17 E275.47539
G0 F18000 X-7.021 Y17.5
G1 F1776 X-9.808 Y17.5 E275.59126
G0 F18000 X-9.808 Y18
G1 F1776 X-6.651 Y18 E275.72251
G0 F18000 X-6.275 Y18.5
G1 F1776 X-9.808 Y18.5 E275.86939
G0 F18000 X-9.808 Y19
G1 F1776 X-5.899 Y19 E276.03191
G0 F18000 X-5.491 Y19.5
G1 F1776 X-9.808 Y19.5 E276.21139
G0 F18000 X-9.808 Y20
G1 F1776 X-4.854 Y20 E276.41736
G0 F18000 X-4.217 Y20.5
G1 F1776 X-9.808 Y20.5 E276.6498
G0 F18000 X-9.808 Y21
G1 F1776 X-3.494 Y21 E276.91231
G0 F18000 X-2.322 Y21.5
G1 F1776 X-9.808 Y21.5 E277.22354
G0 F18000 X0.745 Y21.5
G0 X1.145 Y21.5
G0 X4.311 Y21.5
G0 X4.311 Y21.5
G1 F1776 X9.809 Y21.5 E277.45212
G0 F18000 X9.809 Y21
G1 F1776 X5.537 Y21 E277.62973
G0 F18000 X6.202 Y20.5
G1 F1776 X9.809 Y20.5 E277.77969
G0 F18000 X9.809 Y20
G1 F1776 X6.867 Y20 E277.902
G0 F18000 X7.493 Y19.5
G1 F1776 X9.809 Y19.5 E277.99829
G0 F18000 X9.809 Y19
G1 F1776 X7.885 Y19 E278.07828
G0 F18000 X8.278 Y18.5
G1 F1776 X9.809 Y18.5 E278.14194
G0 F18000 X9.809 Y18
G1 F1776 X8.67 Y18 E278.18929
G0 F18000 X8.996 Y17.5
G1 F1776 X9.809 Y17.5 E278.22309
G0 F18000 X9.809 Y17
G1 F1776 X9.21 Y17 E278.24799
G0 F18000 X9.423 Y16.5
G1 F1776 X9.809 Y16.5 E278.26404
G0 F18000 X9.809 Y16
G1 F1776 X9.636 Y16 E278.27123
G0 F18000 X9.625 Y10
G0 X9.625 Y10
G1 F1776 X9.81 Y10 E278.27893
G0 F18000 X9.81 Y9.5
G1 F1776 X9.423 Y9.5 E278.29501
G0 F18000 X9.222 Y9
G1 F1776 X9.81 Y9 E278.31946
G0 F18000 X9.81 Y8.5
G1 F1776 X9.021 Y8.5 E278.35226
G0 F18000 X8.651 Y7.999
G1 F1776 X9.81 Y7.999 E278.40045
G0 F18000 X9.81 Y7.499
G1 F1776 X8.275 Y7.499 E278.46427
G0 F18000 X7.899 Y6.999
G1 F1776 X9.81 Y6.999 E278.54372
G0 F18000 X9.81 Y6.499
G1 F1776 X7.491 Y6.499 E278.64013
G0 F18000 X6.854 Y6
G1 F1776 X9.81 Y5.999 E278.76303
G0 F18000 X9.81 Y5.499
G1 F1776 X6.217 Y5.5 E278.91241
G0 F18000 X5.493 Y5
G1 F1776 X9.81 Y4.999 E279.09189
G0 F18000 X9.81 Y4.499
G1 F1776 X4.32 Y4.5 E279.32013
G0 F18000 X2.495 Y4
G0 X2.495 Y4
G1 F1776 X9.81 Y3.999 E279.62426
; Layer Change GCode
; LAYER:5
G1 F6600 E272.82426
G1 Z1.4
G0 F18000 X6.884 Y6.65 Z1.6
G0 X5.429 Y5.508
G0 X3.339 Y4.617
G0 X1.089 Y4.297
G0 X-1.164 Y4.571
G0 X-3.274 Y5.418
G0 X-5.09 Y6.784
G0 X-6.492 Y8.571
G0 X-7.383 Y10.661
G0 X-7.703 Y12.911
G0 X-7.429 Y15.165
G0 X-6.582 Y17.275
G0 X-5.874 Y18.216
G0 X-10.351 Y22.275
G0 X-10.648 Y22.543
G0 X-10.489 Y22.4
G0 X-10.489 Y22.4
G0 X-10.749 Y22.75
G0 X-10.749 Y22.75
G0 X-10.249 Y22.25
; TYPE:WALL-INNER
G1 Z1.3
G1 F6600 E279.72426
G1 F1656 X-10.249 Y22.25 E279.72426
G1 X-10.249 Y-22.248 E281.57427
G1 X10.25 Y-22.248 E282.42652
G1 X10.25 Y22.25 E284.27653
G1 X-10.249 Y22.25 E285.12878
G0 F18000 X-10.749 Y22.75
; TYPE:WALL-OUTER
G1 F1449 X-10.749 Y22.75 E285.12878
G1 X-10.749 Y-22.748 E287.02037
G1 X10.75 Y-22.748 E287.91419
G1 X10.75 Y22.75 E289.80578
G1 X-10.749 Y22.75 E290.6996
G0 F18000 X-10.489 Y22.4
G0 X-5.254 Y19.128
G0 X-5.254 Y19.128
; TYPE:WALL-INNER
G1 F1656 X-5.254 Y19.128 E290.6996
G1 X-3.456 Y20.538 E290.7946
G1 X-1.353 Y21.435 E290.88965
G1 X0.909 Y21.756 E290.98464
G1 X3.178 Y21.482 E291.07966
G1 X5.299 Y20.629 E291.1747
G1 X7.127 Y19.255 E291.26978
G1 X8.537 Y17.457 E291.36477
G1 X9.434 Y15.354 E291.45983
G1 X9.755 Y13.091 E291.55485
G1 X9.481 Y10.822 E291.64987
G1 X8.628 Y8.701 E291.74492
G1 X7.254 Y6.873 E291.83999
G1 X5.456 Y5.463 E291.93499
G1 X3.353 Y4.566 E292.03004
G1 X1.09 Y4.245 E292.12507
G1 X-1.178 Y4.519 E292.22005
G1 X-3.299 Y5.372 E292.31509
G1 X-5.127 Y6.746 E292.41016
G1 X-6.537 Y8.544 E292.50516
G1 X-7.434 Y10.647 E292.60021
G1 X-7.755 Y12.91 E292.69524
G1 X-7.481 Y15.179 E292.79026
G1 X-6.628 Y17.3 E292.88531
G1 X-5.254 Y19.128 E292.98038
G0 F18000 X-4.608 Y19.387
G0 X-3.429 Y20.493
G0 X-1.339 Y21.384
G0 X0.665 Y21.516
G0 X0.864 Y21.598
G0 X0.864 Y21.598
G0 X0.914 Y21.252
; TYPE:WALL-OUTER
G1 F1449 X0.914 Y21.252 E292.98038
G1 X3.053 Y20.993 E293.06996
G1 X5.052 Y20.19 E293.15952
G1 X6.774 Y18.895 E293.2491
G1 X8.103 Y17.2 E293.33865
G1 X8.948 Y15.219 E293.42819
G1 X9.251 Y13.086 E293.51776
G1 X8.992 Y10.947 E293.60734
G1 X8.189 Y8.948 E293.6969
G1 X6.894 Y7.226 E293.78648
G1 X5.199 Y5.897 E293.87603
G1 X3.218 Y5.052 E293.96557
G1 X1.085 Y4.749 E294.05514
G1 X-1.053 Y5.008 E294.14468
G1 X-3.052 Y5.811 E294.23424
G1 X-4.774 Y7.106 E294.32382
G1 X-6.103 Y8.801 E294.41337
G1 X-6.948 Y10.782 E294.50291
G1 X-7.251 Y12.915 E294.59248
G1 X-6.992 Y15.054 E294.68205
G1 X-6.189 Y17.053 E294.77162
G1 X-4.894 Y18.775 E294.8612
G1 X-3.199 Y20.104 E294.95074
G1 X-1.218 Y20.949 E295.04028
G1 X0.914 Y21.252 E295.12981
G1 F6600 E288.32981
G1 Z1.6
G0 F18000 X0.864 Y21.598
G0 X0.865 Y21.709
G0 X0.91 Y21.704
G0 X-1.339 Y21.384
G0 X-3.429 Y20.493
G0 X-5.216 Y19.091
G0 X-6.582 Y17.275
G0 X-7.429 Y15.165
G0 X-7.703 Y12.911
G0 X-7.383 Y10.661
G0 X-6.492 Y8.571
G0 X-5.09 Y6.784
G0 X-3.274 Y5.418
G0 X-1.164 Y4.571
G0 X0.476 Y4.369
G0 X0.283 Y-4.271
G0 X0.283 Y-4.271
; TYPE:WALL-INNER
G1 Z1.3
G1 F6600 E295.22981
G1 F1656 X0.283 Y-4.271 E295.22981
G1 X2.565 Y-4.384 E295.3248
G1 X4.742 Y-5.082 E295.41985
G1 X6.663 Y-6.321 E295.51489
G1 X8.199 Y-8.014 E295.60993
G1 X9.243 Y-10.047 E295.70494
G1 X9.727 Y-12.282 E295.80002
G1 X9.614 Y-14.564 E295.89501
G1 X8.916 Y-16.741 E295.99006
G1 X7.677 Y-18.662 E296.08509
G1 X5.984 Y-20.198 E296.18013
G1 X3.951 Y-21.242 E296.27515
G1 X1.716 Y-21.726 E296.37022
G1 X-0.565 Y-21.613 E296.46517
G1 X-2.742 Y-20.915 E296.56022
G1 X-4.663 Y-19.676 E296.65525
G1 X-6.199 Y-17.983 E296.75029
G1 X-7.243 Y-15.95 E296.84531
G1 X-7.727 Y-13.715 E296.94038
G1 X-7.614 Y-11.433 E297.03537
G1 X-6.916 Y-9.256 E297.13042
G1 X-5.677 Y-7.335 E297.22546
G1 X-3.984 Y-5.799 E297.3205
G1 X-1.951 Y-4.755 E297.41551
G1 X0.283 Y-4.271 E297.51055
G0 F18000 X0.324 Y-4.774
; TYPE:WALL-OUTER
G1 F1449 X0.324 Y-4.774 E297.51055
G1 X2.475 Y-4.88 E297.60008
G1 X4.527 Y-5.538 E297.68967
G1 X6.337 Y-6.706 E297.77923
G1 X7.784 Y-8.301 E297.86877
G1 X8.768 Y-10.217 E297.95832
G1 X9.224 Y-12.323 E298.0479
G1 X9.118 Y-14.474 E298.13744
G1 X8.46 Y-16.526 E298.22703
G1 X7.292 Y-18.336 E298.31659
G1 X5.697 Y-19.783 E298.40612
G1 X3.781 Y-20.767 E298.49567
G1 X1.675 Y-21.223 E298.58526
G1 X-0.475 Y-21.117 E298.67475
G1 X-2.527 Y-20.459 E298.76435
G1 X-4.337 Y-19.291 E298.8539
G1 X-5.784 Y-17.696 E298.94344
G1 X-6.768 Y-15.78 E299.03299
G1 X-7.224 Y-13.674 E299.12257
G1 X-7.118 Y-11.523 E299.21211
G1 X-6.46 Y-9.471 E299.3017
G1 X-5.292 Y-7.661 E299.39126
G1 X-3.697 Y-6.214 E299.4808
G1 X-1.781 Y-5.23 E299.57034
G1 X0.324 Y-4.774 E299.65989
G0 F18000 X0 Y-3.882
; TYPE:FILL
G1 F1656 X0 Y3.934 E299.98484
G0 F18000 X-1.11 Y4.069
G1 F1656 X-1.111 Y-4.123 E300.32543
G0 F18000 X-2.222 Y-4.399
G1 F1656 X-2.221 Y4.465 E300.69395
G0 F18000 X-2.169 Y4.444
G1 F1656 X-9.809 Y4.444 E301.01158
G0 F18000 X-9.809 Y5.555
G1 F1656 X-4.275 Y5.555 E301.24166
G0 F18000 X-4.443 Y5.682
G1 F1656 X-4.444 Y-5.621 E301.71158
G0 F18000 X-4.371 Y-5.555
G1 F1656 X-9.808 Y-5.554 E301.93763
G0 F18000 X-9.808 Y-4.443
G1 F1656 X-2.31 Y-4.444 E302.24936
G0 F18000 X-3.333 Y-4.969
G1 F1656 X-3.332 Y4.912 E302.66016
G0 F18000 X-5.554 Y6.578
G0 X-5.554 Y6.578
G1 F1656 X-5.555 Y-6.629 E303.20925
G0 F18000 X-5.595 Y-6.666
G1 F1656 X-9.808 Y-6.665 E303.3844
G0 F18000 X-9.808 Y-7.776
G1 F1656 X-6.486 Y-7.777 E303.52251
G0 F18000 X-6.666 Y-8.056
G1 F1656 X-6.665 Y7.994 E304.1898
G0 F18000 X-6.494 Y7.777
G1 F1656 X-9.809 Y7.777 E304.32762
G0 F18000 X-9.809 Y8.888
G1 F1656 X-7.161 Y8.888 E304.43771
G0 F18000 X-7.635 Y9.999
G1 F1656 X-9.809 Y9.999 E304.52809
G0 F18000 X-9.809 Y11.11
G1 F1656 X-7.943 Y11.11 E304.60567
G0 F18000 X-7.776 Y10.329
G1 F1656 X-7.777 Y-10.502 E305.47172
G0 F18000 X-7.616 Y-9.999
G1 F1656 X-9.808 Y-9.999 E305.56286
G0 F18000 X-9.808 Y-8.888
G1 F1656 X-7.202 Y-8.888 E305.6712
G0 F18000 X-7.971 Y-11.11
G0 X-7.971 Y-11.11
G1 F1656 X-9.808 Y-11.11 E305.74758
G0 F18000 X-9.808 Y-12.221
G1 F1656 X-8.092 Y-12.221 E305.81892
G0 F18000 X-8.148 Y-13.332
G1 F1656 X-9.808 Y-13.332 E305.88793
G0 F18000 X-9.808 Y-14.443
G1 F1656 X-8.019 Y-14.443 E305.96231
G0 F18000 X-7.778 Y-15.554
G1 F1656 X-9.808 Y-15.554 E306.04671
G0 F18000 X-9.808 Y-16.665
G1 F1656 X-7.37 Y-16.665 E306.14807
G0 F18000 X-7.777 Y-15.558
G1 F1656 X-7.777 Y-21.808 E306.40791
G0 F18000 X-6.666 Y-21.808
G1 F1656 X-6.666 Y-18.037 E306.56469
G0 F18000 X-6.8 Y-17.776
G1 F1656 X-9.808 Y-17.776 E306.68975
G0 F18000 X-9.808 Y-18.887
G1 F1656 X-5.973 Y-18.887 E306.84919
G0 F18000 X-5.555 Y-19.348
G1 F1656 X-5.555 Y-21.808 E306.95147
G0 F18000 X-4.444 Y-21.808
G1 F1656 X-4.444 Y-20.341 E307.01246
G0 F18000 X-4.965 Y-19.998
G1 F1656 X-9.808 Y-19.998 E307.21381
G0 F18000 X-9.808 Y-21.109
G1 F1656 X-3.253 Y-21.109 E307.48633
G0 F18000 X-3.333 Y-21.058
G1 F1656 X-3.333 Y-21.808 E307.51751
G0 F18000 X-2.222 Y-21.808
G1 F1656 X-2.222 Y-21.544 E307.52849
G0 F18000 X1.331 Y-21.511
G0 X1.711 Y-21.674
G0 X2.472 Y-21.501
G0 X4.443 Y-21.484
G0 X4.443 Y-21.484
G1 F1656 X4.443 Y-21.808 E307.54196
G0 F18000 X5.174 Y-21.109
G1 F1656 X9.809 Y-21.109 E307.73466
G0 F18000 X9.809 Y-19.998
G1 F1656 X6.86 Y-19.998 E307.85727
G0 F18000 X6.665 Y-20.175
G1 F1656 X6.665 Y-21.808 E307.92516
G0 F18000 X7.776 Y-21.808
G1 F1656 X7.776 Y-19.166 E308.035
G0 F18000 X8.055 Y-18.887
G1 F1656 X9.809 Y-18.887 E308.10792
G0 F18000 X9.809 Y-17.776
G1 F1656 X8.772 Y-17.776 E308.15104
G0 F18000 X8.887 Y-17.597
G1 F1656 X8.887 Y-21.808 E308.32611
G0 F18000 X5.554 Y-21.808
G1 F1656 X5.554 Y-20.914 E308.36328
G0 F18000 X9.402 Y-16.665
G0 X9.402 Y-16.665
G1 F1656 X9.809 Y-16.665 E308.3802
G0 F18000 X9.81 Y-9.999
G0 X9.81 Y-9.999
G1 F1656 X9.683 Y-9.999 E308.38548
G0 F18000 X9.81 Y-8.888
G1 F1656 X9.144 Y-8.888 E308.41317
G0 F18000 X8.887 Y-8.389
G1 F1656 X8.888 Y8.315 E309.10764
G0 F18000 X9.177 Y8.888
G1 F1656 X9.81 Y8.888 E309.13396
G0 F18000 X9.81 Y9.999
G1 F1656 X9.624 Y9.999 E309.14169
G0 F18000 X9.81 Y7.776
G0 X9.81 Y7.776
G1 F1656 X8.484 Y7.776 E309.19682
G0 F18000 X7.777 Y6.838
G1 F1656 X7.776 Y-6.892 E309.76765
G0 F18000 X7.571 Y-6.666
G1 F1656 X9.81 Y-6.666 E309.86073
G0 F18000 X9.81 Y-7.777
G1 F1656 X8.574 Y-7.777 E309.91212
G0 F18000 X9.81 Y-5.555
G0 X9.81 Y-5.555
G1 F1656 X6.288 Y-5.555 E310.05855
G0 F18000 X6.665 Y-5.798
G1 F1656 X6.666 Y5.852 E310.5429
G0 F18000 X6.287 Y5.555
G1 F1656 X9.81 Y5.554 E310.68937
G0 F18000 X9.81 Y6.665
G1 F1656 X7.648 Y6.665 E310.77925
G0 F18000 X5.555 Y5.026
G0 X5.555 Y5.026
G1 F1656 X5.554 Y-5.081 E311.19945
G0 F18000 X4.443 Y-4.523
G1 F1656 X4.444 Y4.552 E311.57675
G0 F18000 X4.188 Y4.444
G1 F1656 X9.81 Y4.443 E311.81048
G0 F18000 X9.81 Y3.332
G1 F1656 X-9.809 Y3.333 E312.62615
G0 F18000 X-9.809 Y2.222
G1 F1656 X9.81 Y2.221 E313.44181
G0 F18000 X9.81 Y1.11
G1 F1656 X-9.809 Y1.111 E314.25747
G0 F18000 X-9.808 Y0
G1 F1656 X9.81 Y0 E315.07309
G0 F18000 X9.81 Y-1.111
G1 F1656 X-9.808 Y-1.11 E315.88872
G0 F18000 X-9.808 Y-2.221
G1 F1656 X9.81 Y-2.222 E316.70434
G0 F18000 X9.81 Y-3.333
G1 F1656 X-9.808 Y-3.332 E317.51996
G0 F18000 X-9.809 Y6.666
G0 X-9.809 Y6.666
G1 F1656 X-5.623 Y6.666 E317.69399
G0 F18000 X-8.101 Y12.221
G0 X-8.101 Y12.221
G1 F1656 X-9.809 Y12.221 E317.765
G0 F18000 X-9.809 Y13.332
G1 F1656 X-8.145 Y13.332 E317.83418
G0 F18000 X-8.011 Y14.443
G1 F1656 X-9.809 Y14.443 E317.90894
G0 F18000 X-9.808 Y15.554
G1 F1656 X-7.803 Y15.554 E317.99229
G0 F18000 X-7.776 Y15.62
G1 F1656 X-7.776 Y21.81 E318.24964
G0 F18000 X-6.665 Y21.81
G1 F1656 X-6.665 Y17.982 E318.40879
G0 F18000 X-6.82 Y17.776
G1 F1656 X-9.808 Y17.776 E318.53302
G0 F18000 X-9.808 Y18.887
G1 F1656 X-5.984 Y18.887 E318.692
G0 F18000 X-5.554 Y19.451
G1 F1656 X-5.554 Y21.81 E318.79008
G0 F18000 X-4.443 Y21.81
G1 F1656 X-4.443 Y20.323 E318.8519
G0 F18000 X-4.857 Y19.998
G1 F1656 X-9.808 Y19.998 E319.05774
G0 F18000 X-9.808 Y21.109
G1 F1656 X-3.239 Y21.109 E319.33085
G0 F18000 X-3.332 Y21.069
G1 F1656 X-3.332 Y21.81 E319.36166
G0 F18000 X-2.221 Y21.81
G1 F1656 X-2.221 Y21.543 E319.37276
G0 F18000 X0.766 Y21.499
G0 X1.166 Y21.493
G0 X4.444 Y21.446
G0 X4.444 Y21.446
G1 F1656 X4.444 Y21.81 E319.38789
G0 F18000 X5.283 Y21.109
G1 F1656 X9.809 Y21.109 E319.57606
G0 F18000 X9.809 Y19.998
G1 F1656 X6.869 Y19.998 E319.69829
G0 F18000 X6.666 Y20.151
G1 F1656 X6.666 Y21.81 E319.76726
G0 F18000 X5.555 Y21.81
G1 F1656 X5.555 Y20.986 E319.80152
G0 F18000 X7.777 Y21.81
G0 X7.777 Y21.81
G1 F1656 X7.777 Y19.138 E319.91261
G0 F18000 X7.974 Y18.887
G1 F1656 X9.809 Y18.887 E319.9889
G0 F18000 X9.809 Y17.776
G1 F1656 X8.846 Y17.776 E320.02894
G0 F18000 X8.888 Y17.722
G1 F1656 X8.888 Y21.81 E320.1989
G0 F18000 X9.352 Y16.665
G0 X9.352 Y16.665
G1 F1656 X9.809 Y16.665 E320.2179
G0 F18000 X9.261 Y15.605
G0 X9.703 Y13.09
G0 X9.429 Y10.836
G0 X8.582 Y8.726
G0 X7.216 Y6.91
G0 X5.429 Y5.508
G0 X3.71 Y4.851
G0 X3.333 Y4.119
G0 X3.333 Y4.119
G1 F1656 X3.332 Y-4.167 E320.56239
G0 F18000 X4.195 Y-4.444
G1 F1656 X9.81 Y-4.444 E320.79583
G0 F18000 X2.221 Y-3.926
G0 X2.221 Y-3.926
G1 F1656 X2.222 Y3.96 E321.12369
G0 F18000 X1.111 Y3.804
G1 F1656 X1.11 Y-3.871 E321.44278
G1 F6600 E314.64278
G1 Z1.6
G0 F18000 X0.832 Y-4.368
G0 X0.288 Y-4.323
G0 X-1.933 Y-4.804
G0 X-3.953 Y-5.842
G0 X-5.637 Y-7.369
G0 X-6.868 Y-9.278
G0 X-7.562 Y-11.443
G0 X-7.675 Y-13.71
G0 X-7.194 Y-15.932
G0 X-6.417 Y-17.375
G0 X-8.888 Y-21.808
G0 X-8.888 Y-21.808
G1 Z1.3
G1 F6600 E321.54278
G1 F1656 X-8.887 Y21.81 E323.35621
G0 F18000 X-9.808 Y16.665
G0 X-9.808 Y16.665
G1 F1656 X-7.356 Y16.665 E323.45815
; Layer Change GCode
; LAYER:6
G0 F18000 X-10.403 Y22.243 Z1.5
G0 X-10.595 Y22.594
G0 X-10.489 Y22.4
G0 X-10.489 Y22.4
G0 X-10.749 Y22.75
G0 X-10.749 Y22.75
G0 X-10.249 Y22.25
; TYPE:WALL-INNER
G1 F1632 X-10.249 Y22.25 E323.45815
G1 X-10.249 Y-22.248 E325.30816
G1 X10.25 Y-22.248 E326.16041
G1 X10.25 Y22.25 E328.01043
G1 X-10.249 Y22.25 E328.86267
G0 F18000 X-10.749 Y22.75
; TYPE:WALL-OUTER
G1 F1428 X-10.749 Y22.75 E328.86267
G1 X-10.749 Y-22.748 E330.75426
G1 X10.75 Y-22.748 E331.64809
G1 X10.75 Y22.75 E333.53967
G1 X-10.749 Y22.75 E334.4335
G0 F18000 X-10.489 Y22.4
G0 X-5.254 Y19.128
G0 X-5.254 Y19.128
; TYPE:WALL-INNER
G1 F1632 X-5.254 Y19.128 E334.4335
G1 X-3.456 Y20.538 E334.52849
G1 X-1.353 Y21.435 E334.62355
G1 X0.909 Y21.756 E334.71853
G1 X3.178 Y21.482 E334.81355
G1 X5.299 Y20.629 E334.9086
G1 X7.127 Y19.255 E335.00367
G1 X8.537 Y17.457 E335.09867
G1 X9.434 Y15.354 E335.19372
G1 X9.755 Y13.091 E335.28875
G1 X9.481 Y10.822 E335.38377
G1 X8.628 Y8.701 E335.47881
G1 X7.254 Y6.873 E335.57389
G1 X5.456 Y5.463 E335.66888
G1 X3.353 Y4.566 E335.76394
G1 X1.09 Y4.245 E335.85896
G1 X-1.178 Y4.519 E335.95394
G1 X-3.299 Y5.372 E336.04899
G1 X-5.127 Y6.746 E336.14406
G1 X-6.537 Y8.544 E336.23906
G1 X-7.434 Y10.647 E336.33411
G1 X-7.755 Y12.91 E336.42914
G1 X-7.481 Y15.179 E336.52416
G1 X-6.628 Y17.3 E336.6192
G1 X-5.254 Y19.128 E336.71428
G0 F18000 X-4.608 Y19.387
G0 X-3.429 Y20.493
G0 X-1.339 Y21.384
G0 X0.665 Y21.516
G0 X0.864 Y21.598
G0 X0.864 Y21.598
G0 X0.914 Y21.252
; TYPE:WALL-OUTER
G1 F1428 X0.914 Y21.252 E336.71428
G1 X3.053 Y20.993 E336.80385
G1 X5.052 Y20.19 E336.89342
G1 X6.774 Y18.895 E336.983
G1 X8.103 Y17.2 E337.07254
G1 X8.948 Y15.219 E337.16208
G1 X9.251 Y13.086 E337.25165
G1 X8.992 Y10.947 E337.34123
G1 X8.189 Y8.948 E337.4308
G1 X6.894 Y7.226 E337.52037
G1 X5.199 Y5.897 E337.60992
G1 X3.218 Y5.052 E337.69946
G1 X1.085 Y4.749 E337.78903
G1 X-1.053 Y5.008 E337.87857
G1 X-3.052 Y5.811 E337.96813
G1 X-4.774 Y7.106 E338.05771
G1 X-6.103 Y8.801 E338.14726
G1 X-6.948 Y10.782 E338.2368
G1 X-7.251 Y12.915 E338.32637
G1 X-6.992 Y15.054 E338.41595
G1 X-6.189 Y17.053 E338.50551
G1 X-4.894 Y18.775 E338.59509
G1 X-3.199 Y20.104 E338.68464
G1 X-1.218 Y20.949 E338.77418
G1 X0.914 Y21.252 E338.86371
G1 F6600 E332.06371
G1 Z1.8
G0 F18000 X0.864 Y21.598
G0 X0.865 Y21.709
G0 X0.91 Y21.704
G0 X-1.339 Y21.384
G0 X-3.429 Y20.493
G0 X-5.216 Y19.091
G0 X-6.582 Y17.275
G0 X-7.429 Y15.165
G0 X-7.703 Y12.911
G0 X-7.383 Y10.661
G0 X-6.492 Y8.571
G0 X-5.09 Y6.784
G0 X-3.274 Y5.418
G0 X-1.164 Y4.571
G0 X0.476 Y4.369
G0 X0.283 Y-4.271
G0 X0.283 Y-4.271
; TYPE:WALL-INNER
G1 Z1.5
G1 F6600 E338.96371
G1 F1632 X0.283 Y-4.271 E338.96371
G1 X2.565 Y-4.384 E339.0587
G1 X4.742 Y-5.082 E339.15375
G1 X6.663 Y-6.321 E339.24878
G1 X8.199 Y-8.014 E339.34382
G1 X9.243 Y-10.047 E339.43884
G1 X9.727 Y-12.282 E339.53391
G1 X9.614 Y-14.564 E339.6289
G1 X8.916 Y-16.741 E339.72395
G1 X7.677 Y-18.662 E339.81899
G1 X5.984 Y-20.198 E339.91403
G1 X3.951 Y-21.242 E340.00904
G1 X1.716 Y-21.726 E340.10412
G1 X-0.565 Y-21.613 E340.19907
G1 X-2.742 Y-20.915 E340.29411
G1 X-4.663 Y-19.676 E340.38915
G1 X-6.199 Y-17.983 E340.48419
G1 X-7.243 Y-15.95 E340.5792
G1 X-7.727 Y-13.715 E340.67428
G1 X-7.614 Y-11.433 E340.76927
G1 X-6.916 Y-9.256 E340.86432
G1 X-5.677 Y-7.335 E340.95935
G1 X-3.984 Y-5.799 E341.05439
G1 X-1.951 Y-4.755 E341.14941
G1 X0.283 Y-4.271 E341.24444
G0 F18000 X0.324 Y-4.774
; TYPE:WALL-OUTER
G1 F1428 X0.324 Y-4.774 E341.24444
G1 X2.475 Y-4.88 E341.33398
G1 X4.527 Y-5.538 E341.42357
G1 X6.337 Y-6.706 E341.51313
G1 X7.784 Y-8.301 E341.60266
G1 X8.768 Y-10.217 E341.69221
G1 X9.224 Y-12.323 E341.7818
G1 X9.118 Y-14.474 E341.87133
G1 X8.46 Y-16.526 E341.96093
G1 X7.292 Y-18.336 E342.05048
G1 X5.697 Y-19.783 E342.14002
G1 X3.781 Y-20.767 E342.22957
G1 X1.675 Y-21.223 E342.31915
G1 X-0.475 Y-21.117 E342.40865
G1 X-2.527 Y-20.459 E342.49824
G1 X-4.337 Y-19.291 E342.5878
G1 X-5.784 Y-17.696 E342.67733
G1 X-6.768 Y-15.78 E342.76688
G1 X-7.224 Y-13.674 E342.85647
G1 X-7.118 Y-11.523 E342.94601
G1 X-6.46 Y-9.471 E343.0356
G1 X-5.292 Y-7.661 E343.12516
G1 X-3.697 Y-6.214 E343.21469
G1 X-1.781 Y-5.23 E343.30424
G1 X0.324 Y-4.774 E343.39379
G0 F18000 X0 Y-3.882
; TYPE:FILL
G1 F1632 X0 Y3.934 E343.71874
G0 F18000 X-1.11 Y4.069
G1 F1632 X-1.111 Y-4.123 E344.05932
G0 F18000 X-2.222 Y-4.399
G1 F1632 X-2.221 Y4.465 E344.42784
G0 F18000 X-2.169 Y4.444
G1 F1632 X-9.809 Y4.444 E344.74548
G0 F18000 X-9.809 Y5.555
G1 F1632 X-4.275 Y5.555 E344.97555
G0 F18000 X-4.443 Y5.682
G1 F1632 X-4.444 Y-5.621 E345.44548
G0 F18000 X-4.371 Y-5.555
G1 F1632 X-9.808 Y-5.554 E345.67152
G0 F18000 X-9.808 Y-4.443
G1 F1632 X-2.31 Y-4.444 E345.98325
G0 F18000 X-3.333 Y-4.969
G1 F1632 X-3.332 Y4.912 E346.39406
G0 F18000 X-5.554 Y6.578
G0 X-5.554 Y6.578
G1 F1632 X-5.555 Y-6.629 E346.94314
G0 F18000 X-5.595 Y-6.666
G1 F1632 X-9.808 Y-6.665 E347.1183
G0 F18000 X-9.808 Y-7.776
G1 F1632 X-6.486 Y-7.777 E347.25641
G0 F18000 X-6.666 Y-8.056
G1 F1632 X-6.665 Y7.994 E347.92369
G0 F18000 X-6.494 Y7.777
G1 F1632 X-9.809 Y7.777 E348.06151
G0 F18000 X-9.809 Y8.888
G1 F1632 X-7.161 Y8.888 E348.1716
G0 F18000 X-7.635 Y9.999
G1 F1632 X-9.809 Y9.999 E348.26199
G0 F18000 X-9.809 Y11.11
G1 F1632 X-7.943 Y11.11 E348.33957
G0 F18000 X-7.776 Y10.329
G1 F1632 X-7.777 Y-10.502 E349.20562
G0 F18000 X-7.616 Y-9.999
G1 F1632 X-9.808 Y-9.999 E349.29675
G0 F18000 X-9.808 Y-8.888
G1 F1632 X-7.202 Y-8.888 E349.4051
G0 F18000 X-7.971 Y-11.11
G0 X-7.971 Y-11.11
G1 F1632 X-9.808 Y-11.11 E349.48147
G0 F18000 X-9.808 Y-12.221
G1 F1632 X-8.092 Y-12.221 E349.55281
G0 F18000 X-8.148 Y-13.332
G1 F1632 X-9.808 Y-13.332 E349.62183
G0 F18000 X-9.808 Y-14.443
G1 F1632 X-8.019 Y-14.443 E349.69621
G0 F18000 X-7.778 Y-15.554
G1 F1632 X-9.808 Y-15.554 E349.7806
G0 F18000 X-9.808 Y-16.665
G1 F1632 X-7.37 Y-16.665 E349.88197
G0 F18000 X-7.777 Y-15.558
G1 F1632 X-7.777 Y-21.808 E350.14181
G0 F18000 X-6.666 Y-21.808
G1 F1632 X-6.666 Y-18.037 E350.29859
G0 F18000 X-6.8 Y-17.776
G1 F1632 X-9.808 Y-17.776 E350.42365
G0 F18000 X-9.808 Y-18.887
G1 F1632 X-5.973 Y-18.887 E350.58309
G0 F18000 X-5.555 Y-19.348
G1 F1632 X-5.555 Y-21.808 E350.68536
G0 F18000 X-4.444 Y-21.808
G1 F1632 X-4.444 Y-20.341 E350.74635
G0 F18000 X-4.965 Y-19.998
G1 F1632 X-9.808 Y-19.998 E350.9477
G0 F18000 X-9.808 Y-21.109
G1 F1632 X-3.253 Y-21.109 E351.22023
G0 F18000 X-3.333 Y-21.058
G1 F1632 X-3.333 Y-21.808 E351.25141
G0 F18000 X-2.222 Y-21.808
G1 F1632 X-2.222 Y-21.544 E351.26239
G0 F18000 X1.331 Y-21.511
G0 X1.711 Y-21.674
G0 X2.472 Y-21.501
G0 X4.443 Y-21.484
G0 X4.443 Y-21.484
G1 F1632 X4.443 Y-21.808 E351.27586
G0 F18000 X5.174 Y-21.109
G1 F1632 X9.809 Y-21.109 E351.46856
G0 F18000 X9.809 Y-19.998
G1 F1632 X6.86 Y-19.998 E351.59116
G0 F18000 X6.665 Y-20.175
G1 F1632 X6.665 Y-21.808 E351.65905
G0 F18000 X7.776 Y-21.808
G1 F1632 X7.776 Y-19.166 E351.7689
G0 F18000 X8.055 Y-18.887
G1 F1632 X9.809 Y-18.887 E351.84182
G0 F18000 X9.809 Y-17.776
G1 F1632 X8.772 Y-17.776 E351.88493
G0 F18000 X8.887 Y-17.597
G1 F1632 X8.887 Y-21.808 E352.06
G0 F18000 X5.554 Y-21.808
G1 F1632 X5.554 Y-20.914 E352.09717
G0 F18000 X9.402 Y-16.665
G0 X9.402 Y-16.665
G1 F1632 X9.809 Y-16.665 E352.11409
G0 F18000 X9.81 Y-9.999
G0 X9.81 Y-9.999
G1 F1632 X9.683 Y-9.999 E352.11937
G0 F18000 X9.81 Y-8.888
G1 F1632 X9.144 Y-8.888 E352.14706
G0 F18000 X8.887 Y-8.389
G1 F1632 X8.888 Y8.315 E352.84153
G0 F18000 X9.177 Y8.888
G1 F1632 X9.81 Y8.888 E352.86785
G0 F18000 X9.81 Y9.999
G1 F1632 X9.624 Y9.999 E352.87559
G0 F18000 X9.81 Y7.776
G0 X9.81 Y7.776
G1 F1632 X8.484 Y7.776 E352.93071
G0 F18000 X7.777 Y6.838
G1 F1632 X7.776 Y-6.892 E353.50154
G0 F18000 X7.571 Y-6.666
G1 F1632 X9.81 Y-6.666 E353.59463
G0 F18000 X9.81 Y-7.777
G1 F1632 X8.574 Y-7.777 E353.64601
G0 F18000 X9.81 Y-5.555
G0 X9.81 Y-5.555
G1 F1632 X6.288 Y-5.555 E353.79244
G0 F18000 X6.665 Y-5.798
G1 F1632 X6.666 Y5.852 E354.27679
G0 F18000 X6.287 Y5.555
G1 F1632 X9.81 Y5.554 E354.42326
G0 F18000 X9.81 Y6.665
G1 F1632 X7.648 Y6.665 E354.51315
G0 F18000 X5.555 Y5.026
G0 X5.555 Y5.026
G1 F1632 X5.554 Y-5.081 E354.93335
G0 F18000 X4.443 Y-4.523
G1 F1632 X4.444 Y4.552 E355.31064
G0 F18000 X4.188 Y4.444
G1 F1632 X9.81 Y4.443 E355.54438
G0 F18000 X9.81 Y3.332
G1 F1632 X-9.809 Y3.333 E356.36004
G0 F18000 X-9.809 Y2.222
G1 F1632 X9.81 Y2.221 E357.1757
G0 F18000 X9.81 Y1.11
G1 F1632 X-9.809 Y1.111 E357.99137
G0 F18000 X-9.808 Y0
G1 F1632 X9.81 Y0 E358.80699
G0 F18000 X9.81 Y-1.111
G1 F1632 X-9.808 Y-1.11 E359.62261
G0 F18000 X-9.808 Y-2.221
G1 F1632 X9.81 Y-2.222 E360.43823
G0 F18000 X9.81 Y-3.333
G1 F1632 X-9.808 Y-3.332 E361.25385
G0 F18000 X-9.809 Y6.666
G0 X-9.809 Y6.666
G1 F1632 X-5.623 Y6.666 E361.42789
G0 F18000 X-8.101 Y12.221
G0 X-8.101 Y12.221
G1 F1632 X-9.809 Y12.221 E361.4989
G0 F18000 X-9.809 Y13.332
G1 F1632 X-8.145 Y13.332 E361.56808
G0 F18000 X-8.011 Y14.443
G1 F1632 X-9.809 Y14.443 E361.64283
G0 F18000 X-9.808 Y15.554
G1 F1632 X-7.803 Y15.554 E361.72619
G0 F18000 X-7.776 Y15.62
G1 F1632 X-7.776 Y21.81 E361.98354
G0 F18000 X-6.665 Y21.81
G1 F1632 X-6.665 Y17.982 E362.14269
G0 F18000 X-6.82 Y17.776
G1 F1632 X-9.808 Y17.776 E362.26692
G0 F18000 X-9.808 Y18.887
G1 F1632 X-5.984 Y18.887 E362.4259
G0 F18000 X-5.554 Y19.451
G1 F1632 X-5.554 Y21.81 E362.52398
G0 F18000 X-4.443 Y21.81
G1 F1632 X-4.443 Y20.323 E362.5858
G0 F18000 X-4.857 Y19.998
G1 F1632 X-9.808 Y19.998 E362.79164
G0 F18000 X-9.808 Y21.109
G1 F1632 X-3.239 Y21.109 E363.06474
G0 F18000 X-3.332 Y21.069
G1 F1632 X-3.332 Y21.81 E363.09555
G0 F18000 X-2.221 Y21.81
G1 F1632 X-2.221 Y21.543 E363.10665
G0 F18000 X0.766 Y21.499
G0 X1.166 Y21.493
G0 X4.444 Y21.446
G0 X4.444 Y21.446
G1 F1632 X4.444 Y21.81 E363.12179
G0 F18000 X5.283 Y21.109
G1 F1632 X9.809 Y21.109 E363.30995
G0 F18000 X9.809 Y19.998
G1 F1632 X6.869 Y19.998 E363.43219
G0 F18000 X6.666 Y20.151
G1 F1632 X6.666 Y21.81 E363.50116
G0 F18000 X5.555 Y21.81
G1 F1632 X5.555 Y20.986 E363.53542
G0 F18000 X7.777 Y21.81
G0 X7.777 Y21.81
G1 F1632 X7.777 Y19.138 E363.64651
G0 F18000 X7.974 Y18.887
G1 F1632 X9.809 Y18.887 E363.7228
G0 F18000 X9.809 Y17.776
G1 F1632 X8.846 Y17.776 E363.76283
G0 F18000 X8.888 Y17.722
G1 F1632 X8.888 Y21.81 E363.93279
G0 F18000 X9.352 Y16.665
G0 X9.352 Y16.665
G1 F1632 X9.809 Y16.665 E363.95179
G0 F18000 X9.261 Y15.605
G0 X9.703 Y13.09
G0 X9.429 Y10.836
G0 X8.582 Y8.726
G0 X7.216 Y6.91
G0 X5.429 Y5.508
G0 X3.71 Y4.851
G0 X3.333 Y4.119
G0 X3.333 Y4.119
G1 F1632 X3.332 Y-4.167 E364.29628
G0 F18000 X4.195 Y-4.444
G1 F1632 X9.81 Y-4.444 E364.52973
G0 F18000 X2.221 Y-3.926
G0 X2.221 Y-3.926
G1 F1632 X2.222 Y3.96 E364.85759
G0 F18000 X1.111 Y3.804
G1 F1632 X1.11 Y-3.871 E365.17668
G1 F6600 E358.37668
G1 Z1.8
G0 F18000 X0.832 Y-4.368
G0 X0.288 Y-4.323
G0 X-1.933 Y-4.804
G0 X-3.953 Y-5.842
G0 X-5.637 Y-7.369
G0 X-6.868 Y-9.278
G0 X-7.562 Y-11.443
G0 X-7.675 Y-13.71
G0 X-7.194 Y-15.932
G0 X-6.417 Y-17.375
G0 X-8.888 Y-21.808
G0 X-8.888 Y-21.808
G1 Z1.5
G1 F6600 E365.27668
G1 F1632 X-8.887 Y21.81 E367.09011
G0 F18000 X-9.808 Y16.665
G0 X-9.808 Y16.665
G1 F1632 X-7.356 Y16.665 E367.19205
; Layer Change GCode
; LAYER:7
G0 F18000 X-10.403 Y22.243 Z1.7
G0 X-10.595 Y22.594
G0 X-10.489 Y22.4
G0 X-10.489 Y22.4
G0 X-10.749 Y22.75
G0 X-10.749 Y22.75
G0 X-10.249 Y22.25
; TYPE:WALL-INNER
G1 F1632 X-10.249 Y22.25 E367.19205
G1 X-10.249 Y-22.248 E369.04206
G1 X10.25 Y-22.248 E369.89431
G1 X10.25 Y22.25 E371.74432
G1 X-10.249 Y22.25 E372.59657
G0 F18000 X-10.749 Y22.75
; TYPE:WALL-OUTER
G1 F1428 X-10.749 Y22.75 E372.59657
G1 X-10.749 Y-22.748 E374.48816
G1 X10.75 Y-22.748 E375.38198
G1 X10.75 Y22.75 E377.27357
G1 X-10.749 Y22.75 E378.16739
G0 F18000 X-10.489 Y22.4
G0 X-5.254 Y19.128
G0 X-5.254 Y19.128
; TYPE:WALL-INNER
G1 F1632 X-5.254 Y19.128 E378.16739
G1 X-3.456 Y20.538 E378.26239
G1 X-1.353 Y21.435 E378.35744
G1 X0.909 Y21.756 E378.45243
G1 X3.178 Y21.482 E378.54745
G1 X5.299 Y20.629 E378.64249
G1 X7.127 Y19.255 E378.73757
G1 X8.537 Y17.457 E378.83256
G1 X9.434 Y15.354 E378.92762
G1 X9.755 Y13.091 E379.02264
G1 X9.481 Y10.822 E379.11766
G1 X8.628 Y8.701 E379.21271
G1 X7.254 Y6.873 E379.30778
G1 X5.456 Y5.463 E379.40278
G1 X3.353 Y4.566 E379.49783
G1 X1.09 Y4.245 E379.59286
G1 X-1.178 Y4.519 E379.68784
G1 X-3.299 Y5.372 E379.78288
G1 X-5.127 Y6.746 E379.87796
G1 X-6.537 Y8.544 E379.97295
G1 X-7.434 Y10.647 E380.06801
G1 X-7.755 Y12.91 E380.16303
G1 X-7.481 Y15.179 E380.25805
G1 X-6.628 Y17.3 E380.3531
G1 X-5.254 Y19.128 E380.44817
G0 F18000 X-4.608 Y19.387
G0 X-3.429 Y20.493
G0 X-1.339 Y21.384
G0 X0.665 Y21.516
G0 X0.864 Y21.598
G0 X0.864 Y21.598
G0 X0.914 Y21.252
; TYPE:WALL-OUTER
G1 F1428 X0.914 Y21.252 E380.44817
G1 X3.053 Y20.993 E380.53775
G1 X5.052 Y20.19 E380.62731
G1 X6.774 Y18.895 E380.71689
G1 X8.103 Y17.2 E380.80644
G1 X8.948 Y15.219 E380.89598
G1 X9.251 Y13.086 E380.98555
G1 X8.992 Y10.947 E381.07513
G1 X8.189 Y8.948 E381.16469
G1 X6.894 Y7.226 E381.25427
G1 X5.199 Y5.897 E381.34382
G1 X3.218 Y5.052 E381.43336
G1 X1.085 Y4.749 E381.52293
G1 X-1.053 Y5.008 E381.61247
G1 X-3.052 Y5.811 E381.70203
G1 X-4.774 Y7.106 E381.79161
G1 X-6.103 Y8.801 E381.88116
G1 X-6.948 Y10.782 E381.9707
G1 X-7.251 Y12.915 E382.06027
G1 X-6.992 Y15.054 E382.14985
G1 X-6.189 Y17.053 E382.23941
G1 X-4.894 Y18.775 E382.32899
G1 X-3.199 Y20.104 E382.41854
G1 X-1.218 Y20.949 E382.50808
G1 X0.914 Y21.252 E382.5976
G1 F6600 E375.7976
G1 Z2
G0 F18000 X0.864 Y21.598
G0 X0.865 Y21.709
G0 X0.91 Y21.704
G0 X-1.339 Y21.384
G0 X-3.429 Y20.493
G0 X-5.216 Y19.091
G0 X-6.582 Y17.275
G0 X-7.429 Y15.165
G0 X-7.703 Y12.911
G0 X-7.383 Y10.661
G0 X-6.492 Y8.571
G0 X-5.09 Y6.784
G0 X-3.274 Y5.418
G0 X-1.164 Y4.571
G0 X0.476 Y4.369
G0 X0.283 Y-4.271
G0 X0.283 Y-4.271
; TYPE:WALL-INNER
G1 Z1.7
G1 F6600 E382.6976
G1 F1632 X0.283 Y-4.271 E382.6976
G1 X2.565 Y-4.384 E382.7926
G1 X4.742 Y-5.082 E382.88764
G1 X6.663 Y-6.321 E382.98268
G1 X8.199 Y-8.014 E383.07772
G1 X9.243 Y-10.047 E383.17273
G1 X9.727 Y-12.282 E383.26781
G1 X9.614 Y-14.564 E383.3628
G1 X8.916 Y-16.741 E383.45785
G1 X7.677 Y-18.662 E383.55288
G1 X5.984 Y-20.198 E383.64792
G1 X3.951 Y-21.242 E383.74294
G1 X1.716 Y-21.726 E383.83801
G1 X-0.565 Y-21.613 E383.93296
G1 X-2.742 Y-20.915 E384.02801
G1 X-4.663 Y-19.676 E384.12305
G1 X-6.199 Y-17.983 E384.21808
G1 X-7.243 Y-15.95 E384.3131
G1 X-7.727 Y-13.715 E384.40817
G1 X-7.614 Y-11.433 E384.50317
G1 X-6.916 Y-9.256 E384.59821
G1 X-5.677 Y-7.335 E384.69325
G1 X-3.984 Y-5.799 E384.78829
G1 X-1.951 Y-4.755 E384.8833
G1 X0.283 Y-4.271 E384.97834
G0 F18000 X0.324 Y-4.774
; TYPE:WALL-OUTER
G1 F1428 X0.324 Y-4.774 E384.97834
G1 X2.475 Y-4.88 E385.06787
G1 X4.527 Y-5.538 E385.15747
G1 X6.337 Y-6.706 E385.24702
G1 X7.784 Y-8.301 E385.33656
G1 X8.768 Y-10.217 E385.42611
G1 X9.224 Y-12.323 E385.51569
G1 X9.118 Y-14.474 E385.60523
G1 X8.46 Y-16.526 E385.69482
G1 X7.292 Y-18.336 E385.78438
G1 X5.697 Y-19.783 E385.87392
G1 X3.781 Y-20.767 E385.96346
G1 X1.675 Y-21.223 E386.05305
G1 X-0.475 Y-21.117 E386.14255
G1 X-2.527 Y-20.459 E386.23214
G1 X-4.337 Y-19.291 E386.3217
G1 X-5.784 Y-17.696 E386.41123
G1 X-6.768 Y-15.78 E386.50078
G1 X-7.224 Y-13.674 E386.59037
G1 X-7.118 Y-11.523 E386.6799
G1 X-6.46 Y-9.471 E386.76949
G1 X-5.292 Y-7.661 E386.85905
G1 X-3.697 Y-6.214 E386.94859
G1 X-1.781 Y-5.23 E387.03814
G1 X0.324 Y-4.774 E387.12768
G0 F18000 X0 Y-3.882
; TYPE:FILL
G1 F1632 X0 Y3.934 E387.45263
G0 F18000 X-1.11 Y4.069
G1 F1632 X-1.111 Y-4.123 E387.79322
G0 F18000 X-2.222 Y-4.399
G1 F1632 X-2.221 Y4.465 E388.16174
G0 F18000 X-2.169 Y4.444
G1 F1632 X-9.809 Y4.444 E388.47937
G0 F18000 X-9.809 Y5.555
G1 F1632 X-4.275 Y5.555 E388.70945
G0 F18000 X-4.443 Y5.682
G1 F1632 X-4.444 Y-5.621 E389.17937
G0 F18000 X-4.371 Y-5.555
G1 F1632 X-9.808 Y-5.554 E389.40542
G0 F18000 X-9.808 Y-4.443
G1 F1632 X-2.31 Y-4.444 E389.71715
G0 F18000 X-3.333 Y-4.969
G1 F1632 X-3.332 Y4.912 E390.12795
G0 F18000 X-5.554 Y6.578
G0 X-5.554 Y6.578
G1 F1632 X-5.555 Y-6.629 E390.67704
G0 F18000 X-5.595 Y-6.666
G1 F1632 X-9.808 Y-6.665 E390.85219
G0 F18000 X-9.808 Y-7.776
G1 F1632 X-6.486 Y-7.777 E390.99031
G0 F18000 X-6.666 Y-8.056
G1 F1632 X-6.665 Y7.994 E391.65759
G0 F18000 X-6.494 Y7.777
G1 F1632 X-9.809 Y7.777 E391.79541
G0 F18000 X-9.809 Y8.888
G1 F1632 X-7.161 Y8.888 E391.9055
G0 F18000 X-7.635 Y9.999
G1 F1632 X-9.809 Y9.999 E391.99588
G0 F18000 X-9.809 Y11.11
G1 F1632 X-7.943 Y11.11 E392.07346
G0 F18000 X-7.776 Y10.329
G1 F1632 X-7.777 Y-10.502 E392.93952
G0 F18000 X-7.616 Y-9.999
G1 F1632 X-9.808 Y-9.999 E393.03065
G0 F18000 X-9.808 Y-8.888
G1 F1632 X-7.202 Y-8.888 E393.13899
G0 F18000 X-7.971 Y-11.11
G0 X-7.971 Y-11.11
G1 F1632 X-9.808 Y-11.11 E393.21537
G0 F18000 X-9.808 Y-12.221
G1 F1632 X-8.092 Y-12.221 E393.28671
G0 F18000 X-8.148 Y-13.332
G1 F1632 X-9.808 Y-13.332 E393.35572
G0 F18000 X-9.808 Y-14.443
G1 F1632 X-8.019 Y-14.443 E393.4301
G0 F18000 X-7.778 Y-15.554
G1 F1632 X-9.808 Y-15.554 E393.5145
G0 F18000 X-9.808 Y-16.665
G1 F1632 X-7.37 Y-16.665 E393.61586
G0 F18000 X-7.777 Y-15.558
G1 F1632 X-7.777 Y-21.808 E393.87571
G0 F18000 X-6.666 Y-21.808
G1 F1632 X-6.666 Y-18.037 E394.03249
G0 F18000 X-6.8 Y-17.776
G1 F1632 X-9.808 Y-17.776 E394.15754
G0 F18000 X-9.808 Y-18.887
G1 F1632 X-5.973 Y-18.887 E394.31698
G0 F18000 X-5.555 Y-19.348
G1 F1632 X-5.555 Y-21.808 E394.41926
G0 F18000 X-4.444 Y-21.808
G1 F1632 X-4.444 Y-20.341 E394.48025
G0 F18000 X-4.965 Y-19.998
G1 F1632 X-9.808 Y-19.998 E394.6816
G0 F18000 X-9.808 Y-21.109
G1 F1632 X-3.253 Y-21.109 E394.95412
G0 F18000 X-3.333 Y-21.058
G1 F1632 X-3.333 Y-21.808 E394.98531
G0 F18000 X-2.222 Y-21.808
G1 F1632 X-2.222 Y-21.544 E394.99628
G0 F18000 X1.331 Y-21.511
G0 X1.711 Y-21.674
G0 X2.472 Y-21.501
G0 X4.443 Y-21.484
G0 X4.443 Y-21.484
G1 F1632 X4.443 Y-21.808 E395.00975
G0 F18000 X5.174 Y-21.109
G1 F1632 X9.809 Y-21.109 E395.20245
G0 F18000 X9.809 Y-19.998
G1 F1632 X6.86 Y-19.998 E395.32506
G0 F18000 X6.665 Y-20.175
G1 F1632 X6.665 Y-21.808 E395.39295
G0 F18000 X7.776 Y-21.808
G1 F1632 X7.776 Y-19.166 E395.50279
G0 F18000 X8.055 Y-18.887
G1 F1632 X9.809 Y-18.887 E395.57571
G0 F18000 X9.809 Y-17.776
G1 F1632 X8.772 Y-17.776 E395.61883
G0 F18000 X8.887 Y-17.597
G1 F1632 X8.887 Y-21.808 E395.7939
G0 F18000 X5.554 Y-21.808
G1 F1632 X5.554 Y-20.914 E395.83107
G0 F18000 X9.402 Y-16.665
G0 X9.402 Y-16.665
G1 F1632 X9.809 Y-16.665 E395.84799
G0 F18000 X9.81 Y-9.999
G0 X9.81 Y-9.999
G1 F1632 X9.683 Y-9.999 E395.85327
G0 F18000 X9.81 Y-8.888
G1 F1632 X9.144 Y-8.888 E395.88096
G0 F18000 X8.887 Y-8.389
G1 F1632 X8.888 Y8.315 E396.57543
G0 F18000 X9.177 Y8.888
G1 F1632 X9.81 Y8.888 E396.60175
G0 F18000 X9.81 Y9.999
G1 F1632 X9.624 Y9.999 E396.60948
G0 F18000 X9.81 Y7.776
G0 X9.81 Y7.776
G1 F1632 X8.484 Y7.776 E396.66461
G0 F18000 X7.777 Y6.838
G1 F1632 X7.776 Y-6.892 E397.23544
G0 F18000 X7.571 Y-6.666
G1 F1632 X9.81 Y-6.666 E397.32852
G0 F18000 X9.81 Y-7.777
G1 F1632 X8.574 Y-7.777 E397.37991
G0 F18000 X9.81 Y-5.555
G0 X9.81 Y-5.555
G1 F1632 X6.288 Y-5.555 E397.52634
G0 F18000 X6.665 Y-5.798
G1 F1632 X6.666 Y5.852 E398.01069
G0 F18000 X6.287 Y5.555
G1 F1632 X9.81 Y5.554 E398.15716
G0 F18000 X9.81 Y6.665
G1 F1632 X7.648 Y6.665 E398.24704
G0 F18000 X5.555 Y5.026
G0 X5.555 Y5.026
G1 F1632 X5.554 Y-5.081 E398.66724
G0 F18000 X4.443 Y-4.523
G1 F1632 X4.444 Y4.552 E399.04454
G0 F18000 X4.188 Y4.444
G1 F1632 X9.81 Y4.443 E399.27827
G0 F18000 X9.81 Y3.332
G1 F1632 X-9.809 Y3.333 E400.09394
G0 F18000 X-9.809 Y2.222
G1 F1632 X9.81 Y2.221 E400.9096
G0 F18000 X9.81 Y1.11
G1 F1632 X-9.809 Y1.111 E401.72526
G0 F18000 X-9.808 Y0
G1 F1632 X9.81 Y0 E402.54089
G0 F18000 X9.81 Y-1.111
G1 F1632 X-9.808 Y-1.11 E403.35651
G0 F18000 X-9.808 Y-2.221
G1 F1632 X9.81 Y-2.222 E404.17213
G0 F18000 X9.81 Y-3.333
G1 F1632 X-9.808 Y-3.332 E404.98775
G0 F18000 X-9.809 Y6.666
G0 X-9.809 Y6.666
G1 F1632 X-5.623 Y6.666 E405.16178
G0 F18000 X-8.101 Y12.221
G0 X-8.101 Y12.221
G1 F1632 X-9.809 Y12.221 E405.23279
G0 F18000 X-9.809 Y13.332
G1 F1632 X-8.145 Y13.332 E405.30198
G0 F18000 X-8.011 Y14.443
G1 F1632 X-9.809 Y14.443 E405.37673
G0 F18000 X-9.808 Y15.554
G1 F1632 X-7.803 Y15.554 E405.46009
G0 F18000 X-7.776 Y15.62
G1 F1632 X-7.776 Y21.81 E405.71744
G0 F18000 X-6.665 Y21.81
G1 F1632 X-6.665 Y17.982 E405.87659
G0 F18000 X-6.82 Y17.776
G1 F1632 X-9.808 Y17.776 E406.00081
G0 F18000 X-9.808 Y18.887
G1 F1632 X-5.984 Y18.887 E406.1598
G0 F18000 X-5.554 Y19.451
G1 F1632 X-5.554 Y21.81 E406.25787
G0 F18000 X-4.443 Y21.81
G1 F1632 X-4.443 Y20.323 E406.31969
G0 F18000 X-4.857 Y19.998
G1 F1632 X-9.808 Y19.998 E406.52553
G0 F18000 X-9.808 Y21.109
G1 F1632 X-3.239 Y21.109 E406.79864
G0 F18000 X-3.332 Y21.069
G1 F1632 X-3.332 Y21.81 E406.82945
G0 F18000 X-2.221 Y21.81
G1 F1632 X-2.221 Y21.543 E406.84055
G0 F18000 X0.766 Y21.499
G0 X1.166 Y21.493
G0 X4.444 Y21.446
G0 X4.444 Y21.446
G1 F1632 X4.444 Y21.81 E406.85568
G0 F18000 X5.283 Y21.109
G1 F1632 X9.809 Y21.109 E407.04385
G0 F18000 X9.809 Y19.998
G1 F1632 X6.869 Y19.998 E407.16608
G0 F18000 X6.666 Y20.151
G1 F1632 X6.666 Y21.81 E407.23505
G0 F18000 X5.555 Y21.81
G1 F1632 X5.555 Y20.986 E407.26931
G0 F18000 X7.777 Y21.81
G0 X7.777 Y21.81
G1 F1632 X7.777 Y19.138 E407.3804
G0 F18000 X7.974 Y18.887
G1 F1632 X9.809 Y18.887 E407.45669
G0 F18000 X9.809 Y17.776
G1 F1632 X8.846 Y17.776 E407.49673
G0 F18000 X8.888 Y17.722
G1 F1632 X8.888 Y21.81 E407.66669
G0 F18000 X9.352 Y16.665
G0 X9.352 Y16.665
G1 F1632 X9.809 Y16.665 E407.68569
G0 F18000 X9.261 Y15.605
G0 X9.703 Y13.09
G0 X9.429 Y10.836
G0 X8.582 Y8.726
G0 X7.216 Y6.91
G0 X5.429 Y5.508
G0 X3.71 Y4.851
G0 X3.333 Y4.119
G0 X3.333 Y4.119
G1 F1632 X3.332 Y-4.167 E408.03018
G0 F18000 X4.195 Y-4.444
G1 F1632 X9.81 Y-4.444 E408.26362
G0 F18000 X2.221 Y-3.926
G0 X2.221 Y-3.926
G1 F1632 X2.222 Y3.96 E408.59149
G0 F18000 X1.111 Y3.804
G1 F1632 X1.11 Y-3.871 E408.91058
G1 F6600 E402.11058
G1 Z2
G0 F18000 X0.832 Y-4.368
G0 X0.288 Y-4.323
G0 X-1.933 Y-4.804
G0 X-3.953 Y-5.842
G0 X-5.637 Y-7.369
G0 X-6.868 Y-9.278
G0 X-7.562 Y-11.443
G0 X-7.675 Y-13.71
G0 X-7.194 Y-15.932
G0 X-6.417 Y-17.375
G0 X-8.888 Y-21.808
G0 X-8.888 Y-21.808
G1 Z1.7
G1 F6600 E409.01058
G1 F1632 X-8.887 Y21.81 E410.824
G0 F18000 X-9.808 Y16.665
G0 X-9.808 Y16.665
G1 F1632 X-7.356 Y16.665 E410.92594
; Layer Change GCode
; LAYER:8
G0 F18000 X-10.403 Y22.243 Z1.9
G0 X-10.595 Y22.594
G0 X-10.489 Y22.4
G0 X-10.489 Y22.4
G0 X-10.749 Y22.75
G0 X-10.749 Y22.75
G0 X-10.249 Y22.25
; TYPE:WALL-INNER
G1 F1632 X-10.249 Y22.25 E410.92594
G1 X-10.249 Y-22.248 E412.77596
G1 X10.25 Y-22.248 E413.6282
G1 X10.25 Y22.25 E415.47822
G1 X-10.249 Y22.25 E416.33047
G0 F18000 X-10.749 Y22.75
; TYPE:WALL-OUTER
G1 F1428 X-10.749 Y22.75 E416.33047
G1 X-10.749 Y-22.748 E418.22205
G1 X10.75 Y-22.748 E419.11588
G1 X10.75 Y22.75 E421.00746
G1 X-10.749 Y22.75 E421.90129
G0 F18000 X-10.489 Y22.4
G0 X-5.254 Y19.128
G0 X-5.254 Y19.128
; TYPE:WALL-INNER
G1 F1632 X-5.254 Y19.128 E421.90129
G1 X-3.456 Y20.538 E421.99629
G1 X-1.353 Y21.435 E422.09134
G1 X0.909 Y21.756 E422.18632
G1 X3.178 Y21.482 E422.28134
G1 X5.299 Y20.629 E422.37639
G1 X7.127 Y19.255 E422.47146
G1 X8.537 Y17.457 E422.56646
G1 X9.434 Y15.354 E422.66151
G1 X9.755 Y13.091 E422.75654
G1 X9.481 Y10.822 E422.85156
G1 X8.628 Y8.701 E422.9466
G1 X7.254 Y6.873 E423.04168
G1 X5.456 Y5.463 E423.13667
G1 X3.353 Y4.566 E423.23173
G1 X1.09 Y4.245 E423.32675
G1 X-1.178 Y4.519 E423.42173
G1 X-3.299 Y5.372 E423.51678
G1 X-5.127 Y6.746 E423.61185
G1 X-6.537 Y8.544 E423.70685
G1 X-7.434 Y10.647 E423.8019
G1 X-7.755 Y12.91 E423.89693
G1 X-7.481 Y15.179 E423.99195
G1 X-6.628 Y17.3 E424.08699
G1 X-5.254 Y19.128 E424.18207
G0 F18000 X-4.608 Y19.387
G0 X-3.429 Y20.493
G0 X-1.339 Y21.384
G0 X0.665 Y21.516
G0 X0.864 Y21.598
G0 X0.864 Y21.598
G0 X0.914 Y21.252
; TYPE:WALL-OUTER
G1 F1428 X0.914 Y21.252 E424.18207
G1 X3.053 Y20.993 E424.27165
G1 X5.052 Y20.19 E424.36121
G1 X6.774 Y18.895 E424.45079
G1 X8.103 Y17.2 E424.54034
G1 X8.948 Y15.219 E424.62988
G1 X9.251 Y13.086 E424.71945
G1 X8.992 Y10.947 E424.80902
G1 X8.189 Y8.948 E424.89859
G1 X6.894 Y7.226 E424.98817
G1 X5.199 Y5.897 E425.07771
G1 X3.218 Y5.052 E425.16725
G1 X1.085 Y4.749 E425.25682
G1 X-1.053 Y5.008 E425.34636
G1 X-3.052 Y5.811 E425.43593
G1 X-4.774 Y7.106 E425.5255
G1 X-6.103 Y8.801 E425.61505
G1 X-6.948 Y10.782 E425.70459
G1 X-7.251 Y12.915 E425.79416
G1 X-6.992 Y15.054 E425.88374
G1 X-6.189 Y17.053 E425.9733
G1 X-4.894 Y18.775 E426.06288
G1 X-3.199 Y20.104 E426.15243
G1 X-1.218 Y20.949 E426.24197
G1 X0.914 Y21.252 E426.3315
G1 F6600 E419.5315
G1 Z2.2
G0 F18000 X0.864 Y21.598
G0 X0.865 Y21.709
G0 X0.91 Y21.704
G0 X-1.339 Y21.384
G0 X-3.429 Y20.493
G0 X-5.216 Y19.091
G0 X-6.582 Y17.275
G0 X-7.429 Y15.165
G0 X-7.703 Y12.911
G0 X-7.383 Y10.661
G0 X-6.492 Y8.571
G0 X-5.09 Y6.784
G0 X-3.274 Y5.418
G0 X-1.164 Y4.571
G0 X0.476 Y4.369
G0 X0.283 Y-4.271
G0 X0.283 Y-4.271
; TYPE:WALL-INNER
G1 Z1.9
G1 F6600 E426.4315
G1 F1632 X0.283 Y-4.271 E426.4315
G1 X2.565 Y-4.384 E426.52649
G1 X4.742 Y-5.082 E426.62154
G1 X6.663 Y-6.321 E426.71658
G1 X8.199 Y-8.014 E426.81161
G1 X9.243 Y-10.047 E426.90663
G1 X9.727 Y-12.282 E427.0017
G1 X9.614 Y-14.564 E427.09669
G1 X8.916 Y-16.741 E427.19174
G1 X7.677 Y-18.662 E427.28678
G1 X5.984 Y-20.198 E427.38182
G1 X3.951 Y-21.242 E427.47683
G1 X1.716 Y-21.726 E427.57191
G1 X-0.565 Y-21.613 E427.66686
G1 X-2.742 Y-20.915 E427.7619
G1 X-4.663 Y-19.676 E427.85694
G1 X-6.199 Y-17.983 E427.95198
G1 X-7.243 Y-15.95 E428.047
G1 X-7.727 Y-13.715 E428.14207
G1 X-7.614 Y-11.433 E428.23706
G1 X-6.916 Y-9.256 E428.33211
G1 X-5.677 Y-7.335 E428.42715
G1 X-3.984 Y-5.799 E428.52218
G1 X-1.951 Y-4.755 E428.6172
G1 X0.283 Y-4.271 E428.71223
G0 F18000 X0.324 Y-4.774
; TYPE:WALL-OUTER
G1 F1428 X0.324 Y-4.774 E428.71223
G1 X2.475 Y-4.88 E428.80177
G1 X4.527 Y-5.538 E428.89136
G1 X6.337 Y-6.706 E428.98092
G1 X7.784 Y-8.301 E429.07045
G1 X8.768 Y-10.217 E429.16
G1 X9.224 Y-12.323 E429.24959
G1 X9.118 Y-14.474 E429.33913
G1 X8.46 Y-16.526 E429.42872
G1 X7.292 Y-18.336 E429.51828
G1 X5.697 Y-19.783 E429.60781
G1 X3.781 Y-20.767 E429.69736
G1 X1.675 Y-21.223 E429.78695
G1 X-0.475 Y-21.117 E429.87644
G1 X-2.527 Y-20.459 E429.96603
G1 X-4.337 Y-19.291 E430.05559
G1 X-5.784 Y-17.696 E430.14513
G1 X-6.768 Y-15.78 E430.23467
G1 X-7.224 Y-13.674 E430.32426
G1 X-7.118 Y-11.523 E430.4138
G1 X-6.46 Y-9.471 E430.50339
G1 X-5.292 Y-7.661 E430.59295
G1 X-3.697 Y-6.214 E430.68248
G1 X-1.781 Y-5.23 E430.77203
G1 X0.324 Y-4.774 E430.86158
G0 F18000 X0 Y-3.882
; TYPE:FILL
G1 F1632 X0 Y3.934 E431.18653
G0 F18000 X-1.11 Y4.069
G1 F1632 X-1.111 Y-4.123 E431.52711
G0 F18000 X-2.222 Y-4.399
G1 F1632 X-2.221 Y4.465 E431.89563
G0 F18000 X-2.169 Y4.444
G1 F1632 X-9.809 Y4.444 E432.21327
G0 F18000 X-9.809 Y5.555
G1 F1632 X-4.275 Y5.555 E432.44335
G0 F18000 X-4.443 Y5.682
G1 F1632 X-4.444 Y-5.621 E432.91327
G0 F18000 X-4.371 Y-5.555
G1 F1632 X-9.808 Y-5.554 E433.13931
G0 F18000 X-9.808 Y-4.443
G1 F1632 X-2.31 Y-4.444 E433.45104
G0 F18000 X-3.333 Y-4.969
G1 F1632 X-3.332 Y4.912 E433.86185
G0 F18000 X-5.554 Y6.578
G0 X-5.554 Y6.578
G1 F1632 X-5.555 Y-6.629 E434.41093
G0 F18000 X-5.595 Y-6.666
G1 F1632 X-9.808 Y-6.665 E434.58609
G0 F18000 X-9.808 Y-7.776
G1 F1632 X-6.486 Y-7.777 E434.7242
G0 F18000 X-6.666 Y-8.056
G1 F1632 X-6.665 Y7.994 E435.39148
G0 F18000 X-6.494 Y7.777
G1 F1632 X-9.809 Y7.777 E435.5293
G0 F18000 X-9.809 Y8.888
G1 F1632 X-7.161 Y8.888 E435.6394
G0 F18000 X-7.635 Y9.999
G1 F1632 X-9.809 Y9.999 E435.72978
G0 F18000 X-9.809 Y11.11
G1 F1632 X-7.943 Y11.11 E435.80736
G0 F18000 X-7.776 Y10.329
G1 F1632 X-7.777 Y-10.502 E436.67341
G0 F18000 X-7.616 Y-9.999
G1 F1632 X-9.808 Y-9.999 E436.76454
G0 F18000 X-9.808 Y-8.888
G1 F1632 X-7.202 Y-8.888 E436.87289
G0 F18000 X-7.971 Y-11.11
G0 X-7.971 Y-11.11
G1 F1632 X-9.808 Y-11.11 E436.94926
G0 F18000 X-9.808 Y-12.221
G1 F1632 X-8.092 Y-12.221 E437.02061
G0 F18000 X-8.148 Y-13.332
G1 F1632 X-9.808 Y-13.332 E437.08962
G0 F18000 X-9.808 Y-14.443
G1 F1632 X-8.019 Y-14.443 E437.164
G0 F18000 X-7.778 Y-15.554
G1 F1632 X-9.808 Y-15.554 E437.2484
G0 F18000 X-9.808 Y-16.665
G1 F1632 X-7.37 Y-16.665 E437.34976
G0 F18000 X-7.777 Y-15.558
G1 F1632 X-7.777 Y-21.808 E437.6096
G0 F18000 X-6.666 Y-21.808
G1 F1632 X-6.666 Y-18.037 E437.76638
G0 F18000 X-6.8 Y-17.776
G1 F1632 X-9.808 Y-17.776 E437.89144
G0 F18000 X-9.808 Y-18.887
G1 F1632 X-5.973 Y-18.887 E438.05088
G0 F18000 X-5.555 Y-19.348
G1 F1632 X-5.555 Y-21.808 E438.15316
G0 F18000 X-4.444 Y-21.808
G1 F1632 X-4.444 Y-20.341 E438.21415
G0 F18000 X-4.965 Y-19.998
G1 F1632 X-9.808 Y-19.998 E438.41549
G0 F18000 X-9.808 Y-21.109
G1 F1632 X-3.253 Y-21.109 E438.68802
G0 F18000 X-3.333 Y-21.058
G1 F1632 X-3.333 Y-21.808 E438.7192
G0 F18000 X-2.222 Y-21.808
G1 F1632 X-2.222 Y-21.544 E438.73018
G0 F18000 X1.331 Y-21.511
G0 X1.711 Y-21.674
G0 X2.472 Y-21.501
G0 X4.443 Y-21.484
G0 X4.443 Y-21.484
G1 F1632 X4.443 Y-21.808 E438.74365
G0 F18000 X5.174 Y-21.109
G1 F1632 X9.809 Y-21.109 E438.93635
G0 F18000 X9.809 Y-19.998
G1 F1632 X6.86 Y-19.998 E439.05895
G0 F18000 X6.665 Y-20.175
G1 F1632 X6.665 Y-21.808 E439.12685
G0 F18000 X7.776 Y-21.808
G1 F1632 X7.776 Y-19.166 E439.23669
G0 F18000 X8.055 Y-18.887
G1 F1632 X9.809 Y-18.887 E439.30961
G0 F18000 X9.809 Y-17.776
G1 F1632 X8.772 Y-17.776 E439.35272
G0 F18000 X8.887 Y-17.597
G1 F1632 X8.887 Y-21.808 E439.5278
G0 F18000 X5.554 Y-21.808
G1 F1632 X5.554 Y-20.914 E439.56496
G0 F18000 X9.402 Y-16.665
G0 X9.402 Y-16.665
G1 F1632 X9.809 Y-16.665 E439.58189
G0 F18000 X9.81 Y-9.999
G0 X9.81 Y-9.999
G1 F1632 X9.683 Y-9.999 E439.58717
G0 F18000 X9.81 Y-8.888
G1 F1632 X9.144 Y-8.888 E439.61485
G0 F18000 X8.887 Y-8.389
G1 F1632 X8.888 Y8.315 E440.30933
G0 F18000 X9.177 Y8.888
G1 F1632 X9.81 Y8.888 E440.33564
G0 F18000 X9.81 Y9.999
G1 F1632 X9.624 Y9.999 E440.34338
G0 F18000 X9.81 Y7.776
G0 X9.81 Y7.776
G1 F1632 X8.484 Y7.776 E440.39851
G0 F18000 X7.777 Y6.838
G1 F1632 X7.776 Y-6.892 E440.96933
G0 F18000 X7.571 Y-6.666
G1 F1632 X9.81 Y-6.666 E441.06242
G0 F18000 X9.81 Y-7.777
G1 F1632 X8.574 Y-7.777 E441.11381
G0 F18000 X9.81 Y-5.555
G0 X9.81 Y-5.555
G1 F1632 X6.288 Y-5.555 E441.26023
G0 F18000 X6.665 Y-5.798
G1 F1632 X6.666 Y5.852 E441.74458
G0 F18000 X6.287 Y5.555
G1 F1632 X9.81 Y5.554 E441.89105
G0 F18000 X9.81 Y6.665
G1 F1632 X7.648 Y6.665 E441.98094
G0 F18000 X5.555 Y5.026
G0 X5.555 Y5.026
G1 F1632 X5.554 Y-5.081 E442.40114
G0 F18000 X4.443 Y-4.523
G1 F1632 X4.444 Y4.552 E442.77843
G0 F18000 X4.188 Y4.444
G1 F1632 X9.81 Y4.443 E443.01217
G0 F18000 X9.81 Y3.332
G1 F1632 X-9.809 Y3.333 E443.82783
G0 F18000 X-9.809 Y2.222
G1 F1632 X9.81 Y2.221 E444.6435
G0 F18000 X9.81 Y1.11
G1 F1632 X-9.809 Y1.111 E445.45916
G0 F18000 X-9.808 Y0
G1 F1632 X9.81 Y0 E446.27478
